;FLAVOR:Marlin
;TIME:15295
;Filament used: 15.7964m
;Layer height: 0.28
;MINX:8.081
;MINY:8.085
;MINZ:0.28
;MAXX:209.849
;MAXY:209.834
;MAXZ:11.48
;Generated with Cura_SteamEngine 4.5.0
M140 S70
M105
M190 S70
M104 S215
M105
M109 S215
M82 ;absolute extrusion mode
; Ender 3 Custom Start G-code
G92 E0 ; Reset Extruder
G28 ; Home all axes
G1 Z2.0 F3000 ; Move Z Axis up little to prevent scratching of Heat Bed
G1 X0.1 Y20 Z0.3 F5000.0 ; Move to start position
G1 X0.1 Y200.0 Z0.3 F1500.0 E15 ; Draw the first line
G1 X0.4 Y200.0 Z0.3 F5000.0 ; Move to side a little
G1 X0.4 Y20 Z0.3 F1500.0 E30 ; Draw the second line
G92 E0 ; Reset Extruder
G1 Z2.0 F3000 ; Move Z Axis up little to prevent scratching of Heat Bed
G1 X5 Y20 Z0.3 F5000.0 ; Move over to prevent blob squish
G92 E0
G92 E0
G1 F2700 E-5
;LAYER_COUNT:41
;LAYER:0
M107
G0 F6000 X86.801 Y68.852 Z0.28
;TYPE:SKIRT
G1 F2700 E0
G1 F1200 X137.451 Y18.203 E3.33536
G1 X137.563 Y18.092 E3.3427
G1 X138.057 Y17.612 E3.37477
G1 X138.446 Y17.252 E3.39945
G1 X139.007 Y16.76 E3.4342
G1 X140.736 Y15.285 E3.54002
G1 X141.265 Y14.845 E3.57206
G1 X142.304 Y14.079 E3.63217
G1 X143.156 Y13.53 E3.67936
G1 X145.089 Y12.347 E3.78489
G1 X145.648 Y12.015 E3.81517
G1 X146.706 Y11.462 E3.87075
G1 X146.919 Y11.365 E3.88165
G1 X147.221 Y11.233 E3.897
G1 X147.576 Y11.084 E3.91493
G1 X149.711 Y10.199 E4.02254
G1 X150.402 Y9.924 E4.05717
G1 X151.597 Y9.526 E4.11582
G1 X152.228 Y9.359 E4.14622
G1 X154.747 Y8.755 E4.26684
G1 X155.389 Y8.61 E4.29748
G1 X156.578 Y8.409 E4.35363
G1 X156.888 Y8.374 E4.36816
G1 X157.255 Y8.339 E4.38533
G1 X159.815 Y8.138 E4.5049
G1 X160.571 Y8.09 E4.54017
G1 X161.884 Y8.085 E4.60131
G1 X162.383 Y8.113 E4.62458
G1 X164.862 Y8.306 E4.74037
G1 X165.713 Y8.384 E4.78016
G1 X166.968 Y8.573 E4.83925
G1 X167.604 Y8.712 E4.86957
G1 X170.118 Y9.316 E4.98996
G1 X170.767 Y9.481 E5.02114
G1 X171.979 Y9.865 E5.08034
G1 X172.421 Y10.037 E5.10243
G1 X172.764 Y10.177 E5.11968
G1 X174.916 Y11.067 E5.22812
G1 X175.607 Y11.365 E5.26316
G1 X176.688 Y11.904 E5.3194
G1 X176.943 Y12.049 E5.33306
G1 X177.25 Y12.23 E5.34966
G1 X179.442 Y13.573 E5.46936
G1 X180.07 Y13.97 E5.50396
G1 X181.087 Y14.697 E5.56217
G1 X181.603 Y15.118 E5.59318
G1 X183.564 Y16.795 E5.71333
G1 X184.064 Y17.235 E5.74434
G1 X184.406 Y17.549 E5.76596
G1 X184.978 Y18.101 E5.80297
G1 X198.365 Y31.49 E6.6846
G1 X198.841 Y31.979 E6.71637
G1 X199.214 Y32.382 E6.74194
G1 X199.737 Y32.978 E6.77886
G1 X201.692 Y35.269 E6.9191
G1 X202.168 Y35.843 E6.95383
G1 X202.873 Y36.793 E7.00891
G1 X203.061 Y37.077 E7.02477
G1 X203.268 Y37.401 E7.04267
G1 X205.016 Y40.256 E7.19855
G1 X205.373 Y40.857 E7.2311
G1 X205.927 Y41.917 E7.2868
G1 X206.044 Y42.174 E7.29994
G1 X206.193 Y42.517 E7.31736
G1 X207.505 Y45.681 E7.47685
G1 X207.751 Y46.298 E7.50778
G1 X208.139 Y47.456 E7.56465
G1 X208.32 Y48.133 E7.59728
G1 X209.11 Y51.426 E7.75497
G1 X209.259 Y52.087 E7.78652
G1 X209.462 Y53.299 E7.84374
G1 X209.496 Y53.607 E7.85817
G1 X209.528 Y53.946 E7.87402
G1 X209.793 Y57.312 E8.03124
G1 X209.839 Y58.023 E8.06442
G1 X209.849 Y59.27 E8.12249
G1 X209.814 Y59.896 E8.15168
G1 X209.552 Y63.225 E8.30717
G1 X209.486 Y63.932 E8.34024
G1 X209.324 Y65.049 E8.39279
G1 X209.115 Y66.028 E8.43941
G1 X208.375 Y69.103 E8.58668
G1 X208.197 Y69.799 E8.62013
G1 X207.834 Y70.951 E8.67637
G1 X207.718 Y71.259 E8.6917
G1 X207.587 Y71.59 E8.70828
G1 X206.31 Y74.672 E8.86362
G1 X206.02 Y75.345 E8.89774
G1 X205.476 Y76.438 E8.95459
G1 X205.329 Y76.696 E8.96842
G1 X205.151 Y76.996 E8.98466
G1 X203.391 Y79.867 E9.14147
G1 X203.003 Y80.48 E9.17525
G1 X202.319 Y81.442 E9.23021
G1 X202.133 Y81.676 E9.24413
G1 X201.89 Y81.971 E9.26193
G1 X199.68 Y84.559 E9.42039
G1 X199.224 Y85.077 E9.45253
G1 X198.574 Y85.754 E9.49623
G1 X197.87 Y86.373 E9.53988
G1 X197.115 Y86.93 E9.58357
G1 X196.316 Y87.421 E9.62724
G1 X195.557 Y87.806 E9.66687
G1 X194.312 Y88.375 E9.73061
G1 X193.954 Y88.532 E9.74881
G1 X191.666 Y89.611 E9.8666
G1 X189.427 Y90.743 E9.98343
G1 X187.199 Y91.952 E10.10146
G1 X185.04 Y93.203 E10.21765
G1 X182.902 Y94.525 E10.3347
G1 X180.773 Y95.925 E10.45335
G1 X178.733 Y97.351 E10.56925
G1 X176.689 Y98.867 E10.68774
G1 X174.727 Y100.41 E10.80397
G1 X172.808 Y102.01 E10.92031
G1 X170.895 Y103.7 E11.03917
G1 X169.059 Y105.414 E11.15613
G1 X167.732 Y106.716 E11.24269
G1 X106.706 Y167.742 E15.26136
G1 X104.866 Y169.635 E15.38428
G1 X103.197 Y171.451 E15.49913
G1 X101.51 Y173.398 E15.61909
G1 X99.936 Y175.316 E15.73462
G1 X98.376 Y177.334 E15.85339
G1 X96.919 Y179.335 E15.96865
G1 X95.475 Y181.439 E16.08748
G1 X94.12 Y183.536 E16.20373
G1 X92.828 Y185.667 E16.31977
G1 X91.565 Y187.889 E16.43879
G1 X90.385 Y190.111 E16.55594
G1 X89.27 Y192.36 E16.67282
G1 X88.137 Y194.822 E16.79902
G1 X87.873 Y195.416 E16.82929
G1 X87.455 Y196.256 E16.87298
G1 X86.968 Y197.058 E16.91667
G1 X86.414 Y197.814 E16.96031
G1 X85.798 Y198.521 E17.00397
G1 X85.144 Y199.155 E17.04639
G1 X84.362 Y199.849 E17.09507
G1 X82.185 Y201.706 E17.22831
G1 X81.622 Y202.173 E17.26237
G1 X80.626 Y202.909 E17.32004
G1 X80.342 Y203.095 E17.33585
G1 X80.062 Y203.272 E17.35127
G1 X77.209 Y205.019 E17.50705
G1 X76.604 Y205.378 E17.53981
G1 X75.574 Y205.918 E17.59396
G1 X75.334 Y206.028 E17.60625
G1 X74.961 Y206.19 E17.62519
G1 X71.838 Y207.483 E17.78258
G1 X71.173 Y207.749 E17.81593
G1 X70.016 Y208.139 E17.87278
G1 X69.719 Y208.221 E17.88713
G1 X69.363 Y208.313 E17.90425
G1 X66.102 Y209.096 E18.06041
G1 X65.38 Y209.259 E18.09488
G1 X64.155 Y209.464 E18.15271
G1 X63.817 Y209.501 E18.16854
G1 X63.48 Y209.532 E18.1843
G1 X60.155 Y209.792 E18.3396
G1 X59.571 Y209.829 E18.36685
G1 X58.268 Y209.834 E18.42752
G1 X56.87 Y209.754 E18.49273
G1 X54.177 Y209.545 E18.6185
G1 X53.518 Y209.484 E18.64932
G1 X52.375 Y209.317 E18.70311
G1 X52.06 Y209.254 E18.71806
G1 X51.651 Y209.165 E18.73755
G1 X48.358 Y208.373 E18.89526
G1 X47.687 Y208.202 E18.92751
G1 X46.537 Y207.841 E18.98363
G1 X46.26 Y207.737 E18.99741
G1 X45.92 Y207.603 E19.01443
G1 X42.791 Y206.307 E19.17213
G1 X42.125 Y206.02 E19.2059
G1 X41.017 Y205.467 E19.26356
G1 X40.732 Y205.304 E19.27885
G1 X40.445 Y205.134 E19.29438
G1 X37.594 Y203.385 E19.45012
G1 X36.989 Y203.002 E19.48347
G1 X36.024 Y202.315 E19.53862
G1 X35.789 Y202.128 E19.55261
G1 X35.498 Y201.889 E19.57014
G1 X32.907 Y199.677 E19.72878
G1 X32.034 Y198.896 E19.78332
G1 X31.521 Y198.399 E19.81658
G1 X18.084 Y184.961 E20.70146
G1 X17.608 Y184.47 E20.73331
G1 X17.277 Y184.112 E20.75601
G1 X16.768 Y183.536 E20.7918
G1 X15.274 Y181.783 E20.89905
G1 X14.8 Y181.212 E20.93361
G1 X14.051 Y180.196 E20.99238
G1 X13.72 Y179.681 E21.02089
G1 X12.359 Y177.46 E21.14218
G1 X12.008 Y176.869 E21.17419
G1 X11.437 Y175.771 E21.23181
G1 X11.182 Y175.193 E21.26123
G1 X10.202 Y172.827 E21.38048
G1 X9.931 Y172.15 E21.41444
G1 X9.515 Y170.9 E21.47578
G1 X9.357 Y170.295 E21.5049
G1 X8.757 Y167.792 E21.62475
G1 X8.609 Y167.139 E21.65592
G1 X8.398 Y165.861 E21.71624
G1 X8.336 Y165.236 E21.74548
G1 X8.136 Y162.677 E21.86501
G1 X8.091 Y161.982 E21.89744
G1 X8.081 Y160.729 E21.95578
G1 X8.116 Y160.112 E21.98456
G1 X8.316 Y157.565 E22.10352
G1 X8.384 Y156.822 E22.13826
G1 X8.572 Y155.568 E22.19731
G1 X8.702 Y154.97 E22.2258
G1 X9.316 Y152.412 E22.3483
G1 X9.48 Y151.767 E22.37929
G1 X9.86 Y150.566 E22.43794
G1 X10.097 Y149.956 E22.46842
G1 X11.076 Y147.593 E22.58752
G1 X11.352 Y146.952 E22.62002
G1 X11.876 Y145.894 E22.67499
G1 X12.029 Y145.623 E22.68948
G1 X12.378 Y145.039 E22.72116
G1 X13.584 Y143.072 E22.8286
G1 X13.976 Y142.453 E22.86271
G1 X14.676 Y141.47 E22.91891
G1 X14.879 Y141.216 E22.93405
G1 X15.107 Y140.94 E22.95072
G1 X16.773 Y138.992 E23.07007
G1 X17.26 Y138.439 E23.10438
G1 X17.57 Y138.101 E23.12574
G1 X18.075 Y137.578 E23.15959
G1 X86.801 Y68.852 E27.68532
G0 F6000 X87.084 Y69.135
G1 F1200 X137.734 Y18.486 E31.02067
G1 X137.842 Y18.379 E31.02775
G1 X138.336 Y17.899 E31.05983
G1 X138.711 Y17.552 E31.08362
G1 X139.266 Y17.064 E31.11803
G1 X140.992 Y15.593 E31.22363
G1 X141.521 Y15.153 E31.25567
G1 X142.522 Y14.415 E31.31358
G1 X143.365 Y13.871 E31.36029
G1 X145.293 Y12.691 E31.46555
G1 X145.852 Y12.359 E31.49582
G1 X146.872 Y11.826 E31.54941
G1 X147.085 Y11.729 E31.56031
G1 X147.376 Y11.602 E31.57509
G1 X147.731 Y11.453 E31.59302
G1 X149.858 Y10.57 E31.70026
G1 X150.549 Y10.295 E31.73489
G1 X151.701 Y9.912 E31.79142
G1 X152.321 Y9.748 E31.82128
G1 X154.835 Y9.145 E31.94166
G1 X155.477 Y9 E31.97231
G1 X156.623 Y8.807 E32.02643
G1 X156.933 Y8.772 E32.04095
G1 X157.286 Y8.738 E32.05746
G1 X159.84 Y8.537 E32.17676
G1 X160.596 Y8.489 E32.21203
G1 X161.862 Y8.485 E32.27098
G1 X162.361 Y8.513 E32.29425
G1 X164.973 Y8.717 E32.41625
G1 X165.676 Y8.782 E32.44912
G1 X166.885 Y8.965 E32.50606
G1 X167.511 Y9.101 E32.53589
G1 X170.02 Y9.704 E32.65605
G1 X170.669 Y9.869 E32.68723
G1 X171.837 Y10.239 E32.74428
G1 X172.27 Y10.407 E32.76591
G1 X172.613 Y10.547 E32.78316
G1 X174.758 Y11.435 E32.89126
G1 X175.449 Y11.733 E32.9263
G1 X176.491 Y12.252 E32.9805
G1 X176.746 Y12.397 E32.99416
G1 X177.041 Y12.571 E33.01011
G1 X179.228 Y13.911 E33.12954
G1 X179.856 Y14.308 E33.16414
G1 X180.836 Y15.009 E33.22024
G1 X181.343 Y15.422 E33.25069
G1 X183.3 Y17.095 E33.37058
G1 X183.8 Y17.535 E33.40159
G1 X184.129 Y17.838 E33.42242
G1 X184.696 Y18.384 E33.45907
G1 X198.079 Y31.769 E34.34043
G1 X198.555 Y32.258 E34.37221
G1 X198.914 Y32.647 E34.39685
G1 X199.433 Y33.238 E34.43348
G1 X201.384 Y35.525 E34.57346
G1 X201.86 Y36.099 E34.60818
G1 X202.54 Y37.014 E34.66126
G1 X202.728 Y37.298 E34.67712
G1 X202.927 Y37.61 E34.69435
G1 X204.672 Y40.461 E34.85
G1 X205.029 Y41.062 E34.88255
G1 X205.563 Y42.083 E34.9362
G1 X205.68 Y42.34 E34.94935
G1 X205.824 Y42.67 E34.96612
G1 X207.133 Y45.829 E35.12534
G1 X207.379 Y46.446 E35.15627
G1 X207.754 Y47.562 E35.21109
G1 X207.845 Y47.893 E35.22708
G1 X207.931 Y48.226 E35.24309
G1 X208.72 Y51.514 E35.40054
G1 X208.869 Y52.175 E35.43209
G1 X209.064 Y53.343 E35.48723
G1 X209.129 Y53.977 E35.51691
G1 X209.394 Y57.338 E35.6739
G1 X209.44 Y58.049 E35.70707
G1 X209.449 Y59.25 E35.763
G1 X209.415 Y59.865 E35.79168
G1 X209.154 Y63.188 E35.94689
G1 X209.088 Y63.895 E35.97995
G1 X208.932 Y64.972 E36.03062
G1 X208.726 Y65.934 E36.07643
G1 X207.987 Y69.004 E36.22347
G1 X207.809 Y69.7 E36.25692
G1 X207.46 Y70.81 E36.3111
G1 X207.344 Y71.118 E36.32643
G1 X207.218 Y71.437 E36.3424
G1 X205.943 Y74.514 E36.49749
G1 X205.653 Y75.187 E36.53161
G1 X205.128 Y76.24 E36.5864
G1 X204.981 Y76.498 E36.60023
G1 X204.81 Y76.788 E36.6159
G1 X203.053 Y79.653 E36.7724
G1 X202.665 Y80.266 E36.80618
G1 X202.006 Y81.193 E36.85914
G1 X201.82 Y81.427 E36.87306
G1 X201.586 Y81.711 E36.8902
G1 X199.379 Y84.295 E37.04843
G1 X198.923 Y84.813 E37.08057
G1 X198.286 Y85.477 E37.12341
G1 X197.593 Y86.083 E37.16628
G1 X196.85 Y86.627 E37.20916
G1 X196.062 Y87.104 E37.25205
G1 X195.39 Y87.442 E37.28707
G1 X194.152 Y88.009 E37.35048
G1 X193.773 Y88.175 E37.36975
G1 X191.494 Y89.25 E37.48708
G1 X189.248 Y90.386 E37.60428
G1 X186.986 Y91.612 E37.72408
G1 X184.85 Y92.851 E37.83907
G1 X182.652 Y94.21 E37.9594
G1 X180.594 Y95.563 E38.07408
G1 X178.47 Y97.048 E38.19476
G1 X176.466 Y98.534 E38.31093
G1 X174.47 Y100.105 E38.42921
G1 X172.533 Y101.719 E38.54661
G1 X170.64 Y103.391 E38.66421
G1 X168.768 Y105.139 E38.78347
G1 X167.452 Y106.43 E38.86932
G1 X106.419 Y167.463 E42.88844
G1 X104.584 Y169.351 E43.01104
G1 X102.883 Y171.202 E43.1281
G1 X101.217 Y173.124 E43.24653
G1 X99.609 Y175.084 E43.36458
G1 X98.081 Y177.06 E43.4809
G1 X96.582 Y179.12 E43.59953
G1 X95.142 Y181.217 E43.71798
G1 X93.781 Y183.324 E43.83478
G1 X92.472 Y185.484 E43.95238
G1 X91.207 Y187.71 E44.0716
G1 X90.03 Y189.924 E44.18836
G1 X88.919 Y192.165 E44.30483
G1 X87.764 Y194.676 E44.43353
G1 X87.507 Y195.254 E44.46298
G1 X87.097 Y196.078 E44.50584
G1 X86.617 Y196.863 E44.54868
G1 X86.07 Y197.604 E44.59157
G1 X85.461 Y198.295 E44.63446
G1 X84.878 Y198.856 E44.67213
G1 X84.103 Y199.545 E44.72042
G1 X81.929 Y201.399 E44.85346
G1 X81.366 Y201.866 E44.88752
G1 X80.407 Y202.574 E44.94303
G1 X79.853 Y202.931 E44.97372
G1 X77.005 Y204.675 E45.12922
G1 X76.4 Y205.034 E45.16198
G1 X75.408 Y205.554 E45.21413
G1 X75.168 Y205.664 E45.22642
G1 X74.808 Y205.821 E45.24471
G1 X71.69 Y207.112 E45.40185
G1 X71.025 Y207.378 E45.4352
G1 X69.909 Y207.754 E45.49004
G1 X69.612 Y207.836 E45.50439
G1 X69.269 Y207.924 E45.52087
G1 X66.014 Y208.706 E45.67675
G1 X65.292 Y208.869 E45.71122
G1 X64.111 Y209.066 E45.76697
G1 X63.449 Y209.134 E45.79796
G1 X60.129 Y209.393 E45.95302
G1 X59.545 Y209.43 E45.98027
G1 X58.29 Y209.435 E46.03871
G1 X56.901 Y209.356 E46.10349
G1 X54.214 Y209.147 E46.22899
G1 X53.555 Y209.086 E46.2598
G1 X52.453 Y208.925 E46.31166
G1 X52.138 Y208.862 E46.32662
G1 X51.744 Y208.776 E46.3454
G1 X48.456 Y207.986 E46.50286
G1 X47.785 Y207.815 E46.5351
G1 X46.677 Y207.467 E46.58918
G1 X46.4 Y207.363 E46.60296
G1 X46.073 Y207.233 E46.61934
G1 X42.949 Y205.94 E46.77678
G1 X42.283 Y205.653 E46.81055
G1 X41.215 Y205.119 E46.86615
G1 X40.654 Y204.793 E46.89636
G1 X37.808 Y203.047 E47.05183
G1 X37.203 Y202.664 E47.08517
G1 X36.273 Y202.002 E47.13833
G1 X36.038 Y201.815 E47.15231
G1 X35.758 Y201.585 E47.16919
G1 X33.172 Y199.377 E47.32752
G1 X32.306 Y198.603 E47.38161
G1 X31.804 Y198.116 E47.41417
G1 X18.371 Y184.682 E48.29879
G1 X17.895 Y184.191 E48.33064
G1 X17.576 Y183.847 E48.35248
G1 X17.073 Y183.276 E48.38791
G1 X15.582 Y181.527 E48.49493
G1 X15.108 Y180.956 E48.52949
G1 X14.386 Y179.977 E48.58613
G1 X14.061 Y179.472 E48.61409
G1 X12.703 Y177.256 E48.73511
G1 X12.352 Y176.665 E48.76712
G1 X11.802 Y175.606 E48.82269
G1 X11.552 Y175.04 E48.8515
G1 X10.573 Y172.678 E48.97056
G1 X10.302 Y172.001 E49.00451
G1 X9.902 Y170.797 E49.06359
G1 X9.746 Y170.201 E49.09227
G1 X9.147 Y167.704 E49.21184
G1 X8.999 Y167.051 E49.24302
G1 X8.795 Y165.819 E49.30117
G1 X8.734 Y165.205 E49.3299
G1 X8.535 Y162.651 E49.44919
G1 X8.49 Y161.956 E49.48162
G1 X8.481 Y160.749 E49.53782
G1 X8.515 Y160.143 E49.56608
G1 X8.714 Y157.602 E49.68476
G1 X8.782 Y156.859 E49.71951
G1 X8.963 Y155.65 E49.77643
G1 X9.091 Y155.063 E49.80441
G1 X9.704 Y152.511 E49.92662
G1 X9.868 Y151.866 E49.95761
G1 X10.234 Y150.708 E50.01416
G1 X10.467 Y150.109 E50.04409
G1 X11.443 Y147.751 E50.16292
G1 X11.719 Y147.11 E50.19541
G1 X12.224 Y146.091 E50.24837
G1 X12.377 Y145.82 E50.26286
G1 X12.55 Y145.525 E50.27879
G1 X12.719 Y145.247 E50.29394
G1 X13.922 Y143.286 E50.40106
G1 X14.314 Y142.667 E50.43518
G1 X14.989 Y141.72 E50.48933
G1 X15.192 Y141.466 E50.50447
G1 X15.411 Y141.2 E50.52051
G1 X17.073 Y139.256 E50.63961
G1 X17.56 Y138.703 E50.67392
G1 X17.859 Y138.378 E50.69448
G1 X18.358 Y137.861 E50.72794
G1 X87.084 Y69.135 E55.25366
G0 F6000 X87.367 Y69.418
G1 F1200 X138.017 Y18.769 E58.58902
G1 X138.121 Y18.666 E58.59584
G1 X138.615 Y18.186 E58.62791
G1 X138.976 Y17.852 E58.65081
G1 X139.526 Y17.368 E58.68492
G1 X141.247 Y15.9 E58.79025
G1 X141.776 Y15.46 E58.82229
G1 X142.74 Y14.75 E58.87804
G1 X143.574 Y14.212 E58.92426
G1 X145.497 Y13.035 E59.02924
G1 X146.056 Y12.703 E59.05951
G1 X147.038 Y12.19 E59.1111
G1 X147.53 Y11.971 E59.13618
G1 X147.885 Y11.822 E59.15411
G1 X150.006 Y10.942 E59.26103
G1 X150.697 Y10.667 E59.29566
G1 X151.805 Y10.298 E59.35004
G1 X152.415 Y10.137 E59.37942
G1 X154.923 Y9.536 E59.49951
G1 X155.565 Y9.391 E59.53016
G1 X156.668 Y9.204 E59.58225
G1 X156.978 Y9.169 E59.59678
G1 X157.318 Y9.137 E59.61268
G1 X159.866 Y8.936 E59.73169
G1 X160.622 Y8.888 E59.76697
G1 X161.839 Y8.884 E59.82363
G1 X162.338 Y8.912 E59.84691
G1 X164.936 Y9.115 E59.96825
G1 X165.639 Y9.18 E60.00112
G1 X166.803 Y9.356 E60.05594
G1 X167.417 Y9.49 E60.0852
G1 X169.921 Y10.091 E60.20511
G1 X170.57 Y10.256 E60.23629
G1 X171.694 Y10.612 E60.29119
G1 X172.119 Y10.777 E60.31242
G1 X172.462 Y10.917 E60.32967
G1 X174.599 Y11.802 E60.43738
G1 X175.29 Y12.1 E60.47242
G1 X176.293 Y12.599 E60.52458
G1 X176.548 Y12.744 E60.53824
G1 X176.832 Y12.912 E60.55361
G1 X179.014 Y14.249 E60.67277
G1 X179.642 Y14.646 E60.70736
G1 X180.586 Y15.321 E60.7614
G1 X181.083 Y15.727 E60.79128
G1 X183.035 Y17.396 E60.91087
G1 X183.535 Y17.836 E60.94188
G1 X183.852 Y18.127 E60.96192
G1 X184.413 Y18.667 E60.99818
