;FLAVOR:Marlin
;TIME:15721
;Filament used: 16.8517m
;Layer height: 0.28
;MINX:8.079
;MINY:8.085
;MINZ:0.28
;MAXX:209.849
;MAXY:209.849
;MAXZ:11.48
;Generated with Cura_SteamEngine 4.5.0
M140 S70
M105
M190 S70
M104 S215
M105
M109 S215
M82 ;absolute extrusion mode
; Ender 3 Custom Start G-code
G92 E0 ; Reset Extruder
G28 ; Home all axes
G1 Z2.0 F3000 ; Move Z Axis up little to prevent scratching of Heat Bed
G1 X0.1 Y20 Z0.3 F5000.0 ; Move to start position
G1 X0.1 Y200.0 Z0.3 F1500.0 E15 ; Draw the first line
G1 X0.4 Y200.0 Z0.3 F5000.0 ; Move to side a little
G1 X0.4 Y20 Z0.3 F1500.0 E30 ; Draw the second line
G92 E0 ; Reset Extruder
G1 Z2.0 F3000 ; Move Z Axis up little to prevent scratching of Heat Bed
G1 X5 Y20 Z0.3 F5000.0 ; Move over to prevent blob squish
G92 E0
G92 E0
G1 F2700 E-5
;LAYER_COUNT:41
;LAYER:0
M107
G0 F6000 X137.451 Y18.203 Z0.28
;TYPE:SKIRT
G1 F2700 E0
G1 F1200 X137.563 Y18.092 E0.00734
G1 X138.057 Y17.612 E0.03942
G1 X138.437 Y17.26 E0.06353
G1 X139.006 Y16.76 E0.09881
G1 X140.743 Y15.278 E0.20513
G1 X141.273 Y14.838 E0.2372
G1 X142.304 Y14.079 E0.29682
G1 X143.156 Y13.53 E0.34401
G1 X145.089 Y12.347 E0.44954
G1 X145.648 Y12.015 E0.47981
G1 X146.706 Y11.462 E0.5354
G1 X146.919 Y11.365 E0.5463
G1 X147.221 Y11.233 E0.56165
G1 X147.576 Y11.084 E0.57957
G1 X149.711 Y10.199 E0.68719
G1 X150.402 Y9.924 E0.72182
G1 X151.597 Y9.526 E0.78047
G1 X152.228 Y9.359 E0.81086
G1 X154.747 Y8.755 E0.93148
G1 X155.389 Y8.61 E0.96213
G1 X156.578 Y8.409 E1.01828
G1 X156.888 Y8.374 E1.03281
G1 X157.255 Y8.339 E1.04997
G1 X159.815 Y8.138 E1.16955
G1 X160.571 Y8.09 E1.20482
G1 X161.884 Y8.085 E1.26596
G1 X162.383 Y8.113 E1.28923
G1 X164.862 Y8.306 E1.40501
G1 X165.713 Y8.384 E1.4448
G1 X166.968 Y8.573 E1.5039
G1 X167.604 Y8.712 E1.53422
G1 X170.118 Y9.316 E1.65461
G1 X170.767 Y9.481 E1.68579
G1 X171.979 Y9.865 E1.74499
G1 X172.421 Y10.037 E1.76708
G1 X172.764 Y10.177 E1.78433
G1 X174.916 Y11.067 E1.89276
G1 X175.607 Y11.365 E1.9278
G1 X176.688 Y11.904 E1.98405
G1 X176.943 Y12.049 E1.99771
G1 X177.25 Y12.23 E2.0143
G1 X179.442 Y13.573 E2.13401
G1 X180.07 Y13.97 E2.1686
G1 X181.087 Y14.697 E2.22681
G1 X181.603 Y15.118 E2.25782
G1 X183.564 Y16.795 E2.37797
G1 X184.064 Y17.235 E2.40899
G1 X184.406 Y17.549 E2.4306
G1 X184.978 Y18.101 E2.46762
G1 X198.365 Y31.49 E3.34924
G1 X198.841 Y31.979 E3.38102
G1 X199.214 Y32.382 E3.40659
G1 X199.737 Y32.978 E3.44351
G1 X201.692 Y35.269 E3.58375
G1 X202.168 Y35.843 E3.61847
G1 X202.873 Y36.793 E3.67356
G1 X203.061 Y37.077 E3.68942
G1 X203.268 Y37.401 E3.70732
G1 X205.016 Y40.256 E3.8632
G1 X205.373 Y40.857 E3.89575
G1 X205.913 Y41.886 E3.94986
G1 X206.025 Y42.13 E3.96236
G1 X206.19 Y42.509 E3.98161
G1 X207.471 Y45.603 E4.13754
G1 X207.737 Y46.268 E4.17089
G1 X208.133 Y47.446 E4.22876
G1 X208.23 Y47.8 E4.24585
G1 X208.314 Y48.127 E4.26157
G1 X209.112 Y51.44 E4.42025
G1 X209.247 Y52.034 E4.44862
G1 X209.44 Y53.139 E4.50085
G1 X209.482 Y53.483 E4.51698
G1 X209.529 Y53.951 E4.53889
G1 X209.793 Y57.312 E4.69587
G1 X209.839 Y58.023 E4.72905
G1 X209.849 Y59.266 E4.78693
G1 X209.812 Y59.927 E4.81776
G1 X209.546 Y63.296 E4.97512
G1 X209.483 Y63.972 E5.00673
G1 X209.297 Y65.204 E5.06475
G1 X209.155 Y65.861 E5.09605
G1 X208.381 Y69.081 E5.25026
G1 X208.195 Y69.807 E5.28515
G1 X207.829 Y70.965 E5.3417
G1 X207.713 Y71.272 E5.35699
G1 X207.587 Y71.591 E5.37296
G1 X206.31 Y74.672 E5.52826
G1 X206.02 Y75.345 E5.56238
G1 X205.476 Y76.438 E5.61923
G1 X205.329 Y76.696 E5.63306
G1 X205.151 Y76.996 E5.6493
G1 X203.391 Y79.867 E5.8061
G1 X203.003 Y80.48 E5.83989
G1 X202.319 Y81.442 E5.89485
G1 X202.133 Y81.676 E5.90877
G1 X201.89 Y81.971 E5.92656
G1 X199.68 Y84.559 E6.08503
G1 X199.224 Y85.077 E6.11717
G1 X198.574 Y85.754 E6.16087
G1 X197.87 Y86.373 E6.20452
G1 X197.115 Y86.93 E6.24821
G1 X196.316 Y87.421 E6.29188
G1 X195.558 Y87.805 E6.33144
G1 X194.396 Y88.337 E6.39095
G1 X194.064 Y88.482 E6.40782
G1 X191.788 Y89.55 E6.52489
G1 X189.535 Y90.686 E6.64238
G1 X187.342 Y91.871 E6.75845
G1 X185.154 Y93.134 E6.87609
G1 X182.999 Y94.462 E6.99396
G1 X180.897 Y95.838 E7.11094
G1 X178.872 Y97.251 E7.22592
G1 X176.791 Y98.789 E7.34641
G1 X174.845 Y100.315 E7.46156
G1 X172.88 Y101.948 E7.58053
G1 X171.009 Y103.594 E7.69657
G1 X169.153 Y105.323 E7.81468
G1 X167.771 Y106.676 E7.90474
G1 X106.826 Y167.621 E11.91807
G1 X106.676 Y167.773 E11.92802
G1 X104.866 Y169.635 E12.04893
G1 X103.197 Y171.451 E12.16378
G1 X101.51 Y173.398 E12.28374
G1 X99.936 Y175.316 E12.39927
G1 X98.376 Y177.334 E12.51804
G1 X96.919 Y179.335 E12.6333
G1 X95.475 Y181.439 E12.75213
G1 X94.12 Y183.536 E12.86838
G1 X92.828 Y185.667 E12.98442
G1 X91.565 Y187.889 E13.10344
G1 X90.385 Y190.111 E13.22059
G1 X89.27 Y192.36 E13.33747
G1 X88.137 Y194.822 E13.46367
G1 X87.873 Y195.416 E13.49394
G1 X87.455 Y196.256 E13.53763
G1 X86.968 Y197.058 E13.58132
G1 X86.414 Y197.814 E13.62496
G1 X85.798 Y198.521 E13.66862
G1 X85.144 Y199.155 E13.71104
G1 X84.362 Y199.849 E13.75972
G1 X82.185 Y201.706 E13.89296
G1 X81.622 Y202.173 E13.92702
G1 X80.626 Y202.909 E13.98469
G1 X80.342 Y203.095 E14.0005
G1 X80.062 Y203.272 E14.01592
G1 X77.209 Y205.019 E14.1717
G1 X76.604 Y205.378 E14.20446
G1 X75.574 Y205.918 E14.25861
G1 X75.334 Y206.028 E14.2709
G1 X74.961 Y206.19 E14.28984
G1 X71.838 Y207.483 E14.44723
G1 X71.173 Y207.749 E14.48058
G1 X70.004 Y208.142 E14.53801
G1 X69.673 Y208.233 E14.55399
G1 X69.325 Y208.323 E14.57073
G1 X66.058 Y209.106 E14.72716
G1 X65.39 Y209.257 E14.75905
G1 X64.168 Y209.462 E14.81675
G1 X63.515 Y209.529 E14.84731
G1 X60.14 Y209.795 E15.00496
G1 X59.436 Y209.84 E15.0378
G1 X58.202 Y209.849 E15.09526
G1 X57.892 Y209.834 E15.10972
G1 X57.562 Y209.813 E15.12511
G1 X54.172 Y209.545 E15.28346
G1 X53.497 Y209.482 E15.31503
G1 X52.272 Y209.298 E15.37271
G1 X51.927 Y209.226 E15.38912
G1 X51.607 Y209.154 E15.40439
G1 X48.346 Y208.37 E15.56056
G1 X47.674 Y208.198 E15.59286
G1 X46.556 Y207.848 E15.64741
G1 X46.28 Y207.745 E15.66113
G1 X45.92 Y207.603 E15.67915
G1 X42.791 Y206.307 E15.83685
G1 X42.125 Y206.02 E15.87062
G1 X41.017 Y205.467 E15.92828
G1 X40.732 Y205.304 E15.94357
G1 X40.445 Y205.134 E15.95911
G1 X37.594 Y203.385 E16.11485
G1 X36.989 Y203.002 E16.14819
G1 X36.024 Y202.315 E16.20335
G1 X35.789 Y202.128 E16.21733
G1 X35.498 Y201.889 E16.23487
G1 X32.907 Y199.677 E16.3935
G1 X32.034 Y198.896 E16.44805
G1 X31.521 Y198.399 E16.48131
G1 X18.084 Y184.961 E17.36619
G1 X17.608 Y184.47 E17.39803
G1 X17.277 Y184.112 E17.42073
G1 X16.768 Y183.536 E17.45653
G1 X15.274 Y181.783 E17.56378
G1 X14.8 Y181.212 E17.59833
G1 X14.051 Y180.196 E17.65711
G1 X13.72 Y179.681 E17.68561
G1 X12.359 Y177.46 E17.80691
G1 X12.008 Y176.869 E17.83891
G1 X11.437 Y175.771 E17.89654
G1 X11.182 Y175.193 E17.92596
G1 X10.202 Y172.827 E18.04521
G1 X9.931 Y172.15 E18.07916
G1 X9.516 Y170.9 E18.14049
G1 X9.361 Y170.31 E18.1689
G1 X8.771 Y167.848 E18.28678
G1 X8.611 Y167.138 E18.32067
G1 X8.403 Y165.881 E18.38
G1 X8.339 Y165.236 E18.41018
G1 X8.136 Y162.672 E18.52994
G1 X8.091 Y161.986 E18.56196
G1 X8.079 Y160.761 E18.619
G1 X8.092 Y160.478 E18.63219
G1 X8.114 Y160.123 E18.64875
G1 X8.319 Y157.521 E18.77029
G1 X8.385 Y156.809 E18.80359
G1 X8.571 Y155.574 E18.86174
G1 X8.707 Y154.944 E18.89175
G1 X9.316 Y152.412 E19.01301
G1 X9.48 Y151.767 E19.044
G1 X9.86 Y150.566 E19.10266
G1 X10.097 Y149.956 E19.13313
G1 X11.076 Y147.593 E19.25223
G1 X11.352 Y146.952 E19.28473
G1 X11.876 Y145.894 E19.33971
G1 X12.029 Y145.623 E19.3542
G1 X12.378 Y145.039 E19.38588
G1 X13.584 Y143.072 E19.49331
G1 X13.976 Y142.453 E19.52743
G1 X14.676 Y141.47 E19.58362
G1 X14.879 Y141.216 E19.59876
G1 X15.107 Y140.94 E19.61543
G1 X16.773 Y138.992 E19.73479
G1 X17.26 Y138.439 E19.7691
G1 X17.57 Y138.101 E19.79046
G1 X18.075 Y137.578 E19.82431
G1 X137.451 Y18.203 E27.68539
G0 F6000 X137.734 Y18.486
G1 F1200 X137.842 Y18.379 E27.69247
G1 X138.336 Y17.899 E27.72454
G1 X138.702 Y17.56 E27.74777
G1 X139.265 Y17.064 E27.78271
G1 X140.998 Y15.586 E27.88877
G1 X141.528 Y15.146 E27.92084
G1 X142.522 Y14.415 E27.9783
G1 X143.365 Y13.871 E28.02501
G1 X145.293 Y12.691 E28.13027
G1 X145.852 Y12.359 E28.16054
G1 X146.872 Y11.826 E28.21413
G1 X147.085 Y11.729 E28.22503
G1 X147.376 Y11.602 E28.23981
G1 X147.731 Y11.453 E28.25774
G1 X149.858 Y10.57 E28.36498
G1 X150.549 Y10.295 E28.39961
G1 X151.701 Y9.912 E28.45614
G1 X152.321 Y9.748 E28.486
G1 X154.835 Y9.145 E28.60638
G1 X155.477 Y9 E28.63703
G1 X156.623 Y8.807 E28.69115
G1 X156.933 Y8.772 E28.70567
G1 X157.286 Y8.738 E28.72219
G1 X159.84 Y8.537 E28.84148
G1 X160.596 Y8.489 E28.87675
G1 X161.862 Y8.485 E28.9357
G1 X162.361 Y8.513 E28.95897
G1 X164.973 Y8.717 E29.08097
G1 X165.676 Y8.782 E29.11384
G1 X166.885 Y8.965 E29.17078
G1 X167.511 Y9.101 E29.20061
G1 X170.02 Y9.704 E29.32077
G1 X170.669 Y9.869 E29.35195
G1 X171.837 Y10.239 E29.409
G1 X172.27 Y10.407 E29.43063
G1 X172.613 Y10.547 E29.44788
G1 X174.758 Y11.435 E29.55598
G1 X175.449 Y11.733 E29.59102
G1 X176.491 Y12.252 E29.64522
G1 X176.746 Y12.397 E29.65888
G1 X177.041 Y12.571 E29.67483
G1 X179.228 Y13.911 E29.79426
G1 X179.856 Y14.308 E29.82886
G1 X180.836 Y15.009 E29.88496
G1 X181.343 Y15.422 E29.91541
G1 X183.3 Y17.095 E30.0353
G1 X183.8 Y17.535 E30.06631
G1 X184.129 Y17.838 E30.08714
G1 X184.696 Y18.384 E30.12379
G1 X198.079 Y31.769 E31.00515
G1 X198.555 Y32.258 E31.03693
G1 X198.914 Y32.647 E31.06157
G1 X199.433 Y33.238 E31.0982
G1 X201.384 Y35.525 E31.23818
G1 X201.86 Y36.099 E31.2729
G1 X202.54 Y37.014 E31.32598
G1 X202.728 Y37.298 E31.34184
G1 X202.927 Y37.61 E31.35907
G1 X204.672 Y40.461 E31.51472
G1 X205.029 Y41.062 E31.54727
G1 X205.55 Y42.053 E31.5994
G1 X205.662 Y42.297 E31.61191
G1 X205.821 Y42.662 E31.63044
G1 X207.1 Y45.751 E31.78612
G1 X207.366 Y46.416 E31.81947
G1 X207.747 Y47.552 E31.87527
G1 X207.844 Y47.906 E31.89236
G1 X207.925 Y48.221 E31.9075
G1 X208.722 Y51.529 E32.06594
G1 X208.857 Y52.123 E32.09431
G1 X209.043 Y53.187 E32.1446
G1 X209.085 Y53.531 E32.16074
G1 X209.13 Y53.982 E32.18185
G1 X209.394 Y57.338 E32.3386
G1 X209.44 Y58.049 E32.37178
G1 X209.45 Y59.246 E32.42751
G1 X209.434 Y59.576 E32.4429
G1 X209.413 Y59.895 E32.45778
G1 X209.147 Y63.259 E32.61492
G1 X209.084 Y63.935 E32.64653
G1 X208.905 Y65.123 E32.70247
G1 X208.766 Y65.767 E32.73315
G1 X207.993 Y68.982 E32.88712
G1 X207.807 Y69.708 E32.92202
G1 X207.455 Y70.824 E32.97651
G1 X207.339 Y71.131 E32.99179
G1 X207.217 Y71.438 E33.00717
G1 X205.943 Y74.514 E33.1622
G1 X205.653 Y75.187 E33.19632
G1 X205.128 Y76.24 E33.25111
G1 X204.981 Y76.498 E33.26494
G1 X204.81 Y76.788 E33.28062
G1 X203.053 Y79.653 E33.43711
G1 X202.665 Y80.266 E33.47089
G1 X202.006 Y81.193 E33.52385
G1 X201.82 Y81.427 E33.53777
G1 X201.586 Y81.711 E33.55491
G1 X199.379 Y84.295 E33.71314
G1 X198.923 Y84.813 E33.74528
G1 X198.286 Y85.477 E33.78812
G1 X197.593 Y86.083 E33.83099
G1 X196.85 Y86.627 E33.87387
G1 X196.062 Y87.104 E33.91676
G1 X195.391 Y87.441 E33.95172
G1 X194.236 Y87.97 E34.01088
G1 X193.914 Y88.111 E34.02725
G1 X191.617 Y89.189 E34.1454
G1 X189.371 Y90.321 E34.26251
G1 X187.131 Y91.531 E34.38106
G1 X184.95 Y92.791 E34.49835
G1 X182.792 Y94.12 E34.61636
G1 X180.672 Y95.508 E34.73435
G1 X178.61 Y96.946 E34.85141
G1 X176.569 Y98.455 E34.9696
G1 X174.571 Y100.021 E35.08781
G1 X172.643 Y101.624 E35.20456
G1 X170.756 Y103.285 E35.32162
G1 X168.842 Y105.067 E35.44339
G1 X167.491 Y106.39 E35.53144
G1 X106.542 Y167.339 E39.54503
G1 X106.37 Y167.513 E39.55643
G1 X104.584 Y169.351 E39.67576
G1 X102.883 Y171.202 E39.79282
G1 X101.217 Y173.124 E39.91126
G1 X99.609 Y175.084 E40.02931
G1 X98.081 Y177.06 E40.14562
G1 X96.582 Y179.12 E40.26425
G1 X95.142 Y181.217 E40.3827
G1 X93.781 Y183.324 E40.4995
G1 X92.472 Y185.484 E40.6171
G1 X91.207 Y187.71 E40.73632
G1 X90.03 Y189.924 E40.85308
G1 X88.919 Y192.165 E40.96955
G1 X87.764 Y194.676 E41.09825
G1 X87.507 Y195.254 E41.1277
G1 X87.097 Y196.078 E41.17056
G1 X86.617 Y196.863 E41.2134
G1 X86.07 Y197.604 E41.25629
G1 X85.461 Y198.295 E41.29918
G1 X84.878 Y198.856 E41.33685
G1 X84.103 Y199.545 E41.38514
G1 X81.929 Y201.399 E41.51818
G1 X81.366 Y201.866 E41.55224
G1 X80.407 Y202.574 E41.60775
G1 X79.853 Y202.931 E41.63844
G1 X77.005 Y204.675 E41.79394
G1 X76.4 Y205.034 E41.8267
G1 X75.408 Y205.554 E41.87885
G1 X75.168 Y205.664 E41.89115
G1 X74.808 Y205.821 E41.90943
G1 X71.69 Y207.112 E42.06658
G1 X71.025 Y207.378 E42.09993
G1 X69.898 Y207.757 E42.15529
G1 X69.567 Y207.848 E42.17128
G1 X69.232 Y207.934 E42.18738
G1 X65.97 Y208.716 E42.34358
G1 X65.302 Y208.867 E42.37547
G1 X64.125 Y209.064 E42.43104
G1 X63.483 Y209.13 E42.46109
G1 X60.114 Y209.395 E42.61845
G1 X59.41 Y209.44 E42.65129
G1 X58.222 Y209.45 E42.70661
G1 X57.912 Y209.435 E42.72107
G1 X57.593 Y209.414 E42.73595
G1 X54.209 Y209.147 E42.89402
G1 X53.534 Y209.084 E42.92558
G1 X52.353 Y208.906 E42.9812
G1 X51.7 Y208.765 E43.0123
G1 X48.446 Y207.983 E43.16814
G1 X47.774 Y207.811 E43.20044
G1 X46.696 Y207.473 E43.25304
G1 X46.42 Y207.37 E43.26676
G1 X46.073 Y207.233 E43.28413
G1 X42.949 Y205.94 E43.44157
G1 X42.283 Y205.653 E43.47533
G1 X41.215 Y205.119 E43.53093
G1 X40.654 Y204.793 E43.56115
G1 X37.808 Y203.047 E43.71662
G1 X37.203 Y202.664 E43.74996
G1 X36.273 Y202.002 E43.80312
G1 X36.038 Y201.815 E43.8171
G1 X35.758 Y201.585 E43.83398
G1 X33.172 Y199.377 E43.99231
G1 X32.306 Y198.603 E44.04639
G1 X31.804 Y198.116 E44.07896
G1 X18.371 Y184.682 E44.96358
G1 X17.895 Y184.191 E44.99542
G1 X17.576 Y183.847 E45.01727
G1 X17.073 Y183.276 E45.0527
G1 X15.582 Y181.527 E45.15972
G1 X15.108 Y180.956 E45.19428
G1 X14.386 Y179.977 E45.25092
G1 X14.061 Y179.472 E45.27888
G1 X12.703 Y177.256 E45.3999
G1 X12.352 Y176.665 E45.43191
G1 X11.802 Y175.606 E45.48747
G1 X11.552 Y175.04 E45.51629
G1 X10.573 Y172.678 E45.63534
G1 X10.302 Y172.001 E45.6693
G1 X9.902 Y170.797 E45.72838
G1 X9.75 Y170.216 E45.75634
G1 X9.161 Y167.76 E45.87394
G1 X9.001 Y167.05 E45.90783
G1 X8.801 Y165.839 E45.96499
G1 X8.737 Y165.204 E45.99471
G1 X8.535 Y162.646 E46.11419
G1 X8.49 Y161.96 E46.1462
G1 X8.478 Y160.78 E46.20115
G1 X8.491 Y160.497 E46.21434
G1 X8.512 Y160.154 E46.23034
G1 X8.717 Y157.558 E46.3516
G1 X8.783 Y156.846 E46.38489
G1 X8.962 Y155.655 E46.44097
G1 X9.096 Y155.038 E46.47037
G1 X9.704 Y152.511 E46.5914
G1 X9.868 Y151.866 E46.62239
G1 X10.234 Y150.708 E46.67894
G1 X10.467 Y150.109 E46.70887
G1 X11.443 Y147.751 E46.8277
G1 X11.719 Y147.11 E46.8602
G1 X12.224 Y146.091 E46.91315
G1 X12.377 Y145.82 E46.92764
G1 X12.55 Y145.525 E46.94357
G1 X12.719 Y145.247 E46.95872
G1 X13.922 Y143.286 E47.06584
G1 X14.314 Y142.667 E47.09996
G1 X14.989 Y141.72 E47.15411
G1 X15.192 Y141.466 E47.16925
G1 X15.411 Y141.2 E47.1853
G1 X17.073 Y139.256 E47.30439
G1 X17.56 Y138.703 E47.3387
G1 X17.859 Y138.378 E47.35926
G1 X18.358 Y137.861 E47.39272
G1 X137.734 Y18.486 E55.2538
G0 F6000 X138.017 Y18.768
G1 F1200 X138.615 Y18.186 E55.29266
G1 X138.967 Y17.86 E55.315
G1 X139.525 Y17.368 E55.34964
G1 X141.254 Y15.894 E55.45543
G1 X141.784 Y15.454 E55.48751
G1 X142.74 Y14.75 E55.54279
G1 X143.574 Y14.212 E55.58901
G1 X145.497 Y13.035 E55.69399
G1 X146.056 Y12.703 E55.72426
G1 X147.038 Y12.19 E55.77585
G1 X147.53 Y11.971 E55.80093
G1 X147.885 Y11.822 E55.81886
G1 X150.006 Y10.942 E55.92578
G1 X150.697 Y10.667 E55.96041
G1 X151.805 Y10.298 E56.01479
G1 X152.415 Y10.137 E56.04417
G1 X154.923 Y9.536 E56.16426
G1 X155.565 Y9.391 E56.19491
G1 X156.668 Y9.204 E56.247
G1 X156.978 Y9.169 E56.26153
G1 X157.318 Y9.137 E56.27743
G1 X159.866 Y8.936 E56.39644
G1 X160.622 Y8.888 E56.43172
G1 X161.839 Y8.884 E56.48838
G1 X162.338 Y8.912 E56.51166
G1 X164.936 Y9.115 E56.633
G1 X165.639 Y9.18 E56.66587
G1 X166.803 Y9.356 E56.72069
G1 X167.417 Y9.49 E56.74995
G1 X169.921 Y10.091 E56.86986
G1 X170.57 Y10.256 E56.90104
G1 X171.694 Y10.612 E56.95594
G1 X172.119 Y10.777 E56.97717
G1 X172.462 Y10.917 E56.99442
G1 X174.599 Y11.802 E57.10213
G1 X175.29 Y12.1 E57.13717
G1 X176.293 Y12.599 E57.18933
G1 X176.548 Y12.744 E57.20299
G1 X176.832 Y12.912 E57.21836
G1 X179.014 Y14.249 E57.33751
G1 X179.642 Y14.646 E57.37211
G1 X180.586 Y15.321 E57.42615
G1 X181.083 Y15.727 E57.45603
G1 X183.035 Y17.396 E57.57562
G1 X183.535 Y17.836 E57.60663
