;FLAVOR:Marlin
;TIME:23826
;Filament used: 26.996m
;Layer height: 0.28
;MINX:22
;MINY:19
;MINZ:0.28
;MAXX:198
;MAXY:201
;MAXZ:11.48
;Generated with Cura_SteamEngine 4.5.0
M140 S70
M105
M190 S70
M104 S215
M105
M109 S215
M82 ;absolute extrusion mode
; Ender 3 Custom Start G-code
G92 E0 ; Reset Extruder
G28 ; Home all axes
G1 Z2.0 F3000 ; Move Z Axis up little to prevent scratching of Heat Bed
G1 X0.1 Y20 Z0.3 F5000.0 ; Move to start position
G1 X0.1 Y200.0 Z0.3 F1500.0 E15 ; Draw the first line
G1 X0.4 Y200.0 Z0.3 F5000.0 ; Move to side a little
G1 X0.4 Y20 Z0.3 F1500.0 E30 ; Draw the second line
G92 E0 ; Reset Extruder
G1 Z2.0 F3000 ; Move Z Axis up little to prevent scratching of Heat Bed
G1 X5 Y20 Z0.3 F5000.0 ; Move over to prevent blob squish
G92 E0
G92 E0
G1 F2700 E-5
;LAYER_COUNT:41
;LAYER:0
M107
G0 F6000 X24.566 Y22.958 Z0.28
;TYPE:SKIRT
G1 F2700 E0
G1 F1200 X25.198 Y22.264 E0.04371
G1 X25.886 Y21.627 E0.08737
G1 X26.626 Y21.051 E0.13103
G1 X27.412 Y20.539 E0.17471
G1 X28.239 Y20.097 E0.21838
G1 X29.101 Y19.727 E0.26205
G1 X29.991 Y19.431 E0.30573
G1 X30.903 Y19.213 E0.34939
G1 X31.83 Y19.072 E0.39305
G1 X32.701 Y19.013 E0.4337
G1 X33.33 Y19 E0.463
G1 X186.293 Y19 E7.5856
G1 X186.451 Y19.001 E7.59295
G1 X187.149 Y19.011 E7.62546
G1 X188.085 Y19.065 E7.66912
G1 X189.013 Y19.197 E7.71276
G1 X189.927 Y19.409 E7.75645
G1 X190.819 Y19.698 E7.80011
G1 X191.684 Y20.061 E7.84379
G1 X192.514 Y20.497 E7.88745
G1 X193.305 Y21.002 E7.93115
G1 X194.049 Y21.573 E7.97482
G1 X194.742 Y22.205 E8.01849
G1 X195.379 Y22.893 E8.06215
G1 X195.954 Y23.634 E8.10582
G1 X196.465 Y24.42 E8.14948
G1 X196.907 Y25.248 E8.19318
G1 X197.276 Y26.11 E8.23684
G1 X197.571 Y27 E8.2805
G1 X197.789 Y27.912 E8.32417
G1 X197.929 Y28.84 E8.36787
G1 X197.987 Y29.701 E8.40805
G1 X198 Y30.33 E8.43735
G1 X198 Y189.264 E15.83798
G1 X197.99 Y190.127 E15.87817
G1 X197.939 Y191.064 E15.92186
G1 X197.807 Y191.992 E15.96551
G1 X197.598 Y192.906 E16.00917
G1 X197.311 Y193.799 E16.05284
G1 X196.949 Y194.665 E16.09655
G1 X196.515 Y195.496 E16.1402
G1 X196.011 Y196.287 E16.18388
G1 X195.442 Y197.032 E16.22753
G1 X194.811 Y197.727 E16.27124
G1 X194.124 Y198.365 E16.31489
G1 X193.385 Y198.942 E16.35855
G1 X192.599 Y199.454 E16.40223
G1 X191.773 Y199.897 E16.44588
G1 X190.911 Y200.269 E16.48959
G1 X190.022 Y200.565 E16.53322
G1 X189.11 Y200.785 E16.57691
G1 X188.183 Y200.926 E16.62057
G1 X187.299 Y200.987 E16.66183
G1 X186.67 Y201 E16.69112
G1 X33.707 Y201 E23.81372
G1 X32.867 Y200.99 E23.85284
G1 X31.931 Y200.938 E23.89649
G1 X31.002 Y200.806 E23.94018
G1 X30.088 Y200.596 E23.98385
G1 X29.195 Y200.309 E24.02753
G1 X28.33 Y199.946 E24.07121
G1 X27.499 Y199.512 E24.11486
G1 X26.708 Y199.008 E24.15854
G1 X25.963 Y198.438 E24.20222
G1 X25.269 Y197.807 E24.24589
G1 X24.632 Y197.12 E24.28952
G1 X24.055 Y196.38 E24.33321
G1 X23.543 Y195.594 E24.37689
G1 X23.1 Y194.767 E24.42058
G1 X22.729 Y193.906 E24.46423
G1 X22.433 Y193.016 E24.50791
G1 X22.214 Y192.104 E24.55158
G1 X22.073 Y191.177 E24.59524
G1 X22.013 Y190.288 E24.63673
G1 X22 Y189.658 E24.66607
G1 X22 Y30.674 E32.06903
G1 X22.01 Y29.86 E32.10694
G1 X22.063 Y28.924 E32.15059
G1 X22.195 Y27.995 E32.19429
G1 X22.406 Y27.081 E32.23796
G1 X22.694 Y26.189 E32.28161
G1 X23.057 Y25.324 E32.32529
G1 X23.492 Y24.493 E32.36897
G1 X23.996 Y23.703 E32.4126
G1 X24.566 Y22.958 E32.45628
G0 F6000 X24.961 Y23.111
G1 F1200 X25.589 Y22.439 E32.49911
G1 X26.274 Y21.823 E32.54201
G1 X27.01 Y21.27 E32.58487
G1 X27.791 Y20.782 E32.62776
G1 X28.611 Y20.364 E32.67061
G1 X29.465 Y20.019 E32.7135
G1 X30.345 Y19.749 E32.75636
G1 X31.245 Y19.557 E32.79921
G1 X32.159 Y19.443 E32.8421
G1 X32.712 Y19.413 E32.86789
G1 X33.33 Y19.4 E32.89667
G1 X186.293 Y19.4 E40.01927
G1 X186.445 Y19.401 E40.02635
G1 X187.143 Y19.411 E40.05885
G1 X188.062 Y19.464 E40.10172
G1 X188.973 Y19.597 E40.14459
G1 X189.869 Y19.808 E40.18745
G1 X190.743 Y20.096 E40.2303
G1 X191.59 Y20.459 E40.27321
G1 X192.401 Y20.894 E40.31606
G1 X193.171 Y21.398 E40.35891
G1 X193.895 Y21.967 E40.40179
G1 X194.567 Y22.597 E40.44468
G1 X195.182 Y23.282 E40.48755
G1 X195.735 Y24.018 E40.53042
G1 X196.222 Y24.799 E40.57327
G1 X196.639 Y25.62 E40.61615
G1 X196.984 Y26.474 E40.65904
G1 X197.253 Y27.354 E40.70189
G1 X197.445 Y28.255 E40.74479
G1 X197.558 Y29.168 E40.78762
G1 X197.587 Y29.712 E40.81299
G1 X197.6 Y30.33 E40.84177
G1 X197.6 Y189.264 E48.24241
G1 X197.59 Y190.122 E48.28236
G1 X197.539 Y191.041 E48.32522
G1 X197.408 Y191.953 E48.36812
G1 X197.198 Y192.849 E48.41097
G1 X196.912 Y193.724 E48.45384
G1 X196.551 Y194.571 E48.49671
G1 X196.117 Y195.383 E48.53958
G1 X195.615 Y196.155 E48.58246
G1 X195.047 Y196.88 E48.62535
G1 X194.419 Y197.553 E48.66821
G1 X193.735 Y198.169 E48.71107
G1 X193 Y198.723 E48.75393
G1 X192.22 Y199.212 E48.7968
G1 X191.4 Y199.631 E48.83968
G1 X190.547 Y199.977 E48.88254
G1 X189.667 Y200.248 E48.92541
G1 X188.767 Y200.441 E48.96827
G1 X187.853 Y200.556 E49.01117
G1 X187.288 Y200.587 E49.03752
G1 X186.67 Y200.6 E49.0663
G1 X33.707 Y200.6 E56.1889
G1 X32.872 Y200.59 E56.22778
G1 X31.953 Y200.538 E56.27064
G1 X31.042 Y200.407 E56.3135
G1 X30.146 Y200.197 E56.35635
G1 X29.271 Y199.91 E56.39923
G1 X28.424 Y199.548 E56.44212
G1 X27.612 Y199.114 E56.48499
G1 X26.841 Y198.612 E56.52783
G1 X26.116 Y198.044 E56.57072
G1 X25.443 Y197.415 E56.61361
G1 X24.828 Y196.731 E56.65645
G1 X24.274 Y195.996 E56.6993
G1 X23.786 Y195.215 E56.74219
G1 X23.367 Y194.395 E56.78506
G1 X23.021 Y193.542 E56.82793
G1 X22.751 Y192.662 E56.87079
G1 X22.558 Y191.761 E56.91369
G1 X22.444 Y190.848 E56.95654
G1 X22.413 Y190.277 E56.98316
G1 X22.4 Y189.658 E57.01199
G1 X22.4 Y30.674 E64.41496
G1 X22.41 Y29.866 E64.45258
G1 X22.462 Y28.946 E64.49549
G1 X22.594 Y28.035 E64.53835
G1 X22.805 Y27.139 E64.58122
G1 X23.092 Y26.264 E64.62409
G1 X23.455 Y25.418 E64.66696
G1 X23.889 Y24.606 E64.70983
G1 X24.392 Y23.835 E64.7527
G1 X24.961 Y23.111 E64.79558
G0 F6000 X25.355 Y23.267
G1 F1200 X25.981 Y22.617 E64.8376
G1 X26.662 Y22.024 E64.87964
G1 X27.394 Y21.494 E64.92173
G1 X28.169 Y21.031 E64.96376
G1 X28.982 Y20.638 E65.00581
G1 X29.827 Y20.318 E65.04788
G1 X30.696 Y20.075 E65.0899
G1 X31.584 Y19.909 E65.13197
G1 X32.723 Y19.813 E65.18519
G1 X33.33 Y19.8 E65.21346
G1 X186.293 Y19.8 E72.33606
G1 X186.439 Y19.801 E72.34286
G1 X187.137 Y19.811 E72.37536
G1 X188.039 Y19.864 E72.41744
G1 X188.932 Y19.996 E72.45947
G1 X189.81 Y20.207 E72.50152
G1 X190.666 Y20.495 E72.54357
G1 X191.493 Y20.857 E72.58561
G1 X192.285 Y21.292 E72.62768
G1 X193.036 Y21.794 E72.66975
G1 X193.739 Y22.361 E72.7118
G1 X194.389 Y22.988 E72.75385
G1 X194.981 Y23.67 E72.79591
G1 X195.511 Y24.401 E72.83795
G1 X195.973 Y25.177 E72.88
G1 X196.366 Y25.99 E72.92205
G1 X196.684 Y26.835 E72.96409
G1 X196.927 Y27.705 E73.00615
G1 X197.092 Y28.593 E73.04821
G1 X197.187 Y29.723 E73.10101
G1 X197.2 Y30.33 E73.12928
G1 X197.2 Y189.264 E80.52992
G1 X197.19 Y190.117 E80.56964
G1 X197.139 Y191.019 E80.61171
G1 X197.008 Y191.913 E80.65378
G1 X196.799 Y192.791 E80.69581
G1 X196.513 Y193.648 E80.73787
G1 X196.152 Y194.476 E80.77993
G1 X195.72 Y195.268 E80.82194
G1 X195.219 Y196.02 E80.86402
G1 X194.653 Y196.724 E80.90608
G1 X194.028 Y197.375 E80.9481
G1 X193.347 Y197.969 E80.99018
G1 X192.616 Y198.5 E81.03225
G1 X191.842 Y198.964 E81.07427
G1 X191.029 Y199.358 E81.11634
G1 X190.185 Y199.678 E81.15837
G1 X189.315 Y199.923 E81.20046
G1 X188.428 Y200.089 E81.24248
G1 X187.277 Y200.187 E81.29627
G1 X186.67 Y200.2 E81.32454
G1 X33.707 Y200.2 E88.44713
G1 X32.877 Y200.19 E88.48579
G1 X31.976 Y200.139 E88.52781
G1 X31.082 Y200.007 E88.56989
G1 X30.204 Y199.798 E88.61191
G1 X29.347 Y199.511 E88.654
G1 X28.52 Y199.15 E88.69601
G1 X27.727 Y198.717 E88.73809
G1 X26.976 Y198.216 E88.78012
G1 X26.272 Y197.65 E88.82218
G1 X25.621 Y197.024 E88.86424
G1 X25.028 Y196.343 E88.90629
G1 X24.498 Y195.612 E88.94833
G1 X24.034 Y194.837 E88.99039
G1 X23.64 Y194.024 E89.03246
G1 X23.32 Y193.18 E89.07449
G1 X23.076 Y192.31 E89.11656
G1 X22.91 Y191.422 E89.15863
G1 X22.813 Y190.267 E89.2126
G1 X22.8 Y189.658 E89.24096
G1 X22.8 Y30.674 E96.64392
G1 X22.81 Y29.871 E96.68132
G1 X22.862 Y28.969 E96.72339
G1 X22.994 Y28.076 E96.76542
G1 X23.204 Y27.198 E96.80746
G1 X23.491 Y26.341 E96.84954
G1 X23.853 Y25.514 E96.89158
G1 X24.286 Y24.722 E96.93361
G1 X24.788 Y23.971 E96.97567
G1 X25.355 Y23.267 E97.01776
G1 F2700 E92.01776
;MESH:carena_top.STL
G0 F6000 X34.311 Y45.124
G0 X33.685 Y45.915
G0 X33.791 Y173.406
G0 X36.502 Y173.637
G0 X36.776 Y173.905
G0 X36.836 Y176.369
;TYPE:WALL-INNER
G1 F2700 E97.01776
G1 F1200 X36.982 Y176.045 E97.03431
G1 X37.072 Y175.699 E97.05096
G1 X37.103 Y175.344 E97.06755
G1 X37.072 Y174.988 E97.08419
G1 X36.982 Y174.644 E97.10075
G1 X36.836 Y174.318 E97.11738
G1 X36.635 Y174.024 E97.13396
G1 X36.389 Y173.765 E97.1506
G1 X36.101 Y173.554 E97.16722
G1 X35.784 Y173.393 E97.18378
G1 X35.443 Y173.29 E97.20036
G1 X35.091 Y173.243 E97.2169
G1 X34.731 Y173.259 E97.23368
G1 X34.384 Y173.334 E97.25021
G1 X34.055 Y173.467 E97.26674
G1 X33.939 Y173.538 E97.27307
G1 X33.751 Y173.653 E97.28333
G1 X33.6 Y173.785 E97.29267
G1 X33.6 Y173.653 E97.29308
G1 X33.6 Y173.432 E97.30058
G1 X33.6 Y46.568 E103.2079
G1 X33.6 Y46.347 E103.21819
G1 X33.6 Y46.215 E103.22434
G1 X33.751 Y46.347 E103.22792
G1 X33.939 Y46.462 E103.23539
G1 X34.055 Y46.533 E103.24173
G1 X34.384 Y46.666 E103.25825
G1 X34.731 Y46.741 E103.27478
G1 X35.091 Y46.757 E103.29156
G1 X35.443 Y46.71 E103.3081
G1 X35.784 Y46.607 E103.32468
G1 X36.101 Y46.446 E103.34124
G1 X36.389 Y46.235 E103.35786
G1 X36.635 Y45.976 E103.3745
G1 X36.836 Y45.682 E103.39108
G1 X36.982 Y45.356 E103.40771
G1 X37.072 Y45.012 E103.42427
G1 X37.103 Y44.656 E103.44091
G1 X37.072 Y44.301 E103.4575
G1 X36.982 Y43.955 E103.47415
G1 X36.836 Y43.631 E103.4907
G1 X36.636 Y43.336 E103.50729
G1 X36.389 Y43.077 E103.52396
G1 X36.101 Y42.866 E103.54058
G1 X35.784 Y42.705 E103.55714
G1 X35.443 Y42.602 E103.57373
G1 X35.091 Y42.555 E103.59026
G1 X34.731 Y42.571 E103.60704
G1 X34.384 Y42.646 E103.62357
G1 X34.055 Y42.779 E103.6401
G1 X33.939 Y42.85 E103.64643
G1 X33.751 Y42.965 E103.65669
G1 X33.6 Y43.097 E103.66603
G1 X33.6 Y42.965 E103.66644
G1 X33.6 Y42.744 E103.67394
G1 X33.6 Y30.6 E104.23942
G1 X103.258 Y30.6 E107.48299
G1 X104.08 Y30.6 E107.52126
G1 X107.187 Y30.6 E107.66594
G1 X104.08 Y30.822 E107.70647
G1 X103.277 Y30.996 E107.73629
G1 X98.28 Y32.084 E107.97442
G1 X92.72 Y34.158 E108.25074
G1 X92.579 Y34.233 E108.25818
G1 X87.506 Y37.004 E108.52734
G1 X87.4 Y37.085 E108.53355
G1 X82.757 Y40.559 E108.80357
G1 X78.558 Y44.759 E109.08012
G1 X78.464 Y44.886 E109.08747
G1 X75.003 Y49.509 E109.35638
G1 X74.926 Y49.649 E109.36382
G1 X72.158 Y54.718 E109.63275
G1 X70.084 Y60.28 E109.90916
G1 X68.821 Y66.08 E110.18556
G1 X68.81 Y66.24 E110.19303
G1 X68.399 Y71.997 E110.46178
G1 X68.406 Y72.113 E110.4672
G1 X68.821 Y77.92 E110.73828
G1 X70.084 Y83.72 E111.01469
G1 X72.158 Y89.28 E111.29101
G1 X72.233 Y89.421 E111.29844
G1 X75.003 Y94.491 E111.56746
G1 X75.099 Y94.619 E111.57491
G1 X78.559 Y99.243 E111.84383
G1 X82.757 Y103.441 E112.12028
G1 X87.509 Y106.997 E112.39664
G1 X87.649 Y107.074 E112.40408
G1 X92.718 Y109.841 E112.67299
G1 X92.814 Y109.878 E112.67778
G1 X98.254 Y111.906 E112.94812
G1 X104.08 Y113.179 E113.22581
G1 X104.24 Y113.19 E113.23327
G1 X109.998 Y113.601 E113.50207
G1 X110.157 Y113.591 E113.50949
G1 X115.924 Y113.179 E113.77871
G1 X116.036 Y113.153 E113.78407
G1 X121.717 Y111.918 E114.05477
G1 X127.28 Y109.842 E114.33126
G1 X127.421 Y109.767 E114.3387
G1 X132.494 Y106.996 E114.60786
G1 X132.6 Y106.915 E114.61407
G1 X137.243 Y103.441 E114.88409
G1 X141.442 Y99.241 E115.16063
G1 X141.536 Y99.114 E115.16799
G1 X144.997 Y94.491 E115.4369
G1 X145.074 Y94.351 E115.44434
G1 X147.842 Y89.282 E115.71327
G1 X149.916 Y83.72 E115.98968
G1 X151.178 Y77.921 E116.26603
G1 X151.601 Y72.002 E116.54234
G1 X151.591 Y71.843 E116.54976
G1 X151.179 Y66.08 E116.8188
G1 X149.916 Y60.28 E117.0952
G1 X147.842 Y54.72 E117.37152
G1 X147.767 Y54.579 E117.37896
G1 X144.997 Y49.509 E117.64797
G1 X144.901 Y49.381 E117.65542
G1 X141.441 Y44.757 E117.92434
G1 X137.243 Y40.559 E118.20079
G1 X132.491 Y37.003 E118.47716
G1 X132.351 Y36.926 E118.48459
G1 X127.282 Y34.158 E118.75353
G1 X121.72 Y32.084 E119.02994
G1 X116.727 Y30.996 E119.26789
G1 X115.92 Y30.821 E119.30634
G1 X115.76 Y30.81 E119.31381
G1 X112.817 Y30.6 E119.45119
G1 X115.76 Y30.6 E119.4872
G1 X115.92 Y30.6 E119.49123
G1 X116.746 Y30.6 E119.52116
G1 X186.4 Y30.6 E122.76455
G1 X186.4 Y42.785 E123.33193
G1 X186.4 Y42.866 E123.3357
G1 X186.4 Y43.089 E123.34609
G1 X186.101 Y42.866 E123.35565
G1 X186.029 Y42.83 E123.359
G1 X185.784 Y42.705 E123.3718
G1 X185.443 Y42.602 E123.38839
G1 X185.091 Y42.555 E123.40493
G1 X184.731 Y42.571 E123.42171
G1 X184.384 Y42.646 E123.43824
G1 X184.055 Y42.779 E123.45476
G1 X183.751 Y42.965 E123.47136
G1 X183.482 Y43.201 E123.48802
G1 X183.259 Y43.479 E123.50461
G1 X183.084 Y43.789 E123.52119
G1 X182.966 Y44.126 E123.53782
G1 X182.905 Y44.478 E123.55445
G1 X182.905 Y44.834 E123.57103
G1 X182.966 Y45.186 E123.58766
G1 X183.084 Y45.523 E123.60429
G1 X183.259 Y45.833 E123.62087
G1 X183.482 Y46.111 E123.63746
G1 X183.751 Y46.347 E123.65412
G1 X184.055 Y46.533 E123.67072
G1 X184.384 Y46.666 E123.68724
G1 X184.731 Y46.741 E123.70377
G1 X185.091 Y46.757 E123.72055
G1 X185.443 Y46.71 E123.73709
G1 X185.784 Y46.607 E123.75368
G1 X186.029 Y46.482 E123.76648
G1 X186.101 Y46.446 E123.77023
G1 X186.4 Y46.223 E123.7876
G1 X186.4 Y46.446 E123.79018
G1 X186.4 Y46.527 E123.79355
G1 X186.4 Y173.473 E129.70469
G1 X186.4 Y173.554 E129.70846
G1 X186.4 Y173.765 E129.71829
G1 X186.4 Y173.777 E129.71885
G1 X186.389 Y173.765
G1 X186.101 Y173.554 E129.72821
G1 X186.029 Y173.518 E129.73155
G1 X185.784 Y173.393 E129.74436
G1 X185.443 Y173.29 E129.76095
G1 X185.091 Y173.243 E129.77748
G1 X184.731 Y173.259 E129.79426
G1 X184.384 Y173.334 E129.8108
G1 X184.055 Y173.467 E129.82732
G1 X183.751 Y173.653 E129.84391
G1 X183.482 Y173.889 E129.86058
G1 X183.259 Y174.167 E129.87717
G1 X183.084 Y174.477 E129.89375
G1 X182.965 Y174.814 E129.91039
G1 X182.907 Y175.154 E129.92645
G1 X182.9 Y175.344 E129.9353
G1 X182.907 Y175.534 E129.94416
G1 X182.965 Y175.874 E129.96022
G1 X183.084 Y176.211 E129.97686
G1 X183.259 Y176.521 E129.99344
G1 X183.482 Y176.799 E130.01003
G1 X183.75 Y177.034 E130.02663
G1 X184.032 Y177.208 E130.04206
G1 X184.381 Y177.353 E130.05965
G1 X184.731 Y177.429 E130.07633
G1 X185.091 Y177.445 E130.09311
G1 X185.443 Y177.398 E130.10965
G1 X185.784 Y177.295 E130.12623
G1 X186.029 Y177.17 E130.13904
G1 X186.101 Y177.134 E130.14279
G1 X186.4 Y176.911 E130.16016
G1 X186.4 Y177.134 E130.16274
G1 X186.4 Y177.215 E130.16611
G1 X186.4 Y189.4 E130.7335
G1 X33.6 Y189.4 E137.8485
G1 X33.6 Y177.257 E138.41393
G1 X33.6 Y177.034 E138.42432
G1 X33.6 Y176.902 E138.43046
G1 X33.75 Y177.034 E138.43402
G1 X33.939 Y177.151 E138.44154
G1 X34.032 Y177.208 E138.44662
G1 X34.381 Y177.353 E138.46421
G1 X34.731 Y177.429 E138.48089
G1 X35.091 Y177.445 E138.49767
G1 X35.443 Y177.398 E138.51421
G1 X35.784 Y177.295 E138.53079
G1 X36.101 Y177.134 E138.54735
G1 X36.389 Y176.923 E138.56397
G1 X36.636 Y176.664 E138.58064
G1 X36.836 Y176.369 E138.59723
G0 F6000 X36.485 Y176.173
;TYPE:WALL-OUTER
G1 F1200 X36.603 Y175.911 E138.61061
G1 X36.676 Y175.631 E138.62409
G1 X36.701 Y175.344 E138.6375
G1 X36.676 Y175.056 E138.65096
G1 X36.603 Y174.777 E138.66439
G1 X36.485 Y174.514 E138.67781
G1 X36.323 Y174.276 E138.69122
G1 X36.124 Y174.067 E138.70466
G1 X35.891 Y173.896 E138.71812
G1 X35.634 Y173.766 E138.73153
G1 X35.358 Y173.682 E138.74496
G1 X35.073 Y173.644 E138.75835
G1 X34.783 Y173.657 E138.77187
G1 X34.502 Y173.718 E138.78526
G1 X34.235 Y173.826 E138.79867
G1 X33.989 Y173.976 E138.81208
G1 X33.772 Y174.167 E138.82554
G1 X33.591 Y174.392 E138.83899
G1 X33.45 Y174.643 E138.8524
G1 X33.354 Y174.915 E138.86583
G1 X33.305 Y175.2 E138.87929
G1 X33.305 Y175.488 E138.8927
G1 X33.354 Y175.773 E138.90617
G1 X33.45 Y176.045 E138.9196
G1 X33.591 Y176.296 E138.933
G1 X33.772 Y176.521 E138.94645
G1 X33.989 Y176.711 E138.95988
