;FLAVOR:Marlin
;TIME:19897
;Filament used: 18.8572m
;Layer height: 0.28
;MINX:22.335
;MINY:75.654
;MINZ:0.28
;MAXX:197.665
;MAXY:144.347
;MAXZ:30.24
;Generated with Cura_SteamEngine 4.5.0
M140 S70
M105
M190 S70
M104 S215
M105
M109 S215
M82 ;absolute extrusion mode
; Ender 3 Custom Start G-code
G92 E0 ; Reset Extruder
G28 ; Home all axes
G1 Z2.0 F3000 ; Move Z Axis up little to prevent scratching of Heat Bed
G1 X0.1 Y20 Z0.3 F5000.0 ; Move to start position
G1 X0.1 Y200.0 Z0.3 F1500.0 E15 ; Draw the first line
G1 X0.4 Y200.0 Z0.3 F5000.0 ; Move to side a little
G1 X0.4 Y20 Z0.3 F1500.0 E30 ; Draw the second line
G92 E0 ; Reset Extruder
G1 Z2.0 F3000 ; Move Z Axis up little to prevent scratching of Heat Bed
G1 X5 Y20 Z0.3 F5000.0 ; Move over to prevent blob squish
G92 E0
G92 E0
G1 F2700 E-5
;LAYER_COUNT:108
;LAYER:0
M107
G0 F6000 X78.8 Y80.122 Z0.28
;TYPE:SKIRT
G1 F2700 E0
G1 F1200 X79.143 Y80.121 E0.01597
G1 X78.8 Y80.48 E0.03909
G1 X78.8 Y80.122 E0.05576
G0 F6000 X78.4 Y79.723
G1 F1200 X80.226 Y79.719 E0.14079
G1 X79.948 Y79.927 E0.15696
G1 X79.492 Y80.332 E0.18535
G1 X79.104 Y80.739 E0.21154
G1 X78.695 Y81.246 E0.24187
G1 X78.4 Y81.691 E0.26673
G1 X78.4 Y79.723 E0.35837
G0 F6000 X77.6 Y78.925
G1 F1200 X80.125 Y78.919 E0.47594
G1 X142.4 Y78.918 E3.37573
G1 X142.4 Y79.536 E3.40451
G1 X142.054 Y79.498 E3.42071
G1 X141.647 Y79.485 E3.43967
G1 X141.034 Y79.514 E3.46825
G1 X140.609 Y79.569 E3.4882
G1 X140.011 Y79.698 E3.51669
G1 X139.572 Y79.835 E3.5381
G1 X138.924 Y80.101 E3.57072
G1 X138.534 Y80.3 E3.59111
G1 X138.002 Y80.632 E3.62031
G1 X137.652 Y80.895 E3.6407
G1 X137.166 Y81.327 E3.67097
G1 X136.858 Y81.652 E3.69182
G1 X136.458 Y82.155 E3.72175
G1 X136.212 Y82.525 E3.74244
G1 X135.903 Y83.09 E3.77242
G1 X135.728 Y83.485 E3.79254
G1 X135.515 Y84.098 E3.82276
G1 X135.404 Y84.538 E3.84389
G1 X135.309 Y85.128 E3.87172
G1 X135.279 Y85.413 E3.88506
G1 X135.263 Y85.738 E3.90021
G1 X135.262 Y85.977 E3.91134
G1 X135.278 Y86.352 E3.92882
G1 X135.317 Y86.7 E3.94512
G1 X135.429 Y87.324 E3.97464
G1 X135.544 Y87.752 E3.99528
G1 X135.764 Y88.358 E4.0253
G1 X135.945 Y88.752 E4.04549
G1 X136.262 Y89.312 E4.07545
G1 X136.516 Y89.682 E4.09635
G1 X136.926 Y90.181 E4.12642
G1 X137.235 Y90.497 E4.147
G1 X137.721 Y90.917 E4.17691
G1 X138.068 Y91.171 E4.19694
G1 X138.618 Y91.506 E4.22692
G1 X139.017 Y91.704 E4.24767
G1 X139.618 Y91.941 E4.27775
G1 X140.04 Y92.067 E4.29826
G1 X140.676 Y92.2 E4.32851
G1 X141.131 Y92.254 E4.34985
G1 X141.776 Y92.273 E4.37989
G1 X142.2 Y92.251 E4.39966
G1 X142.832 Y92.166 E4.42936
G1 X143.265 Y92.069 E4.45002
G1 X143.882 Y91.875 E4.48013
G1 X144.284 Y91.711 E4.50035
G1 X144.858 Y91.418 E4.53036
G1 X145.241 Y91.179 E4.55138
G1 X145.756 Y90.791 E4.58141
G1 X146.081 Y90.5 E4.60172
G1 X146.526 Y90.029 E4.63189
G1 X146.8 Y89.684 E4.65241
G1 X147.153 Y89.154 E4.68206
G1 X147.363 Y88.774 E4.70227
G1 X147.628 Y88.181 E4.73252
G1 X147.775 Y87.755 E4.7535
G1 X147.934 Y87.124 E4.7838
G1 X148.005 Y86.688 E4.80437
G1 X148.054 Y86.049 E4.83422
G1 X148.05 Y85.6 E4.85512
G1 X147.988 Y84.958 E4.88516
G1 X147.924 Y84.6 E4.90209
G1 X194.4 Y84.6 E7.06621
G1 X194.4 Y95.015 E7.55117
G1 X193.958 Y94.884 E7.57264
G1 X193.508 Y94.792 E7.59403
G1 X192.866 Y94.72 E7.62411
G1 X192.439 Y94.708 E7.644
G1 X191.796 Y94.742 E7.67398
G1 X191.358 Y94.802 E7.69457
G1 X190.732 Y94.944 E7.72446
G1 X190.309 Y95.079 E7.74513
G1 X189.71 Y95.328 E7.77534
G1 X189.326 Y95.526 E7.79546
G1 X188.784 Y95.866 E7.82525
G1 X188.425 Y96.138 E7.84622
G1 X187.946 Y96.57 E7.87626
G1 X187.645 Y96.891 E7.89675
G1 X187.243 Y97.401 E7.92699
G1 X187.002 Y97.768 E7.94743
G1 X186.696 Y98.33 E7.97723
G1 X186.518 Y98.734 E7.99778
G1 X186.309 Y99.347 E8.02794
G1 X186.203 Y99.772 E8.04834
G1 X186.11 Y100.349 E8.07555
G1 X186.08 Y100.635 E8.08894
G1 X186.063 Y100.979 E8.10498
G1 X186.064 Y101.245 E8.11737
G1 X186.084 Y101.62 E8.13485
G1 X186.122 Y101.949 E8.15027
G1 X186.235 Y102.568 E8.17957
G1 X186.352 Y102.997 E8.20028
G1 X186.573 Y103.599 E8.23014
G1 X186.754 Y103.989 E8.25016
G1 X187.075 Y104.553 E8.28038
G1 X187.332 Y104.924 E8.30139
G1 X187.739 Y105.416 E8.33113
G1 X188.04 Y105.725 E8.35121
G1 X188.532 Y106.151 E8.38152
G1 X188.901 Y106.417 E8.4027
G1 X189.452 Y106.746 E8.43258
G1 X189.838 Y106.935 E8.45259
G1 X190.436 Y107.169 E8.48249
G1 X190.859 Y107.295 E8.50305
G1 X191.496 Y107.426 E8.53333
G1 X191.947 Y107.478 E8.55447
G1 X192.592 Y107.496 E8.58451
G1 X193.027 Y107.472 E8.6048
G1 X193.66 Y107.383 E8.63456
G1 X194.08 Y107.287 E8.65463
G1 X194.4 Y107.186 E8.67025
G1 X194.4 Y122.955 E9.40452
G1 X193.958 Y122.824 E9.42599
G1 X193.508 Y122.732 E9.44738
G1 X192.866 Y122.66 E9.47746
G1 X192.439 Y122.648 E9.49735
G1 X191.796 Y122.682 E9.52733
G1 X191.358 Y122.742 E9.54792
G1 X190.732 Y122.884 E9.57781
G1 X190.309 Y123.019 E9.59848
G1 X189.71 Y123.268 E9.62869
G1 X189.326 Y123.466 E9.6488
G1 X188.784 Y123.806 E9.6786
G1 X188.425 Y124.078 E9.69957
G1 X187.946 Y124.51 E9.72961
G1 X187.645 Y124.831 E9.7501
G1 X187.243 Y125.341 E9.78033
G1 X187.002 Y125.708 E9.80078
G1 X186.696 Y126.27 E9.83057
G1 X186.518 Y126.674 E9.85113
G1 X186.309 Y127.287 E9.88129
G1 X186.203 Y127.712 E9.90168
G1 X186.11 Y128.289 E9.9289
G1 X186.08 Y128.575 E9.94229
G1 X186.063 Y128.919 E9.95833
G1 X186.064 Y129.185 E9.97071
G1 X186.084 Y129.56 E9.9882
G1 X186.122 Y129.889 E10.00362
G1 X186.235 Y130.508 E10.03292
G1 X186.352 Y130.937 E10.05363
G1 X186.573 Y131.539 E10.08349
G1 X186.754 Y131.929 E10.10351
G1 X187.075 Y132.493 E10.13373
G1 X187.332 Y132.864 E10.15474
G1 X187.739 Y133.356 E10.18447
G1 X188.04 Y133.665 E10.20456
G1 X188.532 Y134.091 E10.23486
G1 X188.901 Y134.357 E10.25605
G1 X189.452 Y134.686 E10.28593
G1 X189.838 Y134.875 E10.30594
G1 X190.436 Y135.109 E10.33584
G1 X190.859 Y135.235 E10.35639
G1 X191.496 Y135.366 E10.38668
G1 X191.791 Y135.4 E10.4005
G1 X146.653 Y135.4 E12.50232
G1 X146.671 Y135.326 E12.50586
G1 X146.74 Y134.88 E12.52688
G1 X146.783 Y134.232 E12.55712
G1 X146.776 Y133.799 E12.57728
G1 X146.712 Y133.165 E12.60695
G1 X146.632 Y132.737 E12.62723
G1 X146.46 Y132.111 E12.65746
G1 X146.304 Y131.69 E12.67837
G1 X146.031 Y131.112 E12.70813
G1 X145.813 Y130.736 E12.72837
G1 X145.441 Y130.202 E12.75867
G1 X145.159 Y129.862 E12.77924
G1 X144.707 Y129.404 E12.8092
G1 X144.368 Y129.115 E12.82995
G1 X143.846 Y128.742 E12.85982
G1 X143.469 Y128.518 E12.88024
G1 X142.888 Y128.236 E12.91031
G1 X142.485 Y128.08 E12.93044
G1 X141.868 Y127.899 E12.96038
G1 X141.416 Y127.809 E12.98184
G1 X140.779 Y127.74 E13.01167
G1 X140.39 Y127.727 E13.02979
G1 X139.796 Y127.752 E13.05748
G1 X139.326 Y127.815 E13.07956
G1 X138.648 Y127.97 E13.11194
G1 X138.228 Y128.104 E13.13247
G1 X137.627 Y128.354 E13.16278
G1 X137.223 Y128.566 E13.18403
G1 X136.683 Y128.912 E13.21389
G1 X136.34 Y129.174 E13.23399
G1 X135.86 Y129.609 E13.26415
G1 X135.562 Y129.929 E13.28451
G1 X135.165 Y130.434 E13.31442
G1 X134.92 Y130.808 E13.33524
G1 X134.614 Y131.376 E13.36529
G1 X134.439 Y131.78 E13.38579
G1 X134.234 Y132.389 E13.41571
G1 X134.131 Y132.803 E13.43557
G1 X134.039 Y133.372 E13.46241
G1 X134.008 Y133.678 E13.47673
G1 X133.993 Y134.036 E13.49342
G1 X133.995 Y134.292 E13.50534
G1 X134.016 Y134.662 E13.5226
G1 X134.057 Y134.995 E13.53822
G1 X134.173 Y135.613 E13.5675
G1 X134.288 Y136.031 E13.58768
G1 X134.511 Y136.637 E13.61775
G1 X134.698 Y137.036 E13.63827
G1 X135.017 Y137.59 E13.66804
G1 X135.271 Y137.955 E13.68874
G1 X135.66 Y138.423 E13.71708
G1 X135.933 Y138.705 E13.73536
G1 X136.414 Y139.132 E13.76531
G1 X136.793 Y139.412 E13.78725
G1 X137.343 Y139.745 E13.81719
G1 X137.709 Y139.929 E13.83626
G1 X138.217 Y140.136 E13.86181
G1 X138.402 Y140.203 E13.87097
G1 X138.542 Y140.248 E13.87781
G1 X138.817 Y140.32 E13.89105
G1 X139.399 Y140.439 E13.91871
G1 X139.806 Y140.49 E13.93781
G1 X140.422 Y140.517 E13.96652
G1 X140.872 Y140.497 E13.9875
G1 X141.562 Y140.407 E14.0199
G1 X142.015 Y140.306 E14.04151
G1 X142.4 Y140.183 E14.06033
G1 X142.4 Y141.076 E14.10191
G1 X139.875 Y141.082 E14.21949
G1 X77.6 Y141.083 E17.11927
G1 X77.6 Y138.282 E17.2497
G1 X77.56 Y137.828 E17.27092
G1 X77.442 Y137.388 E17.29213
G1 X77.248 Y136.976 E17.31334
G1 X76.838 Y136.444 E17.34461
G1 X76.556 Y136.162 E17.36318
G1 X76.207 Y135.869 E17.3844
G1 X75.812 Y135.642 E17.40562
G1 X75.384 Y135.487 E17.42681
G1 X74.718 Y135.4 E17.45809
G1 X32.829 Y135.4 E19.40861
G1 X32.848 Y135.283 E19.41413
G1 X32.894 Y134.645 E19.44392
G1 X32.889 Y134.208 E19.46427
G1 X32.827 Y133.567 E19.49426
G1 X32.747 Y133.133 E19.5148
G1 X32.578 Y132.513 E19.54473
G1 X32.428 Y132.102 E19.5651
G1 X32.154 Y131.512 E19.59539
G1 X31.932 Y131.125 E19.61617
G1 X31.565 Y130.596 E19.64615
G1 X31.294 Y130.266 E19.66603
G1 X30.851 Y129.81 E19.69563
G1 X30.508 Y129.514 E19.71673
G1 X29.975 Y129.129 E19.74735
G1 X29.593 Y128.9 E19.76808
G1 X29.021 Y128.621 E19.79772
G1 X28.621 Y128.465 E19.81771
G1 X28.001 Y128.281 E19.84783
G1 X27.562 Y128.192 E19.86868
G1 X26.962 Y128.122 E19.89681
G1 X26.543 Y128.107 E19.91633
G1 X25.858 Y128.138 E19.94826
G1 X25.6 Y128.173 E19.96039
G1 X25.6 Y91.832 E21.65258
G1 X25.997 Y91.877 E21.67118
G1 X26.643 Y91.893 E21.70127
G1 X27.062 Y91.87 E21.72081
G1 X27.694 Y91.783 E21.75052
G1 X28.124 Y91.686 E21.77104
G1 X28.743 Y91.49 E21.80127
G1 X29.156 Y91.318 E21.82211
G1 X29.726 Y91.022 E21.85201
G1 X30.094 Y90.79 E21.87227
G1 X30.612 Y90.399 E21.90249
G1 X30.943 Y90.102 E21.9232
G1 X31.377 Y89.639 E21.95275
G1 X31.649 Y89.295 E21.97317
G1 X32.01 Y88.749 E22.00365
G1 X32.224 Y88.355 E22.02453
G1 X32.482 Y87.764 E22.05455
G1 X32.622 Y87.351 E22.07486
G1 X32.778 Y86.723 E22.10499
G1 X32.848 Y86.283 E22.12574
G1 X32.894 Y85.645 E22.15552
G1 X32.889 Y85.208 E22.17587
G1 X32.83 Y84.6 E22.20431
G1 X74.718 Y84.6 E24.1548
G1 X75.172 Y84.56 E24.17602
G1 X75.612 Y84.442 E24.19723
G1 X76.024 Y84.248 E24.21843
G1 X76.556 Y83.838 E24.24971
G1 X76.838 Y83.556 E24.26828
G1 X77.131 Y83.207 E24.2895
G1 X77.358 Y82.812 E24.31071
G1 X77.513 Y82.384 E24.33191
G1 X77.6 Y81.718 E24.36318
G1 X77.6 Y78.925 E24.49324
G0 F6000 X80.124 Y78.519
G1 F1200 X142.8 Y78.518 E27.41169
G1 X142.8 Y79.993 E27.48038
G1 X142.675 Y79.968 E27.48631
G1 X142.01 Y79.895 E27.51746
G1 X141.666 Y79.884 E27.53349
G1 X141.053 Y79.913 E27.56207
G1 X140.693 Y79.96 E27.57897
G1 X140.095 Y80.089 E27.60746
G1 X139.724 Y80.205 E27.62556
G1 X139.076 Y80.471 E27.65817
G1 X138.746 Y80.64 E27.67544
G1 X138.214 Y80.972 E27.70464
G1 X137.917 Y81.194 E27.7219
G1 X137.431 Y81.626 E27.75218
G1 X137.171 Y81.901 E27.7698
G1 X136.771 Y82.404 E27.79973
G1 X136.563 Y82.717 E27.81723
G1 X136.254 Y83.282 E27.84722
G1 X136.106 Y83.616 E27.86423
G1 X135.893 Y84.229 E27.89444
G1 X135.799 Y84.601 E27.91231
G1 X135.704 Y85.191 E27.94014
G1 X135.679 Y85.433 E27.95147
G1 X135.663 Y85.758 E27.96662
G1 X135.662 Y85.96 E27.97602
G1 X135.678 Y86.335 E27.9935
G1 X135.711 Y86.63 E28.00732
G1 X135.823 Y87.254 E28.03684
G1 X135.92 Y87.616 E28.05429
G1 X136.14 Y88.222 E28.08431
G1 X136.293 Y88.555 E28.10138
G1 X136.61 Y89.115 E28.13134
G1 X136.825 Y89.428 E28.14902
G1 X137.235 Y89.927 E28.1791
G1 X137.497 Y90.195 E28.19655
G1 X137.983 Y90.615 E28.22646
G1 X138.277 Y90.829 E28.24339
G1 X138.827 Y91.164 E28.27338
G1 X139.164 Y91.332 E28.29091
G1 X139.765 Y91.569 E28.32099
G1 X140.122 Y91.675 E28.33833
G1 X140.758 Y91.808 E28.36859
G1 X141.143 Y91.854 E28.38664
G1 X141.788 Y91.873 E28.41669
G1 X142.146 Y91.854 E28.43339
G1 X142.778 Y91.769 E28.46308
G1 X143.145 Y91.688 E28.48058
G1 X143.762 Y91.494 E28.5107
G1 X144.102 Y91.354 E28.52782
G1 X144.676 Y91.061 E28.55783
G1 X145 Y90.859 E28.5756
G1 X145.515 Y90.471 E28.60563
G1 X145.79 Y90.225 E28.62281
G1 X146.235 Y89.754 E28.65298
G1 X146.467 Y89.463 E28.67031
G1 X146.82 Y88.933 E28.69996
G1 X146.998 Y88.611 E28.7171
G1 X147.263 Y88.018 E28.74734
G1 X147.387 Y87.658 E28.76507
G1 X147.546 Y87.027 E28.79537
G1 X147.607 Y86.657 E28.81283
G1 X147.656 Y86.018 E28.84267
G1 X147.652 Y85.639 E28.86032
G1 X147.59 Y84.997 E28.89036
G1 X147.527 Y84.646 E28.90696
G1 X147.409 Y84.2 E28.92844
G1 X194.8 Y84.2 E31.13517
G1 X194.8 Y95.581 E31.66511
G1 X194.467 Y95.452 E31.68174
G1 X193.844 Y95.267 E31.712
G1 X193.463 Y95.19 E31.7301
G1 X192.821 Y95.118 E31.76018
G1 X192.46 Y95.107 E31.777
G1 X191.817 Y95.141 E31.80699
G1 X191.446 Y95.193 E31.82443
G1 X190.82 Y95.335 E31.85432
G1 X190.463 Y95.449 E31.87177
G1 X189.864 Y95.698 E31.90198
G1 X189.539 Y95.865 E31.91899
G1 X188.997 Y96.205 E31.94878
G1 X188.693 Y96.435 E31.96653
G1 X188.214 Y96.867 E31.99657
G1 X187.959 Y97.139 E32.01393
G1 X187.557 Y97.649 E32.04417
G1 X187.353 Y97.959 E32.06145
G1 X187.047 Y98.521 E32.09124
G1 X186.897 Y98.863 E32.10863
G1 X186.688 Y99.476 E32.13879
G1 X186.598 Y99.836 E32.15607
G1 X186.505 Y100.413 E32.18328
G1 X186.48 Y100.654 E32.19457
G1 X186.463 Y100.998 E32.2106
G1 X186.463 Y101.224 E32.22113
G1 X186.483 Y101.599 E32.23861
G1 X186.516 Y101.877 E32.25165
G1 X186.629 Y102.496 E32.28095
G1 X186.728 Y102.859 E32.29847
G1 X186.949 Y103.461 E32.32833
G1 X187.102 Y103.791 E32.34527
G1 X187.423 Y104.355 E32.37548
G1 X187.64 Y104.669 E32.39326
G1 X188.047 Y105.161 E32.42299
G1 X188.302 Y105.422 E32.43998
G1 X188.794 Y105.848 E32.47029
G1 X189.106 Y106.074 E32.48822
G1 X189.657 Y106.403 E32.51811
G1 X189.983 Y106.563 E32.53502
G1 X190.581 Y106.797 E32.56492
G1 X190.94 Y106.903 E32.58235
G1 X191.577 Y107.034 E32.61263
G1 X191.959 Y107.078 E32.63053
G1 X192.604 Y107.096 E32.66058
G1 X192.971 Y107.076 E32.67769
G1 X193.604 Y106.987 E32.70746
G1 X193.96 Y106.906 E32.72446
G1 X194.578 Y106.711 E32.75464
G1 X194.8 Y106.619 E32.76583
G1 X194.8 Y123.521 E33.55285
G1 X194.467 Y123.392 E33.56948
G1 X193.844 Y123.207 E33.59974
G1 X193.463 Y123.13 E33.61784
G1 X192.821 Y123.058 E33.64792
G1 X192.46 Y123.047 E33.66474
G1 X191.817 Y123.081 E33.69472
G1 X191.446 Y123.133 E33.71217
G1 X190.82 Y123.275 E33.74206
G1 X190.463 Y123.389 E33.75951
G1 X189.864 Y123.638 E33.78971
G1 X189.539 Y123.805 E33.80673
G1 X188.997 Y124.145 E33.83652
G1 X188.693 Y124.375 E33.85427
G1 X188.214 Y124.807 E33.88431
G1 X187.959 Y125.079 E33.90167
G1 X187.557 Y125.589 E33.93191
G1 X187.353 Y125.899 E33.94919
G1 X187.047 Y126.461 E33.97898
G1 X186.897 Y126.803 E33.99637
G1 X186.688 Y127.416 E34.02653
G1 X186.598 Y127.776 E34.04381
G1 X186.505 Y128.353 E34.07102
G1 X186.48 Y128.594 E34.08231
G1 X186.463 Y128.938 E34.09834
G1 X186.463 Y129.164 E34.10887
G1 X186.483 Y129.539 E34.12635
G1 X186.516 Y129.817 E34.13939
G1 X186.629 Y130.436 E34.16869
G1 X186.728 Y130.799 E34.18621
G1 X186.949 Y131.401 E34.21607
G1 X187.102 Y131.731 E34.23301
G1 X187.423 Y132.295 E34.26322
G1 X187.64 Y132.609 E34.281
G1 X188.047 Y133.101 E34.31073
G1 X188.302 Y133.362 E34.32772
G1 X188.794 Y133.788 E34.35802
G1 X189.106 Y134.014 E34.37596
G1 X189.657 Y134.343 E34.40585
G1 X189.983 Y134.503 E34.42276
G1 X190.581 Y134.737 E34.45266
G1 X190.94 Y134.843 E34.47009
G1 X191.577 Y134.974 E34.50037
G1 X191.959 Y135.018 E34.51827
G1 X192.604 Y135.036 E34.54832
G1 X192.971 Y135.016 E34.56543
G1 X193.604 Y134.927 E34.5952
G1 X193.96 Y134.846 E34.6122
G1 X194.578 Y134.651 E34.64238
G1 X194.8 Y134.559 E34.65357
G1 X194.8 Y135.8 E34.71135
G1 X146.144 Y135.8 E36.97698
G1 X146.283 Y135.231 E37.00425
G1 X146.341 Y134.854 E37.02201
G1 X146.384 Y134.206 E37.05225
G1 X146.378 Y133.839 E37.06935
G1 X146.314 Y133.205 E37.09902
G1 X146.246 Y132.843 E37.11617
G1 X146.074 Y132.217 E37.1464
G1 X145.942 Y131.86 E37.16412
G1 X145.669 Y131.282 E37.19389
G1 X145.485 Y130.964 E37.21099
G1 X145.113 Y130.43 E37.2413
G1 X144.874 Y130.143 E37.25869
G1 X144.422 Y129.685 E37.28865
G1 X144.135 Y129.44 E37.30622
G1 X143.613 Y129.067 E37.3361
G1 X143.295 Y128.878 E37.35332
G1 X142.714 Y128.596 E37.38339
G1 X142.372 Y128.464 E37.40046
G1 X141.755 Y128.283 E37.4304
G1 X141.373 Y128.207 E37.44854
G1 X140.736 Y128.138 E37.47838
G1 X140.406 Y128.127 E37.49375
G1 X139.812 Y128.152 E37.52143
G1 X139.415 Y128.205 E37.54008
G1 X138.737 Y128.36 E37.57247
G1 X138.382 Y128.474 E37.58983
G1 X137.781 Y128.724 E37.62014
G1 X137.439 Y128.903 E37.63811
G1 X136.899 Y129.249 E37.66798
G1 X136.609 Y129.471 E37.68498
G1 X136.129 Y129.906 E37.71515
