;FLAVOR:Marlin
;TIME:7588
;Filament used: 4.02078m
;Layer height: 0.16
;MINX:87.799
;MINY:87.5
;MINZ:0.2
;MAXX:131.336
;MAXY:131.591
;MAXZ:40
;Generated with Cura_SteamEngine 4.5.0
M140 S70
M105
M190 S70
M104 S215
M105
M109 S215
M82 ;absolute extrusion mode
; Ender 3 Custom Start G-code
G92 E0 ; Reset Extruder
G28 ; Home all axes
G1 Z2.0 F3000 ; Move Z Axis up little to prevent scratching of Heat Bed
G1 X0.1 Y20 Z0.3 F5000.0 ; Move to start position
G1 X0.1 Y200.0 Z0.3 F1500.0 E15 ; Draw the first line
G1 X0.4 Y200.0 Z0.3 F5000.0 ; Move to side a little
G1 X0.4 Y20 Z0.3 F1500.0 E30 ; Draw the second line
G92 E0 ; Reset Extruder
G1 Z2.0 F3000 ; Move Z Axis up little to prevent scratching of Heat Bed
G1 X5 Y20 Z0.3 F5000.0 ; Move over to prevent blob squish
G92 E0
G92 E0
G1 F2700 E-5
;LAYER_COUNT:237
;LAYER:0
M107
G0 F6000 X96.25 Y102.803 Z0.2
;TYPE:SKIRT
G1 F2700 E0
G1 F1200 X96.439 Y102.751 E0.00782
G1 X96.459 Y102.839 E0.01143
G1 X96.525 Y103.049 E0.02021
G1 X96.609 Y103.362 E0.03315
G1 X96.425 Y103.455 E0.04137
G1 X96.25 Y102.803 E0.06832
G0 F6000 X95.779 Y102.588
G1 F1200 X95.815 Y102.508 E0.07182
G1 X96.723 Y102.257 E0.10942
G1 X96.807 Y102.563 E0.12208
G1 X96.869 Y102.821 E0.13267
G1 X96.909 Y102.935 E0.1375
G1 X97.12 Y103.72 E0.16994
G1 X96.892 Y103.72 E0.17904
G1 X96.677 Y103.76 E0.18777
G1 X96.526 Y103.844 E0.19466
G1 X96.272 Y104.039 E0.20744
G1 X96.175 Y103.947 E0.21278
G1 X96.136 Y103.924 E0.21459
G1 X95.779 Y102.588 E0.26978
G0 F6000 X95.681 Y102.131
G1 F1200 X97.004 Y101.764 E0.32458
G1 X97.197 Y102.473 E0.35391
G1 X97.24 Y102.665 E0.36176
G1 X97.292 Y102.819 E0.36825
G1 X97.585 Y103.909 E0.4133
G1 X97.6 Y104.034 E0.41832
G1 X97.297 Y104.12 E0.43089
G1 X96.892 Y104.12 E0.44706
G1 X96.77 Y104.161 E0.45219
G1 X96.244 Y104.565 E0.47866
G1 X95.899 Y104.236 E0.49769
G1 X95.825 Y104.192 E0.50113
G1 X95.791 Y104.18 E0.50257
G1 X95.348 Y102.526 E0.57091
G1 X95.4 Y102.456 E0.57439
G1 X95.551 Y102.124 E0.58895
G1 X95.681 Y102.131 E0.59414
G0 F6000 X98.74 Y113.867
G1 F1200 X99.114 Y113.915 E0.60919
G1 X99.191 Y113.91 E0.61227
G1 X100.184 Y113.644 E0.6533
G1 X100.296 Y114.02 E0.66896
G1 X100.305 Y114.07 E0.67099
G1 X100.785 Y115.911 E0.74692
G1 X100.021 Y116.116 E0.77849
G1 X99.388 Y116.394 E0.80609
G1 X99.138 Y116.238 E0.81785
G1 X99.006 Y116.182 E0.82357
G1 X98.499 Y114.29 E0.90175
G1 X98.641 Y114.112 E0.91084
G1 X98.673 Y114.055 E0.91345
G1 X98.74 Y113.867 E0.92141
G0 F6000 X98.987 Y114.302
G1 F1200 X99.063 Y114.312 E0.92447
G1 X99.294 Y114.297 E0.93371
G1 X99.91 Y114.132 E0.95916
G1 X100.298 Y115.628 E1.02085
G1 X99.917 Y115.73 E1.03659
G1 X99.83 Y115.761 E1.04028
G1 X99.42 Y115.943 E1.05818
G1 X99.349 Y115.899 E1.06151
G1 X98.938 Y114.381 E1.12428
G1 X98.987 Y114.302 E1.12799
G0 F6000 X99.431 Y114.674
G1 F1200 X99.623 Y114.623 E1.13592
G1 X99.811 Y115.344 E1.16566
G1 X99.628 Y115.412 E1.17345
G1 X99.431 Y114.674 E1.20394
G1 F2700 E-3.79606
;MESH:Camera Stand.STL
G0 F6000 X97.305 Y115.243
G0 X100.441 Y129.965
G0 X98.733 Y130.611
;TYPE:WALL-INNER
G1 F2700 E1.20394
G1 F1200 X98.682 Y130.419 E1.21187
G1 X89.664 Y96.771 E2.60223
G1 X89.481 Y95.749 E2.64367
G1 X89.465 Y94.735 E2.68414
G1 X89.614 Y93.765 E2.72331
G1 X89.932 Y92.806 E2.76364
G1 X90.396 Y91.93 E2.8032
G1 X91.008 Y91.131 E2.84337
G1 X91.732 Y90.457 E2.88285
G1 X92.566 Y89.906 E2.92275
G1 X93.482 Y89.499 E2.96275
G1 X94.443 Y89.253 E3.00234
G1 X95.495 Y89.164 E3.04448
G1 X130.536 Y89.164 E4.44304
G1 X130.536 Y91.164 E4.52287
G1 X100.619 Y91.164 E5.71692
G1 X99.357 Y91.268 E5.76746
G1 X98.042 Y91.599 E5.82158
G1 X96.824 Y92.14 E5.87477
G1 X95.712 Y92.871 E5.92789
G1 X94.737 Y93.78 E5.98109
G1 X93.925 Y94.837 E6.03429
G1 X93.302 Y96.013 E6.08741
G1 X92.881 Y97.277 E6.14058
G1 X92.683 Y98.559 E6.19235
G1 X92.677 Y98.592 E6.19369
G1 X92.691 Y99.929 E6.24706
G1 X92.965 Y101.361 E6.30525
G1 X100.664 Y130.093 E7.49246
G1 X98.925 Y130.56 E7.56433
G1 X98.733 Y130.611 E7.56945
G0 F6000 X98.399 Y130.909
G1 F1200 X89.272 Y96.853 E8.97667
G1 X89.082 Y95.788 E9.01985
G1 X89.065 Y94.71 E9.06288
G1 X89.225 Y93.667 E9.10499
G1 X89.561 Y92.653 E9.14763
G1 X90.061 Y91.71 E9.19023
G1 X90.709 Y90.863 E9.23279
G1 X91.487 Y90.139 E9.27521
G1 X92.372 Y89.554 E9.31755
G1 X93.351 Y89.119 E9.36031
G1 X94.376 Y88.857 E9.40253
G1 X95.473 Y88.764 E9.44647
G1 X130.936 Y88.764 E10.86188
G1 X130.936 Y91.564 E10.97363
G1 X100.635 Y91.564 E12.18301
G1 X99.423 Y91.664 E12.23155
G1 X98.173 Y91.979 E12.283
G1 X97.016 Y92.492 E12.33351
G1 X95.96 Y93.187 E12.38397
G1 X95.034 Y94.05 E12.43449
G1 X94.263 Y95.054 E12.48501
G1 X93.671 Y96.171 E12.53547
G1 X93.271 Y97.372 E12.58599
G1 X93.077 Y98.621 E12.63644
G1 X93.091 Y99.889 E12.68705
G1 X93.355 Y101.272 E12.74325
G1 X101.154 Y130.376 E13.94584
G1 X98.642 Y131.05 E14.04964
G1 X98.45 Y131.101 E14.05757
G1 X98.399 Y130.909 E14.0627
G0 F6000 X98.166 Y131.591
;TYPE:WALL-OUTER
G1 F1200 X98.121 Y131.421 E14.06971
G1 X88.88 Y96.935 E15.49469
G1 X88.682 Y95.827 E15.53961
G1 X88.665 Y94.686 E15.58515
G1 X88.836 Y93.568 E15.63029
G1 X89.192 Y92.495 E15.67542
G1 X89.722 Y91.494 E15.72062
G1 X90.413 Y90.592 E15.76597
G1 X91.236 Y89.825 E15.81087
G1 X92.181 Y89.201 E15.85607
G1 X93.215 Y88.742 E15.90122
G1 X94.315 Y88.46 E15.94655
G1 X95.451 Y88.364 E15.99205
G1 X131.336 Y88.364 E17.4243
G1 X131.336 Y91.964 E17.56798
G1 X100.651 Y91.964 E18.79269
G1 X99.489 Y92.06 E18.83922
G1 X98.304 Y92.359 E18.888
G1 X97.208 Y92.844 E18.93583
G1 X96.208 Y93.503 E18.98363
G1 X95.331 Y94.32 E19.03147
G1 X94.601 Y95.271 E19.07932
G1 X94.04 Y96.329 E19.12712
G1 X93.661 Y97.467 E19.17499
G1 X93.477 Y98.65 E19.22277
G1 X93.491 Y99.849 E19.27063
G1 X93.745 Y101.183 E19.32483
G1 X101.644 Y130.659 E20.54279
G1 X98.166 Y131.591 E20.68651
G0 F6000 X98.357 Y131.26
G0 X98.739 Y130.204
G0 X99.009 Y130.133
;TYPE:SKIN
G1 F1200 X90.044 Y96.681 E22.06876
G1 X89.871 Y95.711 E22.10809
G1 X89.855 Y94.764 E22.14589
G1 X89.995 Y93.854 E22.18264
G1 X90.29 Y92.963 E22.2201
G1 X90.725 Y92.144 E22.25711
G1 X91.304 Y91.387 E22.29515
G1 X91.968 Y90.769 E22.33135
G1 X92.755 Y90.25 E22.36898
G1 X93.612 Y89.868 E22.40643
G1 X94.513 Y89.638 E22.44354
G1 X95.504 Y89.554 E22.48324
G1 X130.146 Y89.554 E23.86587
G1 X130.146 Y90.774 E23.91457
G1 X100.603 Y90.774 E25.09369
G1 X99.293 Y90.882 E25.14615
G1 X97.915 Y91.229 E25.20287
G1 X96.637 Y91.797 E25.25869
G1 X95.47 Y92.563 E25.3144
G1 X94.447 Y93.517 E25.37023
G1 X93.596 Y94.626 E25.42602
G1 X92.942 Y95.859 E25.48173
G1 X92.501 Y97.185 E25.5375
G1 X92.287 Y98.564 E25.5932
G1 X92.301 Y99.968 E25.64924
G1 X92.585 Y101.449 E25.70943
G1 X100.186 Y129.817 E26.8816
G1 X99.009 Y130.133 E26.93024
G0 F6000 X99.332 Y129.879
G1 F1200 X99.023 Y129.57 E26.94768
G0 F6000 X99.778 Y129.759
G1 F1200 X98.816 Y128.798 E27.00195
G0 F6000 X98.609 Y128.025
G1 F1200 X99.882 Y129.298 E27.0738
G0 F6000 X99.675 Y128.525
G1 F1200 X98.402 Y127.252 E27.14565
G0 F6000 X98.195 Y126.479
G1 F1200 X99.468 Y127.752 E27.21751
G0 F6000 X99.26 Y126.979
G1 F1200 X97.988 Y125.707 E27.28931
G0 F6000 X97.781 Y124.934
G1 F1200 X99.054 Y126.207 E27.36116
G0 F6000 X98.847 Y125.434
G1 F1200 X97.574 Y124.161 E27.43301
G0 F6000 X97.367 Y123.388
G1 F1200 X98.639 Y124.661 E27.50484
G0 F6000 X98.432 Y123.888
G1 F1200 X97.16 Y122.615 E27.57666
G0 F6000 X96.952 Y121.842
G1 F1200 X98.225 Y123.115 E27.64852
G0 F6000 X98.019 Y122.343
G1 F1200 X96.745 Y121.07 E27.7204
G0 F6000 X96.538 Y120.297
G1 F1200 X97.811 Y121.57 E27.79225
G0 F6000 X97.604 Y120.797
G1 F1200 X96.331 Y119.524 E27.86411
G0 F6000 X96.124 Y118.751
G1 F1200 X97.397 Y120.025 E27.93599
G0 F6000 X97.19 Y119.252
G1 F1200 X95.916 Y117.978 E28.0079
G0 F6000 X95.71 Y117.206
G1 F1200 X96.983 Y118.479 E28.07975
G0 F6000 X96.776 Y117.707
G1 F1200 X95.503 Y116.433 E28.15163
G0 F6000 X95.296 Y115.66
G1 F1200 X96.569 Y116.934 E28.22352
G0 F6000 X96.362 Y116.161
G1 F1200 X95.088 Y114.887 E28.29543
G0 F6000 X94.881 Y114.115
G1 F1200 X96.155 Y115.388 E28.36731
G0 F6000 X95.948 Y114.616
G1 F1200 X94.674 Y113.342 E28.43922
G0 F6000 X94.467 Y112.569
G1 F1200 X95.741 Y113.843 E28.51113
G0 F6000 X95.534 Y113.07
G1 F1200 X94.26 Y111.796 E28.58304
G0 F6000 X94.052 Y111.023
G1 F1200 X95.327 Y112.297 E28.65498
G0 F6000 X95.12 Y111.524
G1 F1200 X93.845 Y110.25 E28.72691
G0 F6000 X93.639 Y109.478
G1 F1200 X94.913 Y110.752 E28.79882
G0 F6000 X94.706 Y109.979
G1 F1200 X93.432 Y108.705 E28.87073
G0 F6000 X93.224 Y107.932
G1 F1200 X94.499 Y109.206 E28.94267
G0 F6000 X94.291 Y108.434
G1 F1200 X93.017 Y107.159 E29.01461
G0 F6000 X92.81 Y106.387
G1 F1200 X94.084 Y107.661 E29.08652
G0 F6000 X93.878 Y106.889
G1 F1200 X92.603 Y105.614 E29.15849
G0 F6000 X92.396 Y104.841
G1 F1200 X93.671 Y106.116 E29.23045
G0 F6000 X93.463 Y105.343
G1 F1200 X92.189 Y104.068 E29.30239
G0 F6000 X91.981 Y103.295
G1 F1200 X93.256 Y104.57 E29.37436
G0 F6000 X93.049 Y103.797
G1 F1200 X91.774 Y102.522 E29.44633
G0 F6000 X91.567 Y101.749
G1 F1200 X92.843 Y103.025 E29.51835
G0 F6000 X92.635 Y102.252
G1 F1200 X91.361 Y100.977 E29.59029
G0 F6000 X91.153 Y100.204
G1 F1200 X92.429 Y101.48 E29.66231
G0 F6000 X92.294 Y100.779
G1 F1200 X90.946 Y99.431 E29.7384
G0 F6000 X90.739 Y98.659
G1 F1200 X92.159 Y100.078 E29.81852
G0 F6000 X92.136 Y99.49
G1 F1200 X90.532 Y97.886 E29.90906
G0 F6000 X90.325 Y97.113
G1 F1200 X92.131 Y98.919 E30.01099
G0 F6000 X92.155 Y98.377
G1 F1200 X90.151 Y96.374 E30.12408
G0 F6000 X90.03 Y95.687
G1 F1200 X92.231 Y97.888 E30.24831
G0 F6000 X92.307 Y97.398
G1 F1200 X90.02 Y95.111 E30.3774
G0 F6000 X90.045 Y94.571
G1 F1200 X92.413 Y96.939 E30.51106
G0 F6000 X92.555 Y96.515
G1 F1200 X90.121 Y94.081 E30.64845
G0 F6000 X90.236 Y93.63
G1 F1200 X92.696 Y96.09 E30.7873
G0 F6000 X92.853 Y95.682
G1 F1200 X90.377 Y93.205 E30.92709
G0 F6000 X90.549 Y92.812
G1 F1200 X93.049 Y95.312 E31.0682
G0 F6000 X93.246 Y94.943
G1 F1200 X90.745 Y92.442 E31.20936
G0 F6000 X90.962 Y92.094
G1 F1200 X93.442 Y94.573 E31.34932
G0 F6000 X93.683 Y94.248
G1 F1200 X91.208 Y91.773 E31.48902
G0 F6000 X91.459 Y91.459
G1 F1200 X93.929 Y93.929 E31.62843
G0 F6000 X94.174 Y93.608
G1 F1200 X91.752 Y91.186 E31.76514
G0 F6000 X92.045 Y90.914
G1 F1200 X94.436 Y93.305 E31.9001
G0 F6000 X94.728 Y93.031
G1 F1200 X92.383 Y90.686 E32.03246
G0 F6000 X92.724 Y90.461
G1 F1200 X95.021 Y92.758 E32.16212
G0 F6000 X95.314 Y92.486
G1 F1200 X93.099 Y90.271 E32.28714
G0 F6000 X93.491 Y90.097
G1 F1200 X95.647 Y92.253 E32.40883
G0 F6000 X95.989 Y92.029
G1 F1200 X93.915 Y89.955 E32.5259
G0 F6000 X94.365 Y89.84
G1 F1200 X96.33 Y91.805 E32.63681
G0 F6000 X96.689 Y91.598
G1 F1200 X94.859 Y89.768 E32.74011
G0 F6000 X95.381 Y89.724
G1 F1200 X97.08 Y91.423 E32.836
G0 F6000 X97.472 Y91.25
G1 F1200 X95.936 Y89.714 E32.9227
G0 F6000 X96.502 Y89.714
G1 F1200 X97.864 Y91.076 E32.99958
G0 F6000 X98.316 Y90.962
G1 F1200 X97.068 Y89.714 E33.07002
G0 F6000 X97.633 Y89.714
G1 F1200 X98.767 Y90.848 E33.13403
G0 F6000 X99.22 Y90.735
G1 F1200 X98.199 Y89.714 E33.19166
G0 F6000 X98.765 Y89.714
G1 F1200 X99.735 Y90.685 E33.24644
G0 F6000 X100.258 Y90.641
G1 F1200 X99.33 Y89.714 E33.29879
G0 F6000 X99.896 Y89.714
G1 F1200 X100.795 Y90.613 E33.34954
G0 F6000 X101.361 Y90.613
G1 F1200 X100.462 Y89.714 E33.40028
G0 F6000 X101.027 Y89.714
G1 F1200 X101.927 Y90.613 E33.45105
G0 F6000 X102.493 Y90.613
G1 F1200 X101.593 Y89.714 E33.50182
G0 F6000 X102.159 Y89.714
G1 F1200 X103.058 Y90.613 E33.55257
G0 F6000 X103.624 Y90.613
G1 F1200 X102.724 Y89.714 E33.60334
G0 F6000 X103.29 Y89.714
G1 F1200 X104.19 Y90.613 E33.65411
G0 F6000 X104.755 Y90.613
G1 F1200 X103.856 Y89.714 E33.70485
G0 F6000 X104.421 Y89.714
G1 F1200 X105.321 Y90.613 E33.75562
G0 F6000 X105.887 Y90.613
G1 F1200 X104.987 Y89.714 E33.8064
G0 F6000 X105.553 Y89.714
G1 F1200 X106.452 Y90.613 E33.85714
G0 F6000 X107.018 Y90.613
G1 F1200 X106.119 Y89.714 E33.90788
G0 F6000 X106.684 Y89.714
G1 F1200 X107.584 Y90.613 E33.95865
G0 F6000 X108.149 Y90.613
G1 F1200 X107.25 Y89.714 E34.0094
G0 F6000 X107.816 Y89.714
G1 F1200 X108.715 Y90.613 E34.06014
G0 F6000 X109.281 Y90.613
G1 F1200 X108.381 Y89.714 E34.11091
G0 F6000 X108.947 Y89.714
G1 F1200 X109.846 Y90.613 E34.16166
G0 F6000 X110.412 Y90.613
G1 F1200 X109.513 Y89.714 E34.2124
G0 F6000 X110.078 Y89.714
G1 F1200 X110.978 Y90.613 E34.26317
G0 F6000 X111.543 Y90.613
G1 F1200 X110.644 Y89.714 E34.31391
G0 F6000 X111.21 Y89.714
G1 F1200 X112.109 Y90.613 E34.36466
G0 F6000 X112.675 Y90.613
G1 F1200 X111.775 Y89.714 E34.41543
G0 F6000 X112.341 Y89.714
G1 F1200 X113.241 Y90.613 E34.4662
G0 F6000 X113.806 Y90.613
G1 F1200 X112.907 Y89.714 E34.51694
G0 F6000 X113.472 Y89.714
G1 F1200 X114.372 Y90.613 E34.56772
G0 F6000 X114.938 Y90.613
G1 F1200 X114.038 Y89.714 E34.61849
G0 F6000 X114.604 Y89.714
G1 F1200 X115.503 Y90.613 E34.66923
G0 F6000 X116.069 Y90.613
G1 F1200 X115.17 Y89.714 E34.71998
G0 F6000 X115.735 Y89.714
G1 F1200 X116.635 Y90.613 E34.77075
G0 F6000 X117.2 Y90.613
G1 F1200 X116.301 Y89.714 E34.82149
G0 F6000 X116.867 Y89.714
G1 F1200 X117.766 Y90.613 E34.87223
G0 F6000 X118.332 Y90.613
G1 F1200 X117.432 Y89.714 E34.92301
G0 F6000 X117.998 Y89.714
G1 F1200 X118.897 Y90.613 E34.97375
G0 F6000 X119.463 Y90.613
G1 F1200 X118.564 Y89.714 E35.02449
G0 F6000 X119.129 Y89.714
G1 F1200 X120.029 Y90.613 E35.07526
G0 F6000 X120.594 Y90.613
G1 F1200 X119.695 Y89.714 E35.12601
G0 F6000 X120.261 Y89.714
G1 F1200 X121.16 Y90.613 E35.17675
G0 F6000 X121.726 Y90.613
G1 F1200 X120.826 Y89.714 E35.22752
G0 F6000 X121.392 Y89.714
G1 F1200 X122.291 Y90.613 E35.27827
G0 F6000 X122.857 Y90.613
G1 F1200 X121.958 Y89.714 E35.32901
G0 F6000 X122.523 Y89.714
G1 F1200 X123.423 Y90.613 E35.37978
G0 F6000 X123.989 Y90.613
G1 F1200 X123.089 Y89.714 E35.43055
G0 F6000 X123.655 Y89.714
G1 F1200 X124.554 Y90.613 E35.4813
G0 F6000 X125.12 Y90.613
G1 F1200 X124.22 Y89.714 E35.53207
G0 F6000 X124.786 Y89.714
G1 F1200 X125.686 Y90.613 E35.58284
G0 F6000 X126.251 Y90.613
G1 F1200 X125.352 Y89.714 E35.63358
G0 F6000 X125.918 Y89.714
G1 F1200 X126.817 Y90.613 E35.68433
G0 F6000 X127.383 Y90.613
G1 F1200 X126.483 Y89.714 E35.7351
G0 F6000 X127.049 Y89.714
G1 F1200 X127.948 Y90.613 E35.78584
G0 F6000 X128.514 Y90.613
G1 F1200 X127.615 Y89.714 E35.83658
G0 F6000 X128.18 Y89.714
G1 F1200 X129.08 Y90.613 E35.88736
G0 F6000 X129.645 Y90.613
G1 F1200 X128.746 Y89.714 E35.9381
G0 F6000 X129.312 Y89.714
G1 F1200 X129.985 Y90.387 E35.97609
G0 F6000 X129.985 Y89.821
G1 F1200 X129.877 Y89.714 E35.98215
G0 F6000 X129.877 Y88.974
G1 F2700 E30.98215
;MESH:NONMESH
G0 F300 X129.877 Y88.974 Z0.4
G0 F6000 X130.354 Y89.346
G0 X130.354 Y90.982
G0 X100.643 Y91.745
G0 X100.683 Y92.828
G0 X95.551 Y102.124
;TIME_ELAPSED:62.146441
;LAYER:1
M140 S70
M106 S85
;TYPE:SUPPORT
G1 F2700 E35.98215
G1 F1350 X95.628 Y102.145 E35.98481
G1 X97.004 Y101.764 E36.0323
G1 X97.197 Y102.473 E36.05674
G1 X97.242 Y102.677 E36.06369
G1 X97.292 Y102.819 E36.06869
G1 X97.585 Y103.909 E36.10623
G1 X97.6 Y104.034 E36.11042
G1 X97.297 Y104.12 E36.1209
G1 X96.824 Y104.12 E36.13663
G1 X96.244 Y104.566 E36.16096
G1 X95.867 Y104.206 E36.1783
G1 X95.791 Y104.18 E36.18097
G1 X95.348 Y102.525 E36.23796
G1 X95.384 Y102.491 E36.2396
G1 X95.551 Y102.124 E36.25301
G0 F7500 X96 Y102.332
G1 F1350 X95.73 Y102.407 E36.26233
G1 X95.652 Y102.579 E36.26862
G1 X96 Y103.877 E36.31331
G1 X96 Y102.332 E36.3647
G1 X96.808 Y102.108 E36.39259
G1 X96.926 Y102.543 E36.40758
G1 X96.972 Y102.754 E36.41476
G1 X97.026 Y102.906 E36.42013
G1 X97.275 Y103.835 E36.45211
G1 X97.259 Y103.84 E36.45267
G1 X96.729 Y103.84 E36.4703
G1 X96.264 Y104.198 E36.48982
G1 X96.025 Y103.971 E36.50078
G1 X96 Y103.877 E36.50402
G1 F2700 E31.50402
G0 F7500 X95.682 Y105.185
G0 X98.849 Y113.011
G0 X98.74 Y113.868
G1 F2700 E36.50402
G1 F1350 X99.15 Y113.922 E36.51777
G1 X100.185 Y113.644 E36.55342
G1 X100.194 Y113.649 E36.55376
G1 X100.302 Y114.056 E36.56776
G1 X100.786 Y115.911 E36.63153
G1 X100.006 Y116.12 E36.65838
G1 X99.389 Y116.394 E36.68084
G1 X99.122 Y116.228 E36.6913
G1 X99.006 Y116.181 E36.69546
G1 X98.499 Y114.29 E36.76057
G1 X98.662 Y114.086 E36.76926
G1 X98.74 Y113.868 E36.77696
G0 F7500 X99.994 Y113.985
G1 F1350 X99.168 Y114.206 E36.8054
G1 X98.928 Y114.174 E36.81345
