;FLAVOR:Marlin
;TIME:25641
;Filament used: 28.2218m
;Layer height: 0.28
;MINX:11.568
;MINY:29.335
;MINZ:0.28
;MAXX:208.432
;MAXY:190.665
;MAXZ:3.92
;Generated with Cura_SteamEngine 4.5.0
M140 S70
M105
M190 S70
M104 S215
M105
M109 S215
M82 ;absolute extrusion mode
; Ender 3 Custom Start G-code
G92 E0 ; Reset Extruder
G28 ; Home all axes
G1 Z2.0 F3000 ; Move Z Axis up little to prevent scratching of Heat Bed
G1 X0.1 Y20 Z0.3 F5000.0 ; Move to start position
G1 X0.1 Y200.0 Z0.3 F1500.0 E15 ; Draw the first line
G1 X0.4 Y200.0 Z0.3 F5000.0 ; Move to side a little
G1 X0.4 Y20 Z0.3 F1500.0 E30 ; Draw the second line
G92 E0 ; Reset Extruder
G1 Z2.0 F3000 ; Move Z Axis up little to prevent scratching of Heat Bed
G1 X5 Y20 Z0.3 F5000.0 ; Move over to prevent blob squish
G92 E0
G92 E0
G1 F2700 E-5
;LAYER_COUNT:14
;LAYER:0
M107
;MESH:carena_top_rev.STL
G0 F6000 X174.216 Y35.951 Z0.28
;TYPE:WALL-INNER
G1 F2700 E0
G1 F1200 X174.557 Y36.054 E0.0199
G1 X174.909 Y36.101 E0.03975
G1 X175.269 Y36.085 E0.05988
G1 X175.616 Y36.01 E0.07972
G1 X175.945 Y35.877 E0.09955
G1 X176.249 Y35.691 E0.11946
G1 X176.518 Y35.455 E0.13946
G1 X176.741 Y35.177 E0.15937
G1 X176.916 Y34.867 E0.17926
G1 X177.035 Y34.53 E0.19923
G1 X177.093 Y34.19 E0.21851
G1 X177.1 Y34 E0.22913
G1 X177.093 Y33.81 E0.23975
G1 X177.035 Y33.47 E0.25903
G1 X176.916 Y33.133 E0.279
G1 X176.741 Y32.823 E0.29889
G1 X176.518 Y32.545 E0.3188
G1 X176.249 Y32.309 E0.3388
G1 X175.945 Y32.123 E0.35871
G1 X175.616 Y31.99 E0.37854
G1 X175.269 Y31.915 E0.39838
G1 X174.909 Y31.899 E0.41851
G1 X174.557 Y31.946 E0.43836
G1 X174.216 Y32.049 E0.45826
G1 X173.899 Y32.21 E0.47813
G1 X173.611 Y32.421 E0.49808
G1 X173.365 Y32.68 E0.51804
G1 X173.164 Y32.974 E0.53794
G1 X173.018 Y33.301 E0.55795
G1 X172.928 Y33.645 E0.57782
G1 X172.897 Y34 E0.59773
G1 X172.928 Y34.356 E0.61769
G1 X173.018 Y34.7 E0.63756
G1 X173.164 Y35.026 E0.65752
G1 X173.365 Y35.32 E0.67742
G1 X173.611 Y35.579 E0.69738
G1 X173.899 Y35.79 E0.71733
G1 X174.216 Y35.951 E0.7372
G0 F6000 X174.366 Y35.578
;TYPE:WALL-OUTER
G1 F1200 X174.642 Y35.662 E0.75332
G1 X174.927 Y35.7 E0.76939
G1 X175.217 Y35.687 E0.78561
G1 X175.498 Y35.626 E0.80167
G1 X175.765 Y35.518 E0.81777
G1 X176.011 Y35.368 E0.83387
G1 X176.228 Y35.177 E0.85002
G1 X176.409 Y34.952 E0.86615
G1 X176.55 Y34.701 E0.88224
G1 X176.646 Y34.429 E0.89836
G1 X176.694 Y34.148 E0.91429
G1 X176.7 Y34 E0.92256
G1 X176.694 Y33.852 E0.93084
G1 X176.646 Y33.571 E0.94677
G1 X176.55 Y33.299 E0.96289
G1 X176.409 Y33.048 E0.97897
G1 X176.228 Y32.823 E0.99511
G1 X176.011 Y32.632 E1.01126
G1 X175.765 Y32.482 E1.02736
G1 X175.498 Y32.374 E1.04345
G1 X175.217 Y32.313 E1.05952
G1 X174.927 Y32.3 E1.07574
G1 X174.642 Y32.338 E1.09181
G1 X174.366 Y32.422 E1.10793
G1 X174.109 Y32.552 E1.12402
G1 X173.876 Y32.723 E1.14017
G1 X173.677 Y32.932 E1.1563
G1 X173.515 Y33.17 E1.17238
G1 X173.397 Y33.434 E1.18854
G1 X173.324 Y33.713 E1.20466
G1 X173.299 Y34 E1.22075
G1 X173.324 Y34.288 E1.23691
G1 X173.397 Y34.567 E1.25302
G1 X173.515 Y34.83 E1.26913
G1 X173.677 Y35.068 E1.28522
G1 X173.876 Y35.277 E1.30134
G1 X174.109 Y35.448 E1.31749
G1 X174.366 Y35.578 E1.33358
G0 F6000 X174.203 Y35.986
G1 F2700 E-3.66642
G0 F6000 X173.485 Y35.722
G0 X174.449 Y34.625
G0 X115.08 Y74.382
G0 X116.53 Y74.225
G0 X115.952 Y75.609
G0 X115.442 Y76.362
G0 X114.711 Y76.902
G0 X113.38 Y77.35
;TYPE:WALL-INNER
G1 F2700 E1.33358
G1 F1200 X113.863 Y77.329 E1.3606
G1 X114.336 Y77.227 E1.38763
G1 X114.784 Y77.046 E1.41463
G1 X115.196 Y76.793 E1.44165
G1 X115.559 Y76.474 E1.46865
G1 X115.863 Y76.097 E1.49571
G1 X116.099 Y75.675 E1.52273
G1 X116.259 Y75.219 E1.54973
G1 X116.34 Y74.755 E1.57605
G1 X116.35 Y74.5 E1.59031
G1 X116.34 Y74.245 E1.60457
G1 X116.259 Y73.781 E1.63089
G1 X116.099 Y73.325 E1.65789
G1 X115.863 Y72.903 E1.68491
G1 X115.559 Y72.526 E1.71197
G1 X115.196 Y72.207 E1.73897
G1 X114.784 Y71.954 E1.76599
G1 X114.336 Y71.773 E1.79299
G1 X113.863 Y71.671 E1.82003
G1 X113.379 Y71.65 E1.8471
G1 X112.899 Y71.713 E1.87415
G1 X112.437 Y71.853 E1.90112
G1 X112.005 Y72.071 E1.92816
G1 X111.615 Y72.359 E1.95525
G1 X111.28 Y72.709 E1.98232
G1 X111.01 Y73.109 E2.00929
G1 X110.812 Y73.549 E2.03625
G1 X110.688 Y74.018 E2.06335
G1 X110.648 Y74.5 E2.09038
G1 X110.688 Y74.982 E2.1174
G1 X110.812 Y75.451 E2.14451
G1 X111.01 Y75.891 E2.17147
G1 X111.28 Y76.291 E2.19844
G1 X111.615 Y76.641 E2.22551
G1 X112.005 Y76.929 E2.2526
G1 X112.436 Y77.146 E2.27956
G1 X112.899 Y77.288 E2.30662
G1 X113.38 Y77.35 E2.33372
G0 F6000 X113.397 Y76.949
;TYPE:WALL-OUTER
G1 F1200 X113.812 Y76.931 E2.35693
G1 X114.218 Y76.843 E2.38015
G1 X114.603 Y76.688 E2.40334
G1 X114.957 Y76.47 E2.42657
G1 X115.269 Y76.196 E2.44977
G1 X115.53 Y75.872 E2.47302
G1 X115.733 Y75.51 E2.49621
G1 X115.871 Y75.118 E2.51943
G1 X115.941 Y74.712 E2.54245
G1 X115.95 Y74.5 E2.55431
G1 X115.941 Y74.288 E2.56616
G1 X115.871 Y73.882 E2.58918
G1 X115.733 Y73.49 E2.6124
G1 X115.53 Y73.128 E2.6356
G1 X115.269 Y72.804 E2.65884
G1 X114.957 Y72.53 E2.68205
G1 X114.603 Y72.312 E2.70528
G1 X114.218 Y72.157 E2.72847
G1 X113.812 Y72.069 E2.75168
G1 X113.396 Y72.051 E2.77495
G1 X112.984 Y72.105 E2.79816
G1 X112.586 Y72.226 E2.82141
G1 X112.215 Y72.413 E2.84462
G1 X111.88 Y72.66 E2.86788
G1 X111.593 Y72.961 E2.89112
G1 X111.361 Y73.305 E2.9143
G1 X111.19 Y73.683 E2.93749
G1 X111.084 Y74.086 E2.96077
G1 X111.049 Y74.5 E2.98399
G1 X111.084 Y74.914 E3.0072
G1 X111.19 Y75.317 E3.03049
G1 X111.361 Y75.695 E3.05367
G1 X111.593 Y76.039 E3.07685
G1 X111.88 Y76.34 E3.10009
G1 X112.215 Y76.587 E3.12335
G1 X112.586 Y76.774 E3.14656
G1 X112.984 Y76.896 E3.16982
G1 X113.397 Y76.949 E3.19309
G0 F6000 X113.379 Y77.388
G1 F2700 E-1.80691
G0 F6000 X112.09 Y76.792
G0 X111.721 Y76.521
G0 X110.499 Y75.015
G0 X111.94 Y74.772
G0 X45.5 Y34.667
G0 X46.363 Y35.845
G0 X45.616 Y36.01
;TYPE:WALL-INNER
G1 F2700 E3.19309
G1 F1200 X45.945 Y35.877 E3.21292
G1 X46.249 Y35.691 E3.23283
G1 X46.518 Y35.455 E3.25283
G1 X46.741 Y35.177 E3.27274
G1 X46.916 Y34.867 E3.29263
G1 X47.035 Y34.53 E3.3126
G1 X47.093 Y34.19 E3.33188
G1 X47.1 Y34 E3.3425
G1 X47.093 Y33.81 E3.35312
G1 X47.035 Y33.47 E3.3724
G1 X46.916 Y33.133 E3.39237
G1 X46.741 Y32.823 E3.41226
G1 X46.518 Y32.545 E3.43217
G1 X46.249 Y32.309 E3.45217
G1 X45.945 Y32.123 E3.47208
G1 X45.616 Y31.99 E3.49191
G1 X45.269 Y31.915 E3.51175
G1 X44.909 Y31.899 E3.53188
G1 X44.557 Y31.946 E3.55173
G1 X44.216 Y32.049 E3.57163
G1 X43.899 Y32.21 E3.5915
G1 X43.611 Y32.421 E3.61145
G1 X43.365 Y32.68 E3.63141
G1 X43.164 Y32.974 E3.65131
G1 X43.018 Y33.301 E3.67132
G1 X42.928 Y33.645 E3.69119
G1 X42.897 Y34 E3.7111
G1 X42.928 Y34.356 E3.73106
G1 X43.018 Y34.7 E3.75093
G1 X43.164 Y35.026 E3.77089
G1 X43.365 Y35.32 E3.79079
G1 X43.611 Y35.579 E3.81075
G1 X43.899 Y35.79 E3.8307
G1 X44.216 Y35.951 E3.85057
G1 X44.557 Y36.054 E3.87047
G1 X44.909 Y36.101 E3.89032
G1 X45.269 Y36.085 E3.91045
G1 X45.616 Y36.01 E3.93029
G0 F6000 X45.498 Y35.626
;TYPE:WALL-OUTER
G1 F1200 X45.765 Y35.518 E3.94638
G1 X46.011 Y35.368 E3.96248
G1 X46.228 Y35.177 E3.97864
G1 X46.409 Y34.952 E3.99477
G1 X46.55 Y34.701 E4.01086
G1 X46.646 Y34.429 E4.02697
G1 X46.694 Y34.148 E4.0429
G1 X46.7 Y34 E4.05118
G1 X46.694 Y33.852 E4.05946
G1 X46.646 Y33.571 E4.07539
G1 X46.55 Y33.299 E4.0915
G1 X46.409 Y33.048 E4.10759
G1 X46.228 Y32.823 E4.12372
G1 X46.011 Y32.632 E4.13988
G1 X45.765 Y32.482 E4.15598
G1 X45.498 Y32.374 E4.17207
G1 X45.217 Y32.313 E4.18814
G1 X44.927 Y32.3 E4.20436
G1 X44.642 Y32.338 E4.22042
G1 X44.366 Y32.422 E4.23655
G1 X44.109 Y32.552 E4.25264
G1 X43.876 Y32.723 E4.26879
G1 X43.677 Y32.932 E4.28491
G1 X43.515 Y33.17 E4.301
G1 X43.397 Y33.434 E4.31716
G1 X43.324 Y33.713 E4.33327
G1 X43.299 Y34 E4.34937
G1 X43.324 Y34.288 E4.36552
G1 X43.397 Y34.567 E4.38164
G1 X43.515 Y34.83 E4.39774
G1 X43.677 Y35.068 E4.41383
G1 X43.876 Y35.277 E4.42996
G1 X44.109 Y35.448 E4.44611
G1 X44.366 Y35.578 E4.4622
G1 X44.642 Y35.662 E4.47832
G1 X44.927 Y35.7 E4.49439
G1 X45.217 Y35.687 E4.51061
G1 X45.498 Y35.626 E4.52667
G0 F6000 X45.627 Y36.046
G1 F2700 E-0.47333
G0 F6000 X44.9 Y36.293
G0 X44.967 Y34.834
G0 X42.702 Y72.929
G0 X42.888 Y71.481
G0 X44.442 Y72.638
G0 X44.952 Y73.391
G0 X45.179 Y74.263
G0 X45.179 Y74.737
G0 X44.952 Y75.609
G0 X44.539 Y76.218
G0 X43.784 Y77.046
;TYPE:WALL-INNER
G1 F2700 E4.52667
G1 F1200 X44.196 Y76.793 E4.55369
G1 X44.559 Y76.474 E4.58069
G1 X44.863 Y76.097 E4.60775
G1 X45.099 Y75.675 E4.63477
G1 X45.259 Y75.219 E4.66177
G1 X45.34 Y74.754 E4.68815
G1 X45.349 Y74.509 E4.70185
G1 X45.34 Y74.247 E4.71649
G1 X45.259 Y73.781 E4.74292
G1 X45.099 Y73.325 E4.76993
G1 X44.863 Y72.903 E4.79694
G1 X44.559 Y72.526 E4.824
G1 X44.196 Y72.207 E4.85101
G1 X43.784 Y71.954 E4.87802
G1 X43.336 Y71.773 E4.90502
G1 X42.863 Y71.671 E4.93206
G1 X42.379 Y71.65 E4.95913
G1 X41.899 Y71.713 E4.98618
G1 X41.437 Y71.853 E5.01315
G1 X41.005 Y72.071 E5.04019
G1 X40.615 Y72.359 E5.06728
G1 X40.28 Y72.709 E5.09435
G1 X40.01 Y73.109 E5.12132
G1 X39.812 Y73.549 E5.14828
G1 X39.688 Y74.018 E5.17539
G1 X39.648 Y74.5 E5.20241
G1 X39.688 Y74.982 E5.22944
G1 X39.812 Y75.451 E5.25654
G1 X40.01 Y75.891 E5.2835
G1 X40.28 Y76.291 E5.31047
G1 X40.615 Y76.641 E5.33754
G1 X41.005 Y76.929 E5.36463
G1 X41.436 Y77.146 E5.3916
G1 X41.899 Y77.288 E5.41866
G1 X42.38 Y77.35 E5.44576
G1 X42.863 Y77.329 E5.47277
G1 X43.336 Y77.227 E5.49981
G1 X43.784 Y77.046 E5.52681
G0 F6000 X43.603 Y76.688
;TYPE:WALL-OUTER
G1 F1200 X43.957 Y76.47 E5.55004
G1 X44.269 Y76.196 E5.57324
G1 X44.53 Y75.872 E5.59649
G1 X44.733 Y75.51 E5.61968
G1 X44.871 Y75.118 E5.6429
G1 X44.941 Y74.712 E5.66592
G1 X44.949 Y74.508 E5.67733
G1 X44.941 Y74.288 E5.68963
G1 X44.871 Y73.882 E5.71265
G1 X44.733 Y73.49 E5.73587
G1 X44.53 Y73.128 E5.75906
G1 X44.269 Y72.804 E5.78231
G1 X43.957 Y72.53 E5.80551
G1 X43.603 Y72.312 E5.82874
G1 X43.218 Y72.157 E5.85193
G1 X42.812 Y72.069 E5.87514
G1 X42.396 Y72.051 E5.89841
G1 X41.984 Y72.105 E5.92163
G1 X41.586 Y72.226 E5.94487
G1 X41.215 Y72.413 E5.96809
G1 X40.88 Y72.66 E5.99134
G1 X40.593 Y72.961 E6.01458
G1 X40.361 Y73.305 E6.03777
G1 X40.19 Y73.683 E6.06095
G1 X40.084 Y74.086 E6.08423
G1 X40.049 Y74.5 E6.10745
G1 X40.084 Y74.914 E6.13067
G1 X40.19 Y75.317 E6.15395
G1 X40.361 Y75.695 E6.17713
G1 X40.593 Y76.039 E6.20032
G1 X40.88 Y76.34 E6.22356
G1 X41.215 Y76.587 E6.24681
G1 X41.586 Y76.774 E6.27003
G1 X41.984 Y76.896 E6.29329
G1 X42.397 Y76.949 E6.31656
G1 X42.812 Y76.931 E6.33977
G1 X43.218 Y76.843 E6.36298
G1 X43.603 Y76.688 E6.38617
G0 F6000 X43.801 Y77.08
G1 F2700 E1.38617
G0 F6000 X42.888 Y77.519
G0 X42.702 Y76.071
G0 X43.162 Y94.094
G0 X41.543 Y98.154
G0 X43.843 Y127.4
G0 X44.026 Y127.812
G0 X45.5 Y185.333
G0 X46.363 Y184.155
G0 X46.878 Y185.511
G0 X46.908 Y185.885
G0 X46.916 Y186.867
;TYPE:WALL-INNER
G1 F2700 E6.38617
G1 F1200 X47.035 Y186.53 E6.40614
G1 X47.093 Y186.19 E6.42541
G1 X47.1 Y186 E6.43604
G1 X47.093 Y185.81 E6.44666
G1 X47.035 Y185.47 E6.46593
G1 X46.916 Y185.133 E6.4859
G1 X46.741 Y184.823 E6.50579
G1 X46.518 Y184.545 E6.52571
G1 X46.249 Y184.309 E6.5457
G1 X45.945 Y184.123 E6.56562
G1 X45.616 Y183.99 E6.58545
G1 X45.269 Y183.915 E6.60528
G1 X44.909 Y183.899 E6.62542
G1 X44.557 Y183.946 E6.64526
G1 X44.216 Y184.049 E6.66517
G1 X43.899 Y184.21 E6.68503
G1 X43.611 Y184.421 E6.70498
G1 X43.365 Y184.68 E6.72494
G1 X43.164 Y184.974 E6.74484
G1 X43.018 Y185.3 E6.7648
G1 X42.928 Y185.644 E6.78467
G1 X42.897 Y186 E6.80464
G1 X42.928 Y186.355 E6.82455
G1 X43.018 Y186.699 E6.84442
G1 X43.164 Y187.026 E6.86443
G1 X43.365 Y187.32 E6.88433
G1 X43.611 Y187.579 E6.90429
G1 X43.899 Y187.79 E6.92424
G1 X44.216 Y187.951 E6.9441
G1 X44.557 Y188.054 E6.96401
G1 X44.909 Y188.101 E6.98385
G1 X45.269 Y188.085 E7.00399
G1 X45.616 Y188.01 E7.02382
G1 X45.945 Y187.877 E7.04365
G1 X46.249 Y187.691 E7.06357
G1 X46.518 Y187.455 E7.08356
G1 X46.741 Y187.177 E7.10348
G1 X46.916 Y186.867 E7.12337
G0 F6000 X46.55 Y186.701
;TYPE:WALL-OUTER
G1 F1200 X46.646 Y186.429 E7.13949
G1 X46.694 Y186.148 E7.15541
G1 X46.7 Y186 E7.16369
G1 X46.694 Y185.852 E7.17197
G1 X46.646 Y185.571 E7.1879
G1 X46.55 Y185.299 E7.20401
G1 X46.409 Y185.048 E7.2201
G1 X46.228 Y184.823 E7.23624
G1 X46.011 Y184.632 E7.25239
G1 X45.765 Y184.482 E7.26849
G1 X45.498 Y184.374 E7.28458
G1 X45.217 Y184.313 E7.30065
G1 X44.927 Y184.3 E7.31687
G1 X44.642 Y184.338 E7.33294
G1 X44.366 Y184.422 E7.34906
G1 X44.109 Y184.552 E7.36515
G1 X43.876 Y184.723 E7.3813
G1 X43.677 Y184.932 E7.39742
G1 X43.515 Y185.17 E7.41351
G1 X43.397 Y185.433 E7.42962
G1 X43.324 Y185.712 E7.44573
G1 X43.299 Y186 E7.46189
G1 X43.324 Y186.287 E7.47798
G1 X43.397 Y186.566 E7.4941
G1 X43.515 Y186.83 E7.51026
G1 X43.677 Y187.068 E7.52634
G1 X43.876 Y187.277 E7.54247
G1 X44.109 Y187.448 E7.55862
G1 X44.366 Y187.578 E7.57471
G1 X44.642 Y187.662 E7.59083
G1 X44.927 Y187.7 E7.6069
G1 X45.217 Y187.687 E7.62312
G1 X45.498 Y187.626 E7.63918
G1 X45.765 Y187.518 E7.65528
G1 X46.011 Y187.368 E7.67138
G1 X46.228 Y187.177 E7.68753
G1 X46.409 Y186.952 E7.70367
G1 X46.55 Y186.701 E7.71975
G0 F6000 X46.95 Y186.882
G1 F2700 E2.71975
G0 F6000 X46.886 Y185.649
G0 X46.363 Y184.155
G0 X45.5 Y185.333
G0 X43.219 Y146.911
G0 X43.871 Y148.217
G0 X44.559 Y147.474
;TYPE:WALL-INNER
G1 F2700 E7.71975
G1 F1200 X44.863 Y147.097 E7.74681
G1 X45.099 Y146.675 E7.77383
G1 X45.259 Y146.219 E7.80083
G1 X45.34 Y145.755 E7.82715
G1 X45.35 Y145.5 E7.84141
G1 X45.34 Y145.245 E7.85567
G1 X45.259 Y144.781 E7.88199
G1 X45.099 Y144.325 E7.90899
G1 X44.863 Y143.903 E7.93601
G1 X44.559 Y143.526 E7.96307
G1 X44.196 Y143.207 E7.99007
G1 X43.784 Y142.954 E8.01709
G1 X43.336 Y142.773 E8.04409
G1 X42.863 Y142.671 E8.07113
G1 X42.38 Y142.65 E8.09814
G1 X41.899 Y142.712 E8.12524
G1 X41.436 Y142.854 E8.1523
G1 X41.005 Y143.071 E8.17926
G1 X40.615 Y143.359 E8.20635
G1 X40.28 Y143.708 E8.23338
G1 X40.01 Y144.11 E8.26044
G1 X39.812 Y144.549 E8.28735
G1 X39.688 Y145.018 E8.31446
G1 X39.648 Y145.5 E8.34148
G1 X39.688 Y145.982 E8.36851
G1 X39.812 Y146.451 E8.39562
G1 X40.01 Y146.891 E8.42258
G1 X40.28 Y147.291 E8.44954
G1 X40.615 Y147.641 E8.47662
G1 X41.005 Y147.929 E8.5037
G1 X41.437 Y148.147 E8.53074
G1 X41.899 Y148.287 E8.55772
G1 X42.379 Y148.35 E8.58477
G1 X42.863 Y148.329 E8.61184
G1 X43.336 Y148.227 E8.63888
G1 X43.784 Y148.046 E8.66587
G1 X44.196 Y147.793 E8.69289
G1 X44.559 Y147.474 E8.71989
G0 F6000 X44.269 Y147.196
;TYPE:WALL-OUTER
G1 F1200 X44.53 Y146.872 E8.74314
G1 X44.733 Y146.51 E8.76633
G1 X44.871 Y146.118 E8.78955
G1 X44.941 Y145.712 E8.81257
G1 X44.95 Y145.5 E8.82443
G1 X44.941 Y145.288 E8.83629
G1 X44.871 Y144.882 E8.85931
G1 X44.733 Y144.49 E8.88253
G1 X44.53 Y144.128 E8.90572
G1 X44.269 Y143.804 E8.92897
G1 X43.957 Y143.53 E8.95217
G1 X43.603 Y143.312 E8.9754
G1 X43.218 Y143.157 E8.99859
G1 X42.812 Y143.069 E9.0218
G1 X42.397 Y143.051 E9.04501
G1 X41.984 Y143.104 E9.06828
G1 X41.586 Y143.226 E9.09154
G1 X41.215 Y143.413 E9.11476
G1 X40.88 Y143.66 E9.13801
G1 X40.593 Y143.96 E9.16121
G1 X40.361 Y144.305 E9.18444
G1 X40.19 Y144.683 E9.20762
G1 X40.084 Y145.086 E9.23091
G1 X40.049 Y145.5 E9.25412
G1 X40.084 Y145.914 E9.27734
G1 X40.19 Y146.317 E9.30062
G1 X40.361 Y146.695 E9.32381
G1 X40.593 Y147.039 E9.34699
G1 X40.88 Y147.34 E9.37023
G1 X41.215 Y147.587 E9.39349
G1 X41.586 Y147.774 E9.4167
G1 X41.984 Y147.895 E9.43995
G1 X42.396 Y147.949 E9.46316
G1 X42.812 Y147.931 E9.48643
G1 X43.218 Y147.843 E9.50964
G1 X43.603 Y147.688 E9.53283
G1 X43.957 Y147.47 E9.55606
G1 X44.269 Y147.196 E9.57927
G0 F6000 X44.586 Y147.5
G1 F2700 E4.57927
G0 F6000 X45.273 Y146.754
G0 X43.94 Y146.16
G0 X60.6 Y144.157
G0 X59.934 Y145.457
G0 X65.812 Y147.511
G0 X71.831 Y148.955
G0 X78 Y149.442
G0 X84.169 Y148.955
G0 X90.238 Y147.664
;TYPE:WALL-INNER
G1 F2700 E9.57927
G1 F1200 X95.979 Y145.286 E9.92649
G1 X101.278 Y142.039 E10.27375
G1 X106.003 Y138.003 E10.62097
G1 X110.039 Y133.278 E10.9682
G1 X113.286 Y127.979 E11.31545
G1 X115.664 Y122.238 E11.66267
G1 X117.114 Y116.195 E12.00992
G1 X117.502 Y111.28 E12.28541
G1 X117.602 Y110 E12.35715
G1 X117.502 Y108.72 E12.4289
G1 X117.114 Y103.805 E12.70439
G1 X115.664 Y97.762 E13.05163
G1 X113.286 Y92.021 E13.39886
G1 X110.038 Y86.722 E13.74614
