;FLAVOR:Marlin
;TIME:5414
;Filament used: 4.93166m
;Layer height: 0.28
;MINX:76.336
;MINY:76.598
;MINZ:0.28
;MAXX:143.65
;MAXY:160.235
;MAXZ:11.76
;Generated with Cura_SteamEngine 4.5.0
M140 S70
M105
M190 S70
M104 S215
M105
M109 S215
M82 ;absolute extrusion mode
; Ender 3 Custom Start G-code
G92 E0 ; Reset Extruder
G28 ; Home all axes
G1 Z2.0 F3000 ; Move Z Axis up little to prevent scratching of Heat Bed
G1 X0.1 Y20 Z0.3 F5000.0 ; Move to start position
G1 X0.1 Y200.0 Z0.3 F1500.0 E15 ; Draw the first line
G1 X0.4 Y200.0 Z0.3 F5000.0 ; Move to side a little
G1 X0.4 Y20 Z0.3 F1500.0 E30 ; Draw the second line
G92 E0 ; Reset Extruder
G1 Z2.0 F3000 ; Move Z Axis up little to prevent scratching of Heat Bed
G1 X5 Y20 Z0.3 F5000.0 ; Move over to prevent blob squish
G92 E0
G92 E0
G1 F2700 E-5
;LAYER_COUNT:42
;LAYER:0
M107
G0 F6000 X80.623 Y158.008 Z0.28
;TYPE:SKIRT
G1 F2700 E0
G1 F1200 X80.706 Y157.971 E0.00508
G1 X80.925 Y157.971 E0.01731
G1 X81.009 Y158.008 E0.02244
G1 X80.623 Y158.008 E0.04401
G0 F6000 X80.449 Y157.647
G1 F1200 X80.62 Y157.571 E0.05447
G1 X81.011 Y157.571 E0.07632
G1 X81.184 Y157.647 E0.08687
G1 X81.586 Y157.732 E0.10983
G1 X83.695 Y157.732 E0.22768
G1 X83.695 Y158.409 E0.26551
G1 X78.161 Y158.407 E0.57473
G1 X78.161 Y157.733 E0.61239
G1 X80.043 Y157.733 E0.71755
G1 X80.449 Y157.647 E0.74074
G0 F6000 X80.286 Y157.281
G1 F1200 X80.534 Y157.171 E0.7559
G1 X81.096 Y157.171 E0.7873
G1 X81.345 Y157.281 E0.80251
G1 X81.586 Y157.332 E0.81628
G1 X83.94 Y157.332 E0.94781
G1 X84.095 Y157.33 E0.95648
G1 X84.095 Y158.65 E1.03023
G1 X84.115 Y158.815 E1.03952
G1 X84.018 Y158.81 E1.04495
G1 X78.003 Y158.807 E1.38105
G1 X77.942 Y158.801 E1.38447
G1 X77.859 Y158.761 E1.38962
G1 X77.802 Y158.698 E1.39437
G1 X77.765 Y158.591 E1.40069
G1 X77.761 Y157.595 E1.45635
G1 X77.767 Y157.541 E1.45938
G1 X77.792 Y157.454 E1.46444
G1 X77.826 Y157.408 E1.46764
G1 X77.876 Y157.37 E1.47115
G1 X77.926 Y157.346 E1.47425
G1 X78.02 Y157.333 E1.47955
G1 X80.043 Y157.333 E1.59259
G1 X80.286 Y157.281 E1.60647
G0 F6000 X80.124 Y156.916
G1 F1200 X80.451 Y156.771 E1.62646
G1 X81.01 Y156.771 E1.6577
G1 X81.18 Y156.772 E1.6672
G1 X81.506 Y156.915 E1.68709
G1 X81.586 Y156.932 E1.69166
G1 X84.175 Y156.929 E1.83632
G1 X84.495 Y156.882 E1.8544
G1 X84.495 Y158.65 E1.95319
G1 X84.562 Y159.031 E1.9748
G1 X84.579 Y159.081 E1.97775
G1 X84.681 Y159.293 E1.9909
G1 X84.246 Y159.224 E2.01551
G1 X83.995 Y159.209 E2.02956
G1 X77.979 Y159.207 E2.36572
G1 X77.85 Y159.193 E2.37297
G1 X77.743 Y159.151 E2.37939
G1 X77.643 Y159.101 E2.38564
G1 X77.552 Y159.026 E2.39223
G1 X77.464 Y158.915 E2.40014
G1 X77.412 Y158.813 E2.40654
G1 X77.369 Y158.664 E2.4152
G1 X77.361 Y158.57 E2.42047
G1 X77.361 Y157.572 E2.47624
G1 X77.374 Y157.463 E2.48237
G1 X77.418 Y157.308 E2.49138
G1 X77.455 Y157.234 E2.496
G1 X77.54 Y157.124 E2.50377
G1 X77.677 Y157.022 E2.51331
G1 X77.791 Y156.967 E2.52038
G1 X77.905 Y156.939 E2.52694
G1 X78.016 Y156.933 E2.53315
G1 X80.043 Y156.933 E2.64642
G1 X80.124 Y156.916 E2.65104
G1 F2700 E-2.34896
G0 F6000 X85.423 Y159.6
G0 X85.966 Y159.741
G0 X134.121 Y159.733
G0 X135.321 Y159.286
G1 F2700 E2.65104
G1 F1200 X135.438 Y159.035 E2.66652
G1 X135.455 Y158.979 E2.66979
G1 X135.504 Y158.65 E2.68837
G1 X135.506 Y156.883 E2.78711
G1 X135.733 Y156.919 E2.79995
G1 X135.996 Y156.933 E2.81467
G1 X142.021 Y156.936 E3.15133
G1 X142.175 Y156.958 E3.16002
G1 X142.327 Y157.024 E3.16928
G1 X142.4 Y157.075 E3.17425
G1 X142.454 Y157.123 E3.17829
G1 X142.534 Y157.219 E3.18527
G1 X142.595 Y157.341 E3.19289
G1 X142.626 Y157.446 E3.19901
G1 X142.639 Y157.568 E3.20587
G1 X142.639 Y158.558 E3.26119
G1 X142.627 Y158.686 E3.26837
G1 X142.596 Y158.801 E3.27502
G1 X142.544 Y158.901 E3.28132
G1 X142.45 Y159.026 E3.29006
G1 X142.338 Y159.114 E3.29802
G1 X142.222 Y159.172 E3.30527
G1 X142.092 Y159.203 E3.31274
G1 X142.034 Y159.209 E3.31599
G1 X135.816 Y159.212 E3.66344
G1 X135.321 Y159.286 E3.6914
G0 F6000 X135.884 Y158.811
G1 F1200 X135.899 Y158.709 E3.69716
G1 X135.906 Y158.621 E3.7021
G1 X135.906 Y157.329 E3.77429
G1 X135.976 Y157.332 E3.77821
G1 X141.99 Y157.336 E4.11425
G1 X142.071 Y157.348 E4.11882
G1 X142.13 Y157.373 E4.12241
G1 X142.198 Y157.44 E4.12774
G1 X142.233 Y157.53 E4.13314
G1 X142.239 Y157.583 E4.13612
G1 X142.239 Y158.535 E4.18931
G1 X142.232 Y158.611 E4.19358
G1 X142.205 Y158.686 E4.19803
G1 X142.16 Y158.746 E4.20222
G1 X142.084 Y158.793 E4.20721
G1 X142.023 Y158.808 E4.21072
G1 X135.884 Y158.811 E4.55375
G0 F6000 X136.306 Y157.733
G1 F1200 X141.839 Y157.736 E4.86292
G1 X141.839 Y158.409 E4.90053
G1 X136.306 Y158.41 E5.20969
G1 X136.306 Y157.733 E5.24752
G1 F2700 E0.24752
;MESH:pi support 2.STL
G0 F6000 X136.299 Y107.562
G0 X136.298 Y106.498
G0 X117.805 Y106.302
;TYPE:WALL-INNER
G1 F2700 E5.24752
G1 F1200 X78.293 Y106.303 E7.45533
G1 X78.094 Y106.303 E7.46645
G1 X78.094 Y106.104 E7.47365
G1 X78.094 Y105.498 E7.50751
G1 X80.269 Y105.493 E7.62904
G1 X84.022 Y105.492 E7.83875
G1 X84.327 Y105.47 E7.85584
G1 X84.648 Y105.393 E7.87428
G1 X84.953 Y105.266 E7.89274
G1 X85.233 Y105.093 E7.91113
G1 X85.482 Y104.881 E7.92941
G1 X85.696 Y104.631 E7.94779
G1 X85.87 Y104.349 E7.96631
G1 X85.995 Y104.044 E7.98473
G1 X86.071 Y103.725 E8.00305
G1 X86.095 Y103.422 E8.02004
G1 X86.094 Y77.498 E9.46859
G1 X104.146 Y77.493 E10.47728
G1 X133.707 Y77.492 E12.12906
G1 X133.906 Y77.492 E12.14018
G1 X133.906 Y77.691 E12.14738
G1 X133.906 Y103.42 E13.58504
G1 X133.928 Y103.724 E13.60207
G1 X134.005 Y104.044 E13.62046
G1 X134.13 Y104.349 E13.63888
G1 X134.304 Y104.631 E13.65739
G1 X134.518 Y104.881 E13.67578
G1 X134.767 Y105.093 E13.69406
G1 X135.047 Y105.266 E13.71245
G1 X135.352 Y105.393 E13.73091
G1 X135.673 Y105.469 E13.74934
G1 X135.976 Y105.493 E13.76632
G1 X141.707 Y105.492 E14.08656
G1 X141.906 Y105.492 E14.09767
G1 X141.906 Y105.691 E14.10487
G1 X141.906 Y106.298 E14.13879
G1 X117.805 Y106.302 E15.48548
G0 F6000 X117.805 Y106.702
;TYPE:WALL-OUTER
G1 F1200 X78.011 Y106.703 E17.70905
G1 X77.945 Y106.694 E17.71277
G1 X77.84 Y106.657 E17.71899
G1 X77.756 Y106.58 E17.72536
G1 X77.739 Y106.552 E17.72719
G1 X77.711 Y106.493 E17.73084
G1 X77.694 Y106.385 E17.73695
G1 X77.694 Y105.415 E17.79115
G1 X77.712 Y105.298 E17.79776
G1 X77.754 Y105.216 E17.80291
G1 X77.839 Y105.139 E17.80932
G1 X77.861 Y105.126 E17.81075
G1 X77.898 Y105.112 E17.81296
G1 X77.973 Y105.098 E17.81722
G1 X80.268 Y105.093 E17.94546
G1 X84.007 Y105.092 E18.15438
G1 X84.265 Y105.073 E18.16884
G1 X84.524 Y105.011 E18.18372
G1 X84.77 Y104.909 E18.1986
G1 X84.997 Y104.769 E18.2135
G1 X85.199 Y104.597 E18.22833
G1 X85.372 Y104.395 E18.24319
G1 X85.512 Y104.167 E18.25814
G1 X85.613 Y103.921 E18.273
G1 X85.675 Y103.662 E18.28788
G1 X85.695 Y103.406 E18.30223
G1 X85.694 Y77.415 E19.75453
G1 X85.712 Y77.298 E19.76114
G1 X85.754 Y77.216 E19.76629
G1 X85.839 Y77.139 E19.7727
G1 X85.861 Y77.126 E19.77412
G1 X85.898 Y77.112 E19.77634
G1 X85.973 Y77.098 E19.7806
G1 X104.146 Y77.093 E20.79605
G1 X133.989 Y77.092 E22.46359
G1 X134.051 Y77.1 E22.46708
G1 X134.16 Y77.139 E22.47355
G1 X134.244 Y77.216 E22.47992
G1 X134.259 Y77.241 E22.48155
G1 X134.288 Y77.301 E22.48527
G1 X134.306 Y77.416 E22.49178
G1 X134.306 Y103.405 E23.94396
G1 X134.325 Y103.662 E23.95836
G1 X134.387 Y103.921 E23.97324
G1 X134.488 Y104.167 E23.9881
G1 X134.628 Y104.395 E24.00305
G1 X134.801 Y104.597 E24.01791
G1 X135.003 Y104.769 E24.03274
G1 X135.23 Y104.909 E24.04764
G1 X135.476 Y105.011 E24.06252
G1 X135.735 Y105.073 E24.0774
G1 X135.992 Y105.093 E24.09181
G1 X141.989 Y105.092 E24.4269
G1 X142.051 Y105.1 E24.43039
G1 X142.16 Y105.139 E24.43686
G1 X142.244 Y105.216 E24.44323
G1 X142.259 Y105.241 E24.44486
G1 X142.288 Y105.301 E24.44858
G1 X142.306 Y105.416 E24.45509
G1 X142.306 Y106.381 E24.50901
G1 X142.289 Y106.494 E24.51539
G1 X142.246 Y106.58 E24.52077
G1 X142.161 Y106.657 E24.52718
G1 X142.139 Y106.67 E24.5286
G1 X142.102 Y106.684 E24.53081
G1 X142.027 Y106.698 E24.53508
G1 X117.805 Y106.702 E25.88853
G0 F6000 X117.805 Y106.262
G0 X117.805 Y105.912
;TYPE:SKIN
G1 F1200 X78.484 Y105.913 E28.08567
G1 X78.484 Y105.888 E28.08707
G1 X80.269 Y105.883 E28.18681
G1 X84.036 Y105.882 E28.3973
G1 X84.387 Y105.856 E28.41696
G1 X84.769 Y105.765 E28.43891
G1 X85.132 Y105.615 E28.46085
G1 X85.463 Y105.409 E28.48264
G1 X85.759 Y105.158 E28.50432
G1 X86.012 Y104.861 E28.52612
G1 X86.219 Y104.527 E28.54808
G1 X86.367 Y104.163 E28.57004
G1 X86.457 Y103.786 E28.59169
G1 X86.485 Y103.438 E28.6112
G1 X86.484 Y77.888 E30.03886
G1 X104.146 Y77.883 E31.02576
G1 X133.516 Y77.882 E32.66687
G1 X133.516 Y103.434 E34.09464
G1 X133.542 Y103.784 E34.11425
G1 X133.633 Y104.165 E34.13614
G1 X133.781 Y104.527 E34.15799
G1 X133.988 Y104.861 E34.17995
G1 X134.241 Y105.158 E34.20175
G1 X134.537 Y105.409 E34.22343
G1 X134.868 Y105.615 E34.24522
G1 X135.231 Y105.765 E34.26716
G1 X135.612 Y105.855 E34.28904
G1 X135.96 Y105.883 E34.30855
G1 X141.516 Y105.882 E34.619
G1 X141.516 Y105.908 E34.62045
G1 X117.805 Y105.912 E35.94535
G1 F2700 E30.94535
G0 F6000 X117.805 Y106.192
G0 X141.724 Y106.116
G0 X141.724 Y105.674
G0 X134.666 Y105.231
G0 X133.913 Y103.771
G0 X133.796 Y78.483
G0 X133.355 Y78.483
G1 F2700 E35.94535
G1 F1200 X132.914 Y78.042 E35.9802
G0 F6000 X132.348 Y78.042
G1 F1200 X133.355 Y79.049 E36.05978
G0 F6000 X133.355 Y79.615
G1 F1200 X131.782 Y78.042 E36.18408
G0 F6000 X131.217 Y78.042
G1 F1200 X133.355 Y80.18 E36.35303
G0 F6000 X133.355 Y80.746
G1 F1200 X130.651 Y78.042 E36.5667
G0 F6000 X130.085 Y78.042
G1 F1200 X133.355 Y81.312 E36.82511
G0 F6000 X133.355 Y81.878
G1 F1200 X129.52 Y78.042 E37.12819
G0 F6000 X128.954 Y78.042
G1 F1200 X133.355 Y82.443 E37.47597
G0 F6000 X133.355 Y83.009
G1 F1200 X128.388 Y78.042 E37.86847
G0 F6000 X127.822 Y78.042
G1 F1200 X133.355 Y83.575 E38.3057
G0 F6000 X133.355 Y84.14
G1 F1200 X127.257 Y78.042 E38.78758
G0 F6000 X126.691 Y78.042
G1 F1200 X133.355 Y84.706 E39.31418
G0 F6000 X133.355 Y85.272
G1 F1200 X126.125 Y78.042 E39.88551
G0 F6000 X125.56 Y78.042
G1 F1200 X133.355 Y85.837 E40.50149
G0 F6000 X133.355 Y86.403
G1 F1200 X124.994 Y78.042 E41.16219
G0 F6000 X124.428 Y78.042
G1 F1200 X133.355 Y86.969 E41.86762
G0 F6000 X133.355 Y87.534
G1 F1200 X123.863 Y78.042 E42.6177
G0 F6000 X123.297 Y78.042
G1 F1200 X133.355 Y88.1 E43.4125
G0 F6000 X133.355 Y88.666
G1 F1200 X122.731 Y78.042 E44.25203
G0 F6000 X122.166 Y78.042
G1 F1200 X133.355 Y89.231 E45.13621
G0 F6000 X133.355 Y89.797
G1 F1200 X121.6 Y78.042 E46.06511
G0 F6000 X121.034 Y78.042
G1 F1200 X133.355 Y90.363 E47.03874
G0 F6000 X133.355 Y90.928
G1 F1200 X120.469 Y78.042 E48.05702
G0 F6000 X119.903 Y78.042
G1 F1200 X133.355 Y91.494 E49.12003
G0 F6000 X133.355 Y92.06
G1 F1200 X119.337 Y78.042 E50.22776
G0 F6000 X118.772 Y78.042
G1 F1200 X133.355 Y92.626 E51.38018
G0 F6000 X133.355 Y93.191
G1 F1200 X118.207 Y78.043 E52.5772
G0 F6000 X117.641 Y78.043
G1 F1200 X133.355 Y93.757 E53.81896
G0 F6000 X133.355 Y94.323
G1 F1200 X117.075 Y78.043 E55.10543
G0 F6000 X116.509 Y78.043
G1 F1200 X133.355 Y94.888 E56.4366
G0 F6000 X133.355 Y95.454
G1 F1200 X115.944 Y78.043 E57.81245
G0 F6000 X115.378 Y78.043
G1 F1200 X133.355 Y96.02 E59.23303
G0 F6000 X133.355 Y96.585
G1 F1200 X114.812 Y78.043 E60.6983
G0 F6000 X114.247 Y78.043
G1 F1200 X133.355 Y97.151 E62.20825
G0 F6000 X133.355 Y97.717
G1 F1200 X113.681 Y78.043 E63.76293
G0 F6000 X113.115 Y78.043
G1 F1200 X133.355 Y98.282 E65.3623
G0 F6000 X133.355 Y98.848
G1 F1200 X112.55 Y78.043 E67.00635
G0 F6000 X111.984 Y78.043
G1 F1200 X133.355 Y99.414 E68.69513
G0 F6000 X133.355 Y99.979
G1 F1200 X111.418 Y78.043 E70.4286
G0 F6000 X110.853 Y78.043
G1 F1200 X133.355 Y100.545 E72.20675
G0 F6000 X133.355 Y101.111
G1 F1200 X110.287 Y78.043 E74.02963
G0 F6000 X109.721 Y78.043
G1 F1200 X133.355 Y101.677 E75.89724
G0 F6000 X133.355 Y102.242
G1 F1200 X109.156 Y78.043 E77.8095
G0 F6000 X108.59 Y78.043
G1 F1200 X133.355 Y102.808 E79.76648
G0 F6000 X133.355 Y103.374
G1 F1200 X108.024 Y78.043 E81.76818
G0 F6000 X107.459 Y78.043
G1 F1200 X133.433 Y104.017 E83.8207
G0 F6000 X133.861 Y103.915
G0 X135.299 Y105.555
G0 X141.724 Y105.674
G0 X141.724 Y106.116
G0 X133.467 Y106.19
G0 X133.467 Y105.748
G1 F1200 X105.761 Y78.043 E86.01005
G0 F6000 X105.196 Y78.043
G1 F1200 X132.901 Y105.748 E88.19935
G0 F6000 X132.335 Y105.748
G1 F1200 X104.63 Y78.043 E90.38866
G0 F6000 X104.065 Y78.044
G1 F1200 X131.77 Y105.748 E92.57793
G0 F6000 X131.205 Y105.749
G1 F1200 X103.499 Y78.044 E94.76727
G0 F6000 X102.934 Y78.044
G1 F1200 X130.639 Y105.749 E96.95658
G0 F6000 X130.073 Y105.749
G1 F1200 X102.368 Y78.044 E99.14588
G0 F6000 X101.802 Y78.044
G1 F1200 X129.508 Y105.749 E101.33523
G0 F6000 X128.942 Y105.749
G1 F1200 X101.237 Y78.044 E103.52454
G0 F6000 X100.672 Y78.044
G1 F1200 X128.376 Y105.749 E105.7138
G0 F6000 X127.811 Y105.749
G1 F1200 X100.106 Y78.044 E107.90311
G0 F6000 X99.54 Y78.044
G1 F1200 X127.245 Y105.749 E110.09241
G0 F6000 X126.68 Y105.749
G1 F1200 X98.975 Y78.044 E112.28172
G0 F6000 X98.409 Y78.044
G1 F1200 X126.114 Y105.749 E114.47103
G0 F6000 X125.548 Y105.749
G1 F1200 X97.844 Y78.045 E116.66025
G0 F6000 X97.278 Y78.045
G1 F1200 X124.983 Y105.749 E118.84952
G0 F6000 X124.418 Y105.75
G1 F1200 X96.713 Y78.045 E121.03882
G0 F6000 X96.147 Y78.045
G1 F1200 X123.852 Y105.75 E123.22813
G0 F6000 X123.286 Y105.75
G1 F1200 X95.581 Y78.045 E125.41744
G0 F6000 X95.016 Y78.046
G1 F1200 X122.721 Y105.75 E127.6067
G0 F6000 X122.155 Y105.75
G1 F1200 X94.451 Y78.046 E129.79593
G0 F6000 X93.885 Y78.046
G1 F1200 X121.589 Y105.75 E131.98516
G0 F6000 X121.024 Y105.751
G1 F1200 X93.319 Y78.046 E134.17446
G0 F6000 X92.754 Y78.046
G1 F1200 X120.459 Y105.751 E136.36377
G0 F6000 X119.893 Y105.751
G1 F1200 X92.189 Y78.046 E138.55303
G0 F6000 X91.623 Y78.046
G1 F1200 X119.327 Y105.751 E140.7423
G0 F6000 X118.762 Y105.751
G1 F1200 X91.057 Y78.046 E142.93161
G0 F6000 X90.491 Y78.046
G1 F1200 X118.196 Y105.751 E145.12091
G0 F6000 X117.631 Y105.752
G1 F1200 X89.926 Y78.046 E147.31026
G0 F6000 X89.361 Y78.047
G1 F1200 X117.065 Y105.752 E149.49952
G0 F6000 X116.5 Y105.752
G1 F1200 X88.795 Y78.047 E151.68883
G0 F6000 X88.229 Y78.047
G1 F1200 X115.934 Y105.752 E153.87814
G0 F6000 X115.368 Y105.752
G1 F1200 X87.664 Y78.047 E156.0674
G0 F6000 X87.098 Y78.047
G1 F1200 X114.803 Y105.752 E158.25671
G0 F6000 X114.237 Y105.752
G1 F1200 X86.643 Y78.157 E160.43728
G0 F6000 X86.643 Y78.723
G1 F1200 X113.671 Y105.752 E162.57313
G0 F6000 X113.105 Y105.752
G1 F1200 X86.643 Y79.289 E164.66425
G0 F6000 X86.643 Y79.854
G1 F1200 X112.54 Y105.752 E166.71072
G0 F6000 X111.974 Y105.752
G1 F1200 X86.643 Y80.42 E168.71247
G0 F6000 X86.643 Y80.986
G1 F1200 X111.408 Y105.752 E170.66949
G0 F6000 X110.843 Y105.752
G1 F1200 X86.643 Y81.552 E172.58182
G0 F6000 X86.643 Y82.117
G1 F1200 X110.277 Y105.752 E174.44947
G0 F6000 X109.711 Y105.752
G1 F1200 X86.643 Y82.683 E176.27239
G0 F6000 X86.643 Y83.249
G1 F1200 X109.146 Y105.752 E178.05062
G0 F6000 X108.58 Y105.752
G1 F1200 X86.643 Y83.814 E179.78417
G0 F6000 X86.643 Y84.38
G1 F1200 X108.014 Y105.752 E181.47299
G0 F6000 X107.449 Y105.752
G1 F1200 X86.643 Y84.946 E183.11712
G0 F6000 X86.643 Y85.511
G1 F1200 X106.883 Y105.752 E184.71657
G0 F6000 X106.317 Y105.752
G1 F1200 X86.643 Y86.077 E186.27129
G0 F6000 X86.643 Y86.643
G1 F1200 X105.752 Y105.752 E187.78132
G0 F6000 X105.186 Y105.752
G1 F1200 X86.643 Y87.209 E189.24663
G0 F6000 X86.643 Y87.775
G1 F1200 X104.62 Y105.752 E190.66721
G0 F6000 X104.055 Y105.752
G1 F1200 X86.643 Y88.34 E192.04314
G0 F6000 X86.643 Y88.906
G1 F1200 X103.489 Y105.752 E193.37434
G0 F6000 X102.923 Y105.752
G1 F1200 X86.643 Y89.472 E194.66082
G0 F6000 X86.643 Y90.038
G1 F1200 X102.357 Y105.752 E195.90258
G0 F6000 X101.792 Y105.752
G1 F1200 X86.643 Y90.603 E197.09968
G0 F6000 X86.643 Y91.169
G1 F1200 X101.226 Y105.752 E198.25206
G0 F6000 X100.66 Y105.752
G1 F1200 X86.643 Y91.735 E199.35971
G0 F6000 X86.643 Y92.3
G1 F1200 X100.095 Y105.752 E200.42272
G0 F6000 X99.529 Y105.752
G1 F1200 X86.643 Y92.866 E201.44099
G0 F6000 X86.643 Y93.432
G1 F1200 X98.963 Y105.752 E202.41455
G0 F6000 X98.398 Y105.752
G1 F1200 X86.643 Y93.997 E203.34345
G0 F6000 X86.643 Y94.563
