;FLAVOR:Marlin
;TIME:35792
;Filament used: 40.1287m
;Layer height: 0.28
;MINX:11.197
;MINY:29.335
;MINZ:0.28
;MAXX:208.803
;MAXY:190.665
;MAXZ:14
;Generated with Cura_SteamEngine 4.5.0
M140 S70
M105
M190 S70
M104 S215
M105
M109 S215
M82 ;absolute extrusion mode
; Ender 3 Custom Start G-code
G92 E0 ; Reset Extruder
G28 ; Home all axes
G1 Z2.0 F3000 ; Move Z Axis up little to prevent scratching of Heat Bed
G1 X0.1 Y20 Z0.3 F5000.0 ; Move to start position
G1 X0.1 Y200.0 Z0.3 F1500.0 E15 ; Draw the first line
G1 X0.4 Y200.0 Z0.3 F5000.0 ; Move to side a little
G1 X0.4 Y20 Z0.3 F1500.0 E30 ; Draw the second line
G92 E0 ; Reset Extruder
G1 Z2.0 F3000 ; Move Z Axis up little to prevent scratching of Heat Bed
G1 X5 Y20 Z0.3 F5000.0 ; Move over to prevent blob squish
G92 E0
G92 E0
G1 F2700 E-5
;LAYER_COUNT:50
;LAYER:0
M107
;MESH:carena_top_rev_2.STL
G0 F6000 X46.433 Y186.867 Z0.28
;TYPE:WALL-INNER
G1 F2700 E0
G1 F1200 X46.551 Y186.528 E0.02006
G1 X46.608 Y186.192 E0.0391
G1 X46.617 Y186 E0.04984
G1 X46.608 Y185.808 E0.06058
G1 X46.551 Y185.472 E0.07962
G1 X46.433 Y185.133 E0.09968
G1 X46.257 Y184.823 E0.1196
G1 X46.036 Y184.546 E0.1394
G1 X45.766 Y184.309 E0.15947
G1 X45.462 Y184.123 E0.17939
G1 X45.133 Y183.99 E0.19922
G1 X44.785 Y183.915 E0.21911
G1 X44.426 Y183.899 E0.23919
G1 X44.074 Y183.946 E0.25903
G1 X43.733 Y184.049 E0.27894
G1 X43.415 Y184.21 E0.29885
G1 X43.127 Y184.422 E0.31883
G1 X42.882 Y184.68 E0.33872
G1 X42.682 Y184.974 E0.35858
G1 X42.535 Y185.299 E0.37852
G1 X42.444 Y185.644 E0.39845
G1 X42.415 Y186 E0.41841
G1 X42.444 Y186.355 E0.43831
G1 X42.535 Y186.701 E0.4583
G1 X42.682 Y187.026 E0.47824
G1 X42.882 Y187.32 E0.4981
G1 X43.127 Y187.578 E0.51798
G1 X43.415 Y187.79 E0.53797
G1 X43.733 Y187.951 E0.55788
G1 X44.074 Y188.054 E0.57779
G1 X44.426 Y188.101 E0.59763
G1 X44.785 Y188.085 E0.61771
G1 X45.133 Y188.01 E0.6376
G1 X45.462 Y187.877 E0.65743
G1 X45.766 Y187.691 E0.67735
G1 X46.036 Y187.454 E0.69742
G1 X46.257 Y187.177 E0.71722
G1 X46.433 Y186.867 E0.73714
G0 F6000 X46.067 Y186.701
;TYPE:WALL-OUTER
G1 F1200 X46.162 Y186.428 E0.75329
G1 X46.21 Y186.149 E0.76911
G1 X46.217 Y186 E0.77744
G1 X46.21 Y185.851 E0.78578
G1 X46.162 Y185.572 E0.8016
G1 X46.067 Y185.299 E0.81775
G1 X45.925 Y185.048 E0.83386
G1 X45.745 Y184.823 E0.84996
G1 X45.528 Y184.632 E0.86612
G1 X45.282 Y184.482 E0.88222
G1 X45.015 Y184.374 E0.89831
G1 X44.733 Y184.313 E0.91443
G1 X44.444 Y184.3 E0.9306
G1 X44.159 Y184.338 E0.94666
G1 X43.882 Y184.422 E0.96284
G1 X43.625 Y184.552 E0.97893
G1 X43.393 Y184.723 E0.99503
G1 X43.194 Y184.932 E1.01116
G1 X43.032 Y185.17 E1.02725
G1 X42.913 Y185.433 E1.04338
G1 X42.84 Y185.712 E1.05949
G1 X42.816 Y186 E1.07564
G1 X42.84 Y186.287 E1.09173
G1 X42.913 Y186.567 E1.1079
G1 X43.032 Y186.83 E1.12403
G1 X43.194 Y187.068 E1.14012
G1 X43.393 Y187.277 E1.15624
G1 X43.625 Y187.448 E1.17235
G1 X43.882 Y187.578 E1.18844
G1 X44.159 Y187.662 E1.20461
G1 X44.444 Y187.7 E1.22068
G1 X44.733 Y187.687 E1.23684
G1 X45.015 Y187.626 E1.25297
G1 X45.282 Y187.518 E1.26906
G1 X45.528 Y187.368 E1.28516
G1 X45.745 Y187.177 E1.30131
G1 X45.925 Y186.952 E1.31741
G1 X46.067 Y186.701 E1.33353
G0 F6000 X46.467 Y186.882
G1 F2700 E-3.66647
G0 F6000 X46.409 Y185.774
G0 X46.175 Y184.413
G0 X45.015 Y185.332
G0 X44.485 Y34.833
G0 X44.417 Y36.293
G0 X45.133 Y36.01
;TYPE:WALL-INNER
G1 F2700 E1.33353
G1 F1200 X45.462 Y35.877 E1.35336
G1 X45.766 Y35.691 E1.37327
G1 X46.036 Y35.454 E1.39334
G1 X46.257 Y35.177 E1.41315
G1 X46.433 Y34.867 E1.43306
G1 X46.551 Y34.528 E1.45312
G1 X46.609 Y34.19 E1.47228
G1 X46.616 Y34.002 E1.4828
G1 X46.609 Y33.81 E1.49353
G1 X46.551 Y33.472 E1.51269
G1 X46.433 Y33.133 E1.53275
G1 X46.257 Y32.823 E1.55267
G1 X46.036 Y32.546 E1.57247
G1 X45.766 Y32.309 E1.59254
G1 X45.462 Y32.123 E1.61246
G1 X45.133 Y31.99 E1.63229
G1 X44.785 Y31.915 E1.65218
G1 X44.426 Y31.899 E1.67226
G1 X44.074 Y31.946 E1.6921
G1 X43.733 Y32.049 E1.71201
G1 X43.415 Y32.21 E1.73192
G1 X43.127 Y32.422 E1.75191
G1 X42.882 Y32.68 E1.77179
G1 X42.682 Y32.974 E1.79165
G1 X42.535 Y33.299 E1.81159
G1 X42.444 Y33.645 E1.83158
G1 X42.415 Y34 E1.85148
G1 X42.444 Y34.356 E1.87144
G1 X42.535 Y34.701 E1.89137
G1 X42.682 Y35.026 E1.91131
G1 X42.882 Y35.32 E1.93117
G1 X43.127 Y35.578 E1.95105
G1 X43.415 Y35.79 E1.97104
G1 X43.733 Y35.951 E1.99095
G1 X44.074 Y36.054 E2.01086
G1 X44.426 Y36.101 E2.0307
G1 X44.785 Y36.085 E2.05078
G1 X45.133 Y36.01 E2.07067
G0 F6000 X45.015 Y35.626
;TYPE:WALL-OUTER
G1 F1200 X45.282 Y35.518 E2.08677
G1 X45.528 Y35.368 E2.10287
G1 X45.745 Y35.177 E2.11902
G1 X45.925 Y34.952 E2.13512
G1 X46.067 Y34.701 E2.15123
G1 X46.162 Y34.428 E2.16738
G1 X46.21 Y34.148 E2.18326
G1 X46.216 Y34.002 E2.19142
G1 X46.21 Y33.852 E2.19981
G1 X46.162 Y33.572 E2.21569
G1 X46.067 Y33.299 E2.23184
G1 X45.925 Y33.048 E2.24795
G1 X45.745 Y32.823 E2.26405
G1 X45.528 Y32.632 E2.28021
G1 X45.282 Y32.482 E2.2963
G1 X45.015 Y32.374 E2.3124
G1 X44.733 Y32.313 E2.32852
G1 X44.444 Y32.3 E2.34468
G1 X44.159 Y32.338 E2.36075
G1 X43.882 Y32.422 E2.37692
G1 X43.625 Y32.552 E2.39302
G1 X43.393 Y32.723 E2.40912
G1 X43.194 Y32.932 E2.42525
G1 X43.032 Y33.17 E2.44133
G1 X42.913 Y33.433 E2.45746
G1 X42.84 Y33.713 E2.47363
G1 X42.816 Y34 E2.48973
G1 X42.84 Y34.288 E2.50587
G1 X42.913 Y34.567 E2.52199
G1 X43.032 Y34.83 E2.53812
G1 X43.194 Y35.068 E2.55421
G1 X43.393 Y35.277 E2.57033
G1 X43.625 Y35.448 E2.58644
G1 X43.882 Y35.578 E2.60253
G1 X44.159 Y35.662 E2.6187
G1 X44.444 Y35.7 E2.63477
G1 X44.733 Y35.687 E2.65093
G1 X45.015 Y35.626 E2.66705
G0 F6000 X45.144 Y36.046
G1 F2700 E-2.33295
G0 F6000 X45.88 Y35.845
G0 X45.12 Y34.576
G0 X174.754 Y34.405
G0 X173.482 Y35.12
G0 X174.699 Y35.951
;TYPE:WALL-INNER
G1 F2700 E2.66705
G1 F1200 X175.04 Y36.054 E2.68696
G1 X175.394 Y36.101 E2.70691
G1 X175.752 Y36.085 E2.72694
G1 X176.1 Y36.01 E2.74683
G1 X176.43 Y35.876 E2.76673
G1 X176.732 Y35.69 E2.78655
G1 X177.001 Y35.455 E2.80651
G1 X177.224 Y35.177 E2.82642
G1 X177.399 Y34.867 E2.84631
G1 X177.518 Y34.53 E2.86628
G1 X177.576 Y34.19 E2.88556
G1 X177.583 Y34 E2.89618
G1 X177.576 Y33.81 E2.9068
G1 X177.518 Y33.47 E2.92608
G1 X177.399 Y33.133 E2.94605
G1 X177.224 Y32.823 E2.96594
G1 X177.001 Y32.545 E2.98585
G1 X176.732 Y32.31 E3.00581
G1 X176.43 Y32.124 E3.02563
G1 X176.1 Y31.99 E3.04553
G1 X175.752 Y31.915 E3.06542
G1 X175.394 Y31.899 E3.08545
G1 X175.04 Y31.946 E3.1054
G1 X174.699 Y32.049 E3.1253
G1 X174.382 Y32.21 E3.14517
G1 X174.094 Y32.421 E3.16512
G1 X173.847 Y32.68 E3.18512
G1 X173.649 Y32.974 E3.20492
G1 X173.502 Y33.299 E3.22486
G1 X173.411 Y33.645 E3.24485
G1 X173.38 Y34 E3.26476
G1 X173.411 Y34.356 E3.28473
G1 X173.502 Y34.701 E3.30466
G1 X173.649 Y35.026 E3.32459
G1 X173.847 Y35.32 E3.3444
G1 X174.094 Y35.579 E3.3644
G1 X174.382 Y35.79 E3.38435
G1 X174.699 Y35.951 E3.40421
G0 F6000 X174.849 Y35.578
;TYPE:WALL-OUTER
G1 F1200 X175.125 Y35.662 E3.42034
G1 X175.411 Y35.7 E3.43646
G1 X175.7 Y35.687 E3.45262
G1 X175.982 Y35.626 E3.46874
G1 X176.249 Y35.518 E3.48484
G1 X176.494 Y35.367 E3.50092
G1 X176.711 Y35.177 E3.51703
G1 X176.892 Y34.952 E3.53317
G1 X177.033 Y34.701 E3.54926
G1 X177.129 Y34.429 E3.56537
G1 X177.177 Y34.148 E3.5813
G1 X177.183 Y34 E3.58958
G1 X177.177 Y33.852 E3.59786
G1 X177.129 Y33.571 E3.61378
G1 X177.033 Y33.299 E3.6299
G1 X176.892 Y33.048 E3.64599
G1 X176.711 Y32.823 E3.66212
G1 X176.494 Y32.633 E3.67824
G1 X176.249 Y32.482 E3.69432
G1 X175.982 Y32.374 E3.71041
G1 X175.7 Y32.313 E3.72654
G1 X175.411 Y32.3 E3.7427
G1 X175.125 Y32.338 E3.75882
G1 X174.849 Y32.422 E3.77494
G1 X174.592 Y32.552 E3.79104
G1 X174.359 Y32.723 E3.80719
G1 X174.16 Y32.932 E3.82331
G1 X173.999 Y33.17 E3.83937
G1 X173.88 Y33.433 E3.8555
G1 X173.807 Y33.713 E3.87166
G1 X173.782 Y34 E3.88776
G1 X173.807 Y34.288 E3.90392
G1 X173.88 Y34.567 E3.92003
G1 X173.999 Y34.83 E3.93616
G1 X174.16 Y35.068 E3.95222
G1 X174.359 Y35.277 E3.96834
G1 X174.592 Y35.448 E3.98449
G1 X174.849 Y35.578 E4.00058
G0 F6000 X174.686 Y35.986
G1 F2700 E-0.99942
G0 F6000 X175.385 Y36.293
G0 X175.452 Y34.833
G0 X177.166 Y72.953
G0 X176.859 Y71.526
G0 X175.721 Y72.479
G0 X175.152 Y73.188
G0 X174.847 Y74.046
G0 X174.847 Y74.954
G0 X175.152 Y75.812
G0 X175.612 Y76.386
G0 X176.436 Y77.146
;TYPE:WALL-INNER
G1 F2700 E4.00058
G1 F1200 X176.899 Y77.288 E4.02764
G1 X177.38 Y77.35 E4.05474
G1 X177.863 Y77.329 E4.08176
G1 X178.336 Y77.227 E4.10879
G1 X178.784 Y77.046 E4.13579
G1 X179.196 Y76.793 E4.16281
G1 X179.559 Y76.474 E4.18981
G1 X179.863 Y76.097 E4.21687
G1 X180.099 Y75.675 E4.24389
G1 X180.259 Y75.219 E4.27089
G1 X180.34 Y74.755 E4.29721
G1 X180.35 Y74.5 E4.31147
G1 X180.34 Y74.245 E4.32573
G1 X180.259 Y73.781 E4.35205
G1 X180.099 Y73.325 E4.37905
G1 X179.863 Y72.903 E4.40607
G1 X179.559 Y72.526 E4.43313
G1 X179.196 Y72.207 E4.46013
G1 X178.784 Y71.954 E4.48715
G1 X178.336 Y71.773 E4.51415
G1 X177.863 Y71.671 E4.54118
G1 X177.379 Y71.65 E4.56825
G1 X176.899 Y71.713 E4.59531
G1 X176.437 Y71.853 E4.62228
G1 X176.005 Y72.071 E4.64932
G1 X175.615 Y72.359 E4.67641
G1 X175.28 Y72.709 E4.70348
G1 X175.01 Y73.109 E4.73045
G1 X174.812 Y73.549 E4.75741
G1 X174.688 Y74.018 E4.78451
G1 X174.648 Y74.5 E4.81154
G1 X174.688 Y74.982 E4.83856
G1 X174.812 Y75.451 E4.86567
G1 X175.01 Y75.89 E4.89258
G1 X175.28 Y76.292 E4.91964
G1 X175.615 Y76.641 E4.94667
G1 X176.005 Y76.929 E4.97376
G1 X176.436 Y77.146 E5.00072
G0 F6000 X176.586 Y76.774
;TYPE:WALL-OUTER
G1 F1200 X176.984 Y76.896 E5.02398
G1 X177.397 Y76.949 E5.04725
G1 X177.812 Y76.931 E5.07046
G1 X178.218 Y76.843 E5.09367
G1 X178.603 Y76.688 E5.11686
G1 X178.957 Y76.47 E5.14009
G1 X179.269 Y76.196 E5.1633
G1 X179.53 Y75.872 E5.18654
G1 X179.733 Y75.51 E5.20974
G1 X179.871 Y75.118 E5.23296
G1 X179.941 Y74.712 E5.25598
G1 X179.95 Y74.5 E5.26783
G1 X179.941 Y74.288 E5.27969
G1 X179.871 Y73.882 E5.30271
G1 X179.733 Y73.49 E5.32593
G1 X179.53 Y73.128 E5.34912
G1 X179.269 Y72.804 E5.37237
G1 X178.957 Y72.53 E5.39557
G1 X178.603 Y72.312 E5.4188
G1 X178.218 Y72.157 E5.44199
G1 X177.812 Y72.069 E5.46521
G1 X177.396 Y72.051 E5.48847
G1 X176.984 Y72.105 E5.51169
G1 X176.586 Y72.226 E5.53494
G1 X176.215 Y72.413 E5.55815
G1 X175.88 Y72.66 E5.58141
G1 X175.593 Y72.961 E5.60465
G1 X175.361 Y73.305 E5.62783
G1 X175.19 Y73.683 E5.65101
G1 X175.084 Y74.086 E5.6743
G1 X175.049 Y74.5 E5.69751
G1 X175.084 Y74.914 E5.72073
G1 X175.19 Y75.317 E5.74401
G1 X175.361 Y75.695 E5.7672
G1 X175.593 Y76.04 E5.79043
G1 X175.88 Y76.34 E5.81363
G1 X176.215 Y76.587 E5.83688
G1 X176.586 Y76.774 E5.8601
G0 F6000 X176.422 Y77.182
G1 F2700 E0.8601
G0 F6000 X175.489 Y76.784
G0 X176.452 Y75.686
G0 X159.111 Y75.663
G0 X153.851 Y73.545
G0 X130.149 Y73.545
G0 X124.996 Y75.618
G0 X107.643 Y75.596
G0 X108.697 Y76.607
G0 X106.38 Y77.35
;TYPE:WALL-INNER
G1 F2700 E5.8601
G1 F1200 X106.863 Y77.329 E5.88711
G1 X107.336 Y77.227 E5.91415
G1 X107.784 Y77.046 E5.94115
G1 X108.196 Y76.793 E5.96816
G1 X108.559 Y76.474 E5.99517
G1 X108.863 Y76.097 E6.02223
G1 X109.099 Y75.675 E6.04924
G1 X109.259 Y75.219 E6.07625
G1 X109.34 Y74.754 E6.10262
G1 X109.349 Y74.509 E6.11632
G1 X109.34 Y74.247 E6.13097
G1 X109.259 Y73.781 E6.1574
G1 X109.099 Y73.325 E6.1844
G1 X108.863 Y72.903 E6.21142
G1 X108.559 Y72.526 E6.23848
G1 X108.196 Y72.207 E6.26548
G1 X107.784 Y71.954 E6.2925
G1 X107.336 Y71.773 E6.3195
G1 X106.863 Y71.671 E6.34653
G1 X106.379 Y71.65 E6.3736
G1 X105.899 Y71.713 E6.40065
G1 X105.437 Y71.853 E6.42763
G1 X105.005 Y72.071 E6.45467
G1 X104.615 Y72.359 E6.48176
G1 X104.28 Y72.709 E6.50883
G1 X104.01 Y73.109 E6.53579
G1 X103.812 Y73.549 E6.56275
G1 X103.688 Y74.018 E6.58986
G1 X103.648 Y74.5 E6.61689
G1 X103.688 Y74.982 E6.64391
G1 X103.812 Y75.451 E6.67102
G1 X104.01 Y75.89 E6.69793
G1 X104.28 Y76.292 E6.72499
G1 X104.615 Y76.641 E6.75202
G1 X105.005 Y76.929 E6.77911
G1 X105.436 Y77.146 E6.80607
G1 X105.899 Y77.288 E6.83313
G1 X106.38 Y77.35 E6.86023
G0 F6000 X106.397 Y76.949
;TYPE:WALL-OUTER
G1 F1200 X106.812 Y76.931 E6.88344
G1 X107.218 Y76.843 E6.90665
G1 X107.603 Y76.688 E6.92985
G1 X107.957 Y76.47 E6.95308
G1 X108.269 Y76.196 E6.97628
G1 X108.53 Y75.872 E6.99953
G1 X108.733 Y75.51 E7.02272
G1 X108.871 Y75.118 E7.04594
G1 X108.941 Y74.712 E7.06896
G1 X108.949 Y74.508 E7.08037
G1 X108.941 Y74.288 E7.09267
G1 X108.871 Y73.882 E7.11569
G1 X108.733 Y73.49 E7.13891
G1 X108.53 Y73.128 E7.1621
G1 X108.269 Y72.804 E7.18535
G1 X107.957 Y72.53 E7.20855
G1 X107.603 Y72.312 E7.23178
G1 X107.218 Y72.157 E7.25497
G1 X106.812 Y72.069 E7.27818
G1 X106.396 Y72.051 E7.30145
G1 X105.984 Y72.105 E7.32467
G1 X105.586 Y72.226 E7.34791
G1 X105.215 Y72.413 E7.37113
G1 X104.88 Y72.66 E7.39438
G1 X104.593 Y72.961 E7.41762
G1 X104.361 Y73.305 E7.44081
G1 X104.19 Y73.683 E7.46399
G1 X104.084 Y74.086 E7.48727
G1 X104.049 Y74.5 E7.51049
G1 X104.084 Y74.914 E7.53371
G1 X104.19 Y75.317 E7.55699
G1 X104.361 Y75.695 E7.58017
G1 X104.593 Y76.04 E7.6034
G1 X104.88 Y76.34 E7.6266
G1 X105.215 Y76.587 E7.64986
G1 X105.586 Y76.774 E7.67307
G1 X105.984 Y76.896 E7.69633
G1 X106.397 Y76.949 E7.7196
G0 F6000 X106.379 Y77.388
G1 F2700 E2.7196
G0 F6000 X105.364 Y77.324
G0 X105.906 Y75.968
G0 X69.508 Y89.761
G0 X70.921 Y90.129
G0 X69.317 Y91.561
;TYPE:WALL-INNER
G1 F2700 E7.7196
G1 F1200 X69.646 Y91.428 E7.73943
G1 X69.95 Y91.242 E7.75934
G1 X70.219 Y91.006 E7.77934
G1 X70.442 Y90.728 E7.79925
G1 X70.617 Y90.418 E7.81914
G1 X70.736 Y90.081 E7.83911
G1 X70.794 Y89.739 E7.8585
G1 X70.8 Y89.556 E7.86873
G1 X70.794 Y89.364 E7.87946
G1 X70.736 Y89.021 E7.8989
G1 X70.617 Y88.684 E7.91887
G1 X70.442 Y88.374 E7.93876
G1 X70.219 Y88.096 E7.95867
G1 X69.951 Y87.861 E7.97859
G1 X69.647 Y87.674 E7.99853
G1 X69.317 Y87.541 E8.01842
G1 X68.969 Y87.466 E8.03831
G1 X68.612 Y87.45 E8.05828
G1 X68.258 Y87.496 E8.07822
G1 X67.917 Y87.601 E8.09816
G1 X67.598 Y87.761 E8.1181
G1 X67.313 Y87.973 E8.13795
G1 X67.066 Y88.229 E8.15782
G1 X66.865 Y88.525 E8.17782
G1 X66.72 Y88.85 E8.1977
G1 X66.628 Y89.195 E8.21765
G1 X66.599 Y89.551 E8.23761
G1 X66.628 Y89.906 E8.25751
G1 X66.72 Y90.252 E8.27752
G1 X66.865 Y90.576 E8.29735
G1 X67.065 Y90.871 E8.31727
G1 X67.311 Y91.129 E8.33719
G1 X67.599 Y91.341 E8.35717
G1 X67.918 Y91.502 E8.37714
G1 X68.259 Y91.606 E8.39706
G1 X68.61 Y91.65 E8.41682
G1 X68.966 Y91.636 E8.43673
G1 X69.317 Y91.561 E8.45679
G0 F6000 X69.199 Y91.177
;TYPE:WALL-OUTER
G1 F1200 X69.466 Y91.069 E8.47288
G1 X69.712 Y90.919 E8.48898
G1 X69.929 Y90.728 E8.50513
G1 X70.11 Y90.503 E8.52127
G1 X70.251 Y90.252 E8.53736
G1 X70.347 Y89.98 E8.55347
G1 X70.395 Y89.698 E8.56946
G1 X70.4 Y89.556 E8.5774
G1 X70.395 Y89.404 E8.58589
G1 X70.347 Y89.122 E8.60188
G1 X70.251 Y88.85 E8.618
G1 X70.11 Y88.599 E8.63408
G1 X69.929 Y88.374 E8.65022
G1 X69.712 Y88.184 E8.66633
G1 X69.466 Y88.032 E8.68249
G1 X69.199 Y87.925 E8.69856
G1 X68.917 Y87.864 E8.71469
G1 X68.629 Y87.851 E8.7308
G1 X68.343 Y87.888 E8.74691
G1 X68.067 Y87.973 E8.76305
G1 X67.809 Y88.103 E8.77919
G1 X67.578 Y88.274 E8.79525
G1 X67.378 Y88.482 E8.81137
G1 X67.216 Y88.721 E8.82751
G1 X67.098 Y88.984 E8.84361
G1 X67.024 Y89.263 E8.85974
G1 X67 Y89.551 E8.87589
G1 X67.024 Y89.838 E8.89198
G1 X67.098 Y90.118 E8.90816
G1 X67.216 Y90.38 E8.92422
G1 X67.378 Y90.619 E8.94035
G1 X67.577 Y90.828 E8.95648
G1 X67.809 Y90.999 E8.97258
G1 X68.067 Y91.129 E8.98873
G1 X68.343 Y91.213 E9.00485
G1 X68.628 Y91.249 E9.0209
G1 X68.916 Y91.238 E9.037
G1 X69.199 Y91.177 E9.05318
G0 F6000 X69.328 Y91.597
G1 F2700 E4.05318
G0 F6000 X68.235 Y91.399
G0 X66.916 Y90.991
G0 X68.052 Y90.072
G0 X42.778 Y90.128
G0 X43.832 Y91.139
G0 X43.123 Y91.427
;TYPE:WALL-INNER
G1 F2700 E9.05318
G1 F1200 X43.425 Y91.241 E9.073
G1 X43.694 Y91.006 E9.09296
G1 X43.917 Y90.728 E9.11287
G1 X44.092 Y90.418 E9.13276
G1 X44.211 Y90.081 E9.15273
G1 X44.269 Y89.741 E9.17201
G1 X44.276 Y89.557 E9.18229
G1 X44.269 Y89.361 E9.19325
G1 X44.211 Y89.021 E9.21253
G1 X44.092 Y88.684 E9.2325
G1 X43.917 Y88.374 E9.25239
G1 X43.694 Y88.096 E9.2723
G1 X43.427 Y87.861 E9.29218
G1 X43.123 Y87.674 E9.31212
G1 X42.793 Y87.541 E9.332
G1 X42.445 Y87.466 E9.35189
G1 X42.088 Y87.45 E9.37186
G1 X41.734 Y87.496 E9.39181
G1 X41.392 Y87.601 E9.4118
G1 X41.074 Y87.761 E9.43169
G1 X40.789 Y87.972 E9.4515
