;FLAVOR:Marlin
;TIME:24897
;Filament used: 29.3985m
;Layer height: 0.28
;MINX:29.335
;MINY:29.335
;MINZ:0.28
;MAXX:190.665
;MAXY:190.665
;MAXZ:7
;Generated with Cura_SteamEngine 4.5.0
M140 S70
M105
M190 S70
M104 S215
M105
M109 S215
M82 ;absolute extrusion mode
; Ender 3 Custom Start G-code
G92 E0 ; Reset Extruder
G28 ; Home all axes
G1 Z2.0 F3000 ; Move Z Axis up little to prevent scratching of Heat Bed
G1 X0.1 Y20 Z0.3 F5000.0 ; Move to start position
G1 X0.1 Y200.0 Z0.3 F1500.0 E15 ; Draw the first line
G1 X0.4 Y200.0 Z0.3 F5000.0 ; Move to side a little
G1 X0.4 Y20 Z0.3 F1500.0 E30 ; Draw the second line
G92 E0 ; Reset Extruder
G1 Z2.0 F3000 ; Move Z Axis up little to prevent scratching of Heat Bed
G1 X5 Y20 Z0.3 F5000.0 ; Move over to prevent blob squish
G92 E0
G92 E0
G1 F2700 E-5
;LAYER_COUNT:25
;LAYER:0
M107
;MESH:carena_top.STL
G0 F6000 X174.216 Y35.951 Z0.28
;TYPE:WALL-INNER
G1 F2700 E0
G1 F1200 X174.557 Y36.054 E0.0199
G1 X174.909 Y36.101 E0.03975
G1 X175.269 Y36.085 E0.05988
G1 X175.616 Y36.01 E0.07972
G1 X175.945 Y35.877 E0.09955
G1 X176.249 Y35.691 E0.11946
G1 X176.518 Y35.455 E0.13946
G1 X176.741 Y35.177 E0.15937
G1 X176.916 Y34.867 E0.17926
G1 X177.035 Y34.53 E0.19923
G1 X177.093 Y34.19 E0.21851
G1 X177.1 Y34 E0.22913
G1 X177.093 Y33.81 E0.23975
G1 X177.035 Y33.47 E0.25903
G1 X176.916 Y33.133 E0.279
G1 X176.741 Y32.823 E0.29889
G1 X176.518 Y32.545 E0.3188
G1 X176.249 Y32.309 E0.3388
G1 X175.945 Y32.123 E0.35871
G1 X175.616 Y31.99 E0.37854
G1 X175.269 Y31.915 E0.39838
G1 X174.909 Y31.899 E0.41851
G1 X174.557 Y31.946 E0.43836
G1 X174.216 Y32.049 E0.45826
G1 X173.899 Y32.21 E0.47813
G1 X173.611 Y32.421 E0.49808
G1 X173.365 Y32.68 E0.51804
G1 X173.164 Y32.974 E0.53794
G1 X173.018 Y33.301 E0.55795
G1 X172.928 Y33.645 E0.57782
G1 X172.897 Y34 E0.59773
G1 X172.928 Y34.356 E0.61769
G1 X173.018 Y34.7 E0.63756
G1 X173.164 Y35.026 E0.65752
G1 X173.365 Y35.32 E0.67742
G1 X173.611 Y35.579 E0.69738
G1 X173.899 Y35.79 E0.71733
G1 X174.216 Y35.951 E0.7372
G0 F6000 X174.366 Y35.578
;TYPE:WALL-OUTER
G1 F1200 X174.642 Y35.662 E0.75332
G1 X174.927 Y35.7 E0.76939
G1 X175.217 Y35.687 E0.78561
G1 X175.498 Y35.626 E0.80167
G1 X175.765 Y35.518 E0.81777
G1 X176.011 Y35.368 E0.83387
G1 X176.228 Y35.177 E0.85002
G1 X176.409 Y34.952 E0.86615
G1 X176.55 Y34.701 E0.88224
G1 X176.646 Y34.429 E0.89836
G1 X176.694 Y34.148 E0.91429
G1 X176.7 Y34 E0.92256
G1 X176.694 Y33.852 E0.93084
G1 X176.646 Y33.571 E0.94677
G1 X176.55 Y33.299 E0.96289
G1 X176.409 Y33.048 E0.97897
G1 X176.228 Y32.823 E0.99511
G1 X176.011 Y32.632 E1.01126
G1 X175.765 Y32.482 E1.02736
G1 X175.498 Y32.374 E1.04345
G1 X175.217 Y32.313 E1.05952
G1 X174.927 Y32.3 E1.07574
G1 X174.642 Y32.338 E1.09181
G1 X174.366 Y32.422 E1.10793
G1 X174.109 Y32.552 E1.12402
G1 X173.876 Y32.723 E1.14017
G1 X173.677 Y32.932 E1.1563
G1 X173.515 Y33.17 E1.17238
G1 X173.397 Y33.434 E1.18854
G1 X173.324 Y33.713 E1.20466
G1 X173.299 Y34 E1.22075
G1 X173.324 Y34.288 E1.23691
G1 X173.397 Y34.567 E1.25302
G1 X173.515 Y34.83 E1.26913
G1 X173.677 Y35.068 E1.28522
G1 X173.876 Y35.277 E1.30134
G1 X174.109 Y35.448 E1.31749
G1 X174.366 Y35.578 E1.33358
G0 F6000 X174.203 Y35.986
G1 F2700 E-3.66642
G0 F6000 X173.485 Y35.722
G0 X174.449 Y34.625
G0 X115.078 Y74.367
G0 X116.533 Y74.241
G0 X115.729 Y76.006
G0 X115.442 Y76.362
G0 X114.711 Y76.902
G0 X113.38 Y77.35
;TYPE:WALL-INNER
G1 F2700 E1.33358
G1 F1200 X113.863 Y77.329 E1.3606
G1 X114.336 Y77.227 E1.38763
G1 X114.784 Y77.046 E1.41463
G1 X115.196 Y76.793 E1.44165
G1 X115.559 Y76.474 E1.46865
G1 X115.863 Y76.097 E1.49571
G1 X116.099 Y75.675 E1.52273
G1 X116.259 Y75.219 E1.54973
G1 X116.342 Y74.742 E1.57679
G1 X116.342 Y74.258 E1.60383
G1 X116.259 Y73.781 E1.63088
G1 X116.099 Y73.325 E1.65789
G1 X115.863 Y72.903 E1.6849
G1 X115.559 Y72.526 E1.71197
G1 X115.196 Y72.207 E1.73897
G1 X114.784 Y71.954 E1.76598
G1 X114.336 Y71.773 E1.79298
G1 X113.863 Y71.671 E1.82002
G1 X113.379 Y71.65 E1.84709
G1 X112.899 Y71.713 E1.87414
G1 X112.437 Y71.853 E1.90112
G1 X112.005 Y72.071 E1.92815
G1 X111.615 Y72.359 E1.95524
G1 X111.28 Y72.709 E1.98232
G1 X111.01 Y73.109 E2.00928
G1 X110.812 Y73.549 E2.03624
G1 X110.688 Y74.018 E2.06335
G1 X110.648 Y74.5 E2.09037
G1 X110.688 Y74.982 E2.1174
G1 X110.812 Y75.451 E2.14451
G1 X111.01 Y75.891 E2.17147
G1 X111.28 Y76.291 E2.19843
G1 X111.615 Y76.641 E2.2255
G1 X112.005 Y76.929 E2.25259
G1 X112.436 Y77.146 E2.27956
G1 X112.899 Y77.288 E2.30662
G1 X113.38 Y77.35 E2.33372
G0 F6000 X113.397 Y76.949
;TYPE:WALL-OUTER
G1 F1200 X113.812 Y76.931 E2.35693
G1 X114.218 Y76.843 E2.38014
G1 X114.603 Y76.688 E2.40333
G1 X114.957 Y76.47 E2.42656
G1 X115.269 Y76.196 E2.44976
G1 X115.53 Y75.872 E2.47301
G1 X115.733 Y75.51 E2.4962
G1 X115.871 Y75.118 E2.51942
G1 X115.942 Y74.708 E2.54267
G1 X115.942 Y74.292 E2.56592
G1 X115.871 Y73.882 E2.58917
G1 X115.733 Y73.49 E2.61239
G1 X115.53 Y73.128 E2.63558
G1 X115.269 Y72.804 E2.65883
G1 X114.957 Y72.53 E2.68203
G1 X114.603 Y72.312 E2.70526
G1 X114.218 Y72.157 E2.72845
G1 X113.812 Y72.069 E2.75167
G1 X113.396 Y72.051 E2.77493
G1 X112.984 Y72.105 E2.79815
G1 X112.586 Y72.226 E2.82139
G1 X112.215 Y72.413 E2.84461
G1 X111.88 Y72.66 E2.86787
G1 X111.593 Y72.961 E2.8911
G1 X111.361 Y73.305 E2.91429
G1 X111.19 Y73.683 E2.93747
G1 X111.084 Y74.086 E2.96076
G1 X111.049 Y74.5 E2.98397
G1 X111.084 Y74.914 E3.00719
G1 X111.19 Y75.317 E3.03047
G1 X111.361 Y75.695 E3.05365
G1 X111.593 Y76.039 E3.07684
G1 X111.88 Y76.34 E3.10008
G1 X112.215 Y76.587 E3.12333
G1 X112.586 Y76.774 E3.14655
G1 X112.984 Y76.896 E3.16981
G1 X113.397 Y76.949 E3.19308
G0 F6000 X113.379 Y77.388
G1 F2700 E-1.80692
G0 F6000 X112.09 Y76.792
G0 X111.721 Y76.521
G0 X110.499 Y75.015
G0 X111.94 Y74.772
G0 X45.5 Y34.667
G0 X46.363 Y35.845
G0 X45.616 Y36.01
;TYPE:WALL-INNER
G1 F2700 E3.19308
G1 F1200 X45.945 Y35.877 E3.21291
G1 X46.249 Y35.691 E3.23282
G1 X46.518 Y35.455 E3.25281
G1 X46.741 Y35.177 E3.27273
G1 X46.916 Y34.867 E3.29262
G1 X47.035 Y34.53 E3.31259
G1 X47.093 Y34.19 E3.33186
G1 X47.1 Y34 E3.34249
G1 X47.093 Y33.81 E3.35311
G1 X47.035 Y33.47 E3.37238
G1 X46.916 Y33.133 E3.39235
G1 X46.741 Y32.823 E3.41224
G1 X46.518 Y32.545 E3.43216
G1 X46.249 Y32.309 E3.45215
G1 X45.945 Y32.123 E3.47207
G1 X45.616 Y31.99 E3.4919
G1 X45.269 Y31.915 E3.51173
G1 X44.909 Y31.899 E3.53187
G1 X44.557 Y31.946 E3.55171
G1 X44.216 Y32.049 E3.57162
G1 X43.899 Y32.21 E3.59148
G1 X43.611 Y32.421 E3.61143
G1 X43.365 Y32.68 E3.63139
G1 X43.164 Y32.974 E3.65129
G1 X43.018 Y33.301 E3.6713
G1 X42.928 Y33.645 E3.69117
G1 X42.897 Y34 E3.71108
G1 X42.928 Y34.356 E3.73105
G1 X43.018 Y34.7 E3.75092
G1 X43.164 Y35.026 E3.77088
G1 X43.365 Y35.32 E3.79078
G1 X43.611 Y35.579 E3.81074
G1 X43.899 Y35.79 E3.83069
G1 X44.216 Y35.951 E3.85055
G1 X44.557 Y36.054 E3.87046
G1 X44.909 Y36.101 E3.8903
G1 X45.269 Y36.085 E3.91044
G1 X45.616 Y36.01 E3.93027
G0 F6000 X45.498 Y35.626
;TYPE:WALL-OUTER
G1 F1200 X45.765 Y35.518 E3.94637
G1 X46.011 Y35.368 E3.96247
G1 X46.228 Y35.177 E3.97862
G1 X46.409 Y34.952 E3.99476
G1 X46.55 Y34.701 E4.01084
G1 X46.646 Y34.429 E4.02696
G1 X46.694 Y34.148 E4.04289
G1 X46.7 Y34 E4.05117
G1 X46.694 Y33.852 E4.05944
G1 X46.646 Y33.571 E4.07537
G1 X46.55 Y33.299 E4.09149
G1 X46.409 Y33.048 E4.10758
G1 X46.228 Y32.823 E4.12371
G1 X46.011 Y32.632 E4.13986
G1 X45.765 Y32.482 E4.15596
G1 X45.498 Y32.374 E4.17206
G1 X45.217 Y32.313 E4.18812
G1 X44.927 Y32.3 E4.20434
G1 X44.642 Y32.338 E4.22041
G1 X44.366 Y32.422 E4.23653
G1 X44.109 Y32.552 E4.25262
G1 X43.876 Y32.723 E4.26877
G1 X43.677 Y32.932 E4.2849
G1 X43.515 Y33.17 E4.30099
G1 X43.397 Y33.434 E4.31714
G1 X43.324 Y33.713 E4.33326
G1 X43.299 Y34 E4.34936
G1 X43.324 Y34.288 E4.36551
G1 X43.397 Y34.567 E4.38162
G1 X43.515 Y34.83 E4.39773
G1 X43.677 Y35.068 E4.41382
G1 X43.876 Y35.277 E4.42994
G1 X44.109 Y35.448 E4.44609
G1 X44.366 Y35.578 E4.46219
G1 X44.642 Y35.662 E4.47831
G1 X44.927 Y35.7 E4.49437
G1 X45.217 Y35.687 E4.51059
G1 X45.498 Y35.626 E4.52666
G0 F6000 X45.627 Y36.046
G1 F2700 E-0.47334
G0 F6000 X44.9 Y36.293
G0 X44.967 Y34.834
G0 X42.702 Y72.929
G0 X42.888 Y71.481
G0 X44.442 Y72.638
G0 X44.952 Y73.391
G0 X45.179 Y74.263
G0 X45.179 Y74.737
G0 X44.952 Y75.609
G0 X44.539 Y76.218
G0 X43.784 Y77.046
;TYPE:WALL-INNER
G1 F2700 E4.52666
G1 F1200 X44.196 Y76.793 E4.55368
G1 X44.559 Y76.474 E4.58068
G1 X44.863 Y76.097 E4.60774
G1 X45.099 Y75.675 E4.63476
G1 X45.259 Y75.219 E4.66176
G1 X45.34 Y74.755 E4.68808
G1 X45.35 Y74.5 E4.70234
G1 X45.34 Y74.245 E4.7166
G1 X45.259 Y73.781 E4.74292
G1 X45.099 Y73.325 E4.76992
G1 X44.863 Y72.903 E4.79694
G1 X44.559 Y72.526 E4.824
G1 X44.196 Y72.207 E4.851
G1 X43.784 Y71.954 E4.87801
G1 X43.336 Y71.773 E4.90501
G1 X42.863 Y71.671 E4.93205
G1 X42.379 Y71.65 E4.95912
G1 X41.899 Y71.713 E4.98617
G1 X41.437 Y71.853 E5.01315
G1 X41.005 Y72.071 E5.04018
G1 X40.615 Y72.359 E5.06727
G1 X40.28 Y72.709 E5.09435
G1 X40.01 Y73.109 E5.12131
G1 X39.812 Y73.549 E5.14827
G1 X39.688 Y74.018 E5.17538
G1 X39.648 Y74.5 E5.2024
G1 X39.688 Y74.982 E5.22943
G1 X39.812 Y75.451 E5.25654
G1 X40.01 Y75.891 E5.2835
G1 X40.28 Y76.291 E5.31046
G1 X40.615 Y76.641 E5.33754
G1 X41.005 Y76.929 E5.36463
G1 X41.436 Y77.146 E5.39159
G1 X41.899 Y77.288 E5.41865
G1 X42.38 Y77.35 E5.44575
G1 X42.863 Y77.329 E5.47276
G1 X43.336 Y77.227 E5.4998
G1 X43.784 Y77.046 E5.5268
G0 F6000 X43.603 Y76.688
;TYPE:WALL-OUTER
G1 F1200 X43.957 Y76.47 E5.55003
G1 X44.269 Y76.196 E5.57323
G1 X44.53 Y75.872 E5.59648
G1 X44.733 Y75.51 E5.61967
G1 X44.871 Y75.118 E5.64289
G1 X44.941 Y74.712 E5.66591
G1 X44.95 Y74.5 E5.67777
G1 X44.941 Y74.288 E5.68962
G1 X44.871 Y73.882 E5.71265
G1 X44.733 Y73.49 E5.73587
G1 X44.53 Y73.128 E5.75906
G1 X44.269 Y72.804 E5.78231
G1 X43.957 Y72.53 E5.80551
G1 X43.603 Y72.312 E5.82874
G1 X43.218 Y72.157 E5.85193
G1 X42.812 Y72.069 E5.87514
G1 X42.396 Y72.051 E5.89841
G1 X41.984 Y72.105 E5.92163
G1 X41.586 Y72.226 E5.94487
G1 X41.215 Y72.413 E5.96808
G1 X40.88 Y72.66 E5.99134
G1 X40.593 Y72.961 E6.01458
G1 X40.361 Y73.305 E6.03777
G1 X40.19 Y73.683 E6.06095
G1 X40.084 Y74.086 E6.08423
G1 X40.049 Y74.5 E6.10745
G1 X40.084 Y74.914 E6.13066
G1 X40.19 Y75.317 E6.15395
G1 X40.361 Y75.695 E6.17713
G1 X40.593 Y76.039 E6.20031
G1 X40.88 Y76.34 E6.22355
G1 X41.215 Y76.587 E6.24681
G1 X41.586 Y76.774 E6.27003
G1 X41.984 Y76.896 E6.29329
G1 X42.397 Y76.949 E6.31655
G1 X42.812 Y76.931 E6.33976
G1 X43.218 Y76.843 E6.36298
G1 X43.603 Y76.688 E6.38617
G0 F6000 X43.801 Y77.08
G1 F2700 E1.38617
G0 F6000 X42.888 Y77.519
G0 X42.702 Y76.071
G0 X43.158 Y93.92
G0 X41.291 Y98.96
G0 X43.322 Y126.327
G0 X44.023 Y127.694
G0 X45.5 Y185.333
G0 X46.363 Y184.155
G0 X46.878 Y185.511
G0 X46.908 Y185.885
G0 X46.916 Y186.867
;TYPE:WALL-INNER
G1 F2700 E6.38617
G1 F1200 X47.035 Y186.53 E6.40614
G1 X47.093 Y186.19 E6.42541
G1 X47.1 Y186 E6.43603
G1 X47.093 Y185.81 E6.44666
G1 X47.035 Y185.47 E6.46593
G1 X46.916 Y185.133 E6.4859
G1 X46.741 Y184.823 E6.50579
G1 X46.518 Y184.545 E6.5257
G1 X46.249 Y184.309 E6.5457
G1 X45.945 Y184.123 E6.56561
G1 X45.616 Y183.99 E6.58544
G1 X45.269 Y183.915 E6.60528
G1 X44.909 Y183.899 E6.62542
G1 X44.557 Y183.946 E6.64526
G1 X44.216 Y184.049 E6.66516
G1 X43.899 Y184.21 E6.68503
G1 X43.611 Y184.421 E6.70498
G1 X43.365 Y184.68 E6.72494
G1 X43.164 Y184.974 E6.74484
G1 X43.018 Y185.301 E6.76485
G1 X42.928 Y185.645 E6.78472
G1 X42.897 Y186 E6.80463
G1 X42.928 Y186.355 E6.82454
G1 X43.018 Y186.699 E6.84441
G1 X43.164 Y187.026 E6.86442
G1 X43.365 Y187.32 E6.88432
G1 X43.611 Y187.579 E6.90428
G1 X43.899 Y187.79 E6.92423
G1 X44.216 Y187.951 E6.9441
G1 X44.557 Y188.054 E6.964
G1 X44.909 Y188.101 E6.98384
G1 X45.269 Y188.085 E7.00398
G1 X45.616 Y188.01 E7.02382
G1 X45.945 Y187.877 E7.04365
G1 X46.249 Y187.691 E7.06356
G1 X46.518 Y187.455 E7.08356
G1 X46.741 Y187.177 E7.10347
G1 X46.916 Y186.867 E7.12336
G0 F6000 X46.55 Y186.701
;TYPE:WALL-OUTER
G1 F1200 X46.646 Y186.429 E7.13948
G1 X46.694 Y186.148 E7.15541
G1 X46.7 Y186 E7.16368
G1 X46.694 Y185.852 E7.17196
G1 X46.646 Y185.571 E7.18789
G1 X46.55 Y185.299 E7.20401
G1 X46.409 Y185.048 E7.22009
G1 X46.228 Y184.823 E7.23623
G1 X46.011 Y184.632 E7.25238
G1 X45.765 Y184.482 E7.26848
G1 X45.498 Y184.374 E7.28457
G1 X45.217 Y184.313 E7.30064
G1 X44.927 Y184.3 E7.31686
G1 X44.642 Y184.338 E7.33293
G1 X44.366 Y184.422 E7.34905
G1 X44.109 Y184.552 E7.36514
G1 X43.876 Y184.723 E7.38129
G1 X43.677 Y184.932 E7.39742
G1 X43.515 Y185.17 E7.4135
G1 X43.397 Y185.434 E7.42966
G1 X43.324 Y185.713 E7.44578
G1 X43.299 Y186 E7.46187
G1 X43.324 Y186.287 E7.47797
G1 X43.397 Y186.566 E7.49409
G1 X43.515 Y186.83 E7.51024
G1 X43.677 Y187.068 E7.52633
G1 X43.876 Y187.277 E7.54246
G1 X44.109 Y187.448 E7.55861
G1 X44.366 Y187.578 E7.5747
G1 X44.642 Y187.662 E7.59082
G1 X44.927 Y187.7 E7.60688
G1 X45.217 Y187.687 E7.62311
G1 X45.498 Y187.626 E7.63917
G1 X45.765 Y187.518 E7.65527
G1 X46.011 Y187.368 E7.67137
G1 X46.228 Y187.177 E7.68752
G1 X46.409 Y186.952 E7.70365
G1 X46.55 Y186.701 E7.71974
G0 F6000 X46.95 Y186.882
G1 F2700 E2.71974
G0 F6000 X46.886 Y185.649
G0 X46.363 Y184.155
G0 X45.5 Y185.333
G0 X43.219 Y146.911
G0 X43.871 Y148.217
G0 X44.559 Y147.474
;TYPE:WALL-INNER
G1 F2700 E7.71974
G1 F1200 X44.863 Y147.097 E7.7468
G1 X45.099 Y146.675 E7.77382
G1 X45.259 Y146.219 E7.80082
G1 X45.342 Y145.742 E7.82788
G1 X45.342 Y145.258 E7.85492
G1 X45.259 Y144.781 E7.88197
G1 X45.099 Y144.325 E7.90898
G1 X44.863 Y143.903 E7.93599
G1 X44.559 Y143.526 E7.96305
G1 X44.196 Y143.207 E7.99006
G1 X43.784 Y142.954 E8.01707
G1 X43.336 Y142.773 E8.04407
G1 X42.863 Y142.671 E8.07111
G1 X42.38 Y142.65 E8.09812
G1 X41.899 Y142.712 E8.12522
G1 X41.436 Y142.854 E8.15228
G1 X41.005 Y143.071 E8.17925
G1 X40.615 Y143.359 E8.20634
G1 X40.28 Y143.709 E8.23341
G1 X40.01 Y144.109 E8.26037
G1 X39.812 Y144.549 E8.28733
G1 X39.688 Y145.018 E8.31444
G1 X39.648 Y145.5 E8.34147
G1 X39.688 Y145.982 E8.36849
G1 X39.812 Y146.451 E8.3956
G1 X40.01 Y146.891 E8.42256
G1 X40.28 Y147.291 E8.44952
G1 X40.615 Y147.641 E8.4766
G1 X41.005 Y147.929 E8.50369
G1 X41.436 Y148.146 E8.53065
G1 X41.899 Y148.288 E8.55771
G1 X42.38 Y148.35 E8.58481
G1 X42.863 Y148.329 E8.61182
G1 X43.336 Y148.227 E8.63886
G1 X43.784 Y148.046 E8.66586
G1 X44.196 Y147.793 E8.69287
G1 X44.559 Y147.474 E8.71988
G0 F6000 X44.269 Y147.196
;TYPE:WALL-OUTER
G1 F1200 X44.53 Y146.872 E8.74312
G1 X44.733 Y146.51 E8.76632
G1 X44.871 Y146.118 E8.78954
G1 X44.942 Y145.708 E8.81279
G1 X44.942 Y145.292 E8.83603
G1 X44.871 Y144.882 E8.85928
G1 X44.733 Y144.49 E8.8825
G1 X44.53 Y144.128 E8.9057
G1 X44.269 Y143.804 E8.92894
G1 X43.957 Y143.53 E8.95215
G1 X43.603 Y143.312 E8.97538
G1 X43.218 Y143.157 E8.99857
G1 X42.812 Y143.069 E9.02178
G1 X42.397 Y143.051 E9.04499
G1 X41.984 Y143.104 E9.06826
G1 X41.586 Y143.226 E9.09152
G1 X41.215 Y143.413 E9.11473
G1 X40.88 Y143.66 E9.13799
G1 X40.593 Y143.961 E9.16123
G1 X40.361 Y144.305 E9.18441
G1 X40.19 Y144.683 E9.20759
G1 X40.084 Y145.086 E9.23088
G1 X40.049 Y145.5 E9.25409
G1 X40.084 Y145.914 E9.27731
G1 X40.19 Y146.317 E9.30059
G1 X40.361 Y146.695 E9.32378
G1 X40.593 Y147.039 E9.34696
G1 X40.88 Y147.34 E9.3702
G1 X41.215 Y147.587 E9.39346
G1 X41.586 Y147.774 E9.41667
G1 X41.984 Y147.896 E9.43993
G1 X42.397 Y147.949 E9.4632
G1 X42.812 Y147.931 E9.48641
G1 X43.218 Y147.843 E9.50962
G1 X43.603 Y147.688 E9.53281
G1 X43.957 Y147.47 E9.55604
G1 X44.269 Y147.196 E9.57925
G0 F6000 X44.586 Y147.5
G1 F2700 E4.57925
G0 F6000 X45.273 Y146.754
G0 X43.94 Y146.16
G0 X58.029 Y142.72
G0 X57.27 Y143.966
G0 X62.714 Y146.347
G0 X68.025 Y148.158
G0 X73.821 Y149.209
G0 X79.439 Y149.413
G0 X85.306 Y148.746
G0 X90.787 Y147.48
;TYPE:WALL-INNER
G1 F2700 E9.57925
G1 F1200 X90.934 Y147.418 E9.58816
G1 X96.107 Y145.219 E9.90224
G1 X96.241 Y145.138 E9.91099
G1 X101.04 Y142.208 E10.22518
G1 X101.163 Y142.107 E10.23407
G1 X105.486 Y138.509 E10.54834
G1 X109.344 Y134.204 E10.87136
G1 X109.431 Y134.074 E10.8801
G1 X112.535 Y129.38 E11.19454
G1 X112.601 Y129.238 E11.20329
G1 X114.989 Y124.146 E11.51755
G1 X116.654 Y118.612 E11.84047
G1 X116.678 Y118.456 E11.84929
G1 X117.496 Y112.892 E12.16353
G1 X117.496 Y107.11 E12.48661
G1 X117.475 Y106.963 E12.49491
